;FLAVOR:Marlin
;TIME:2470
;Filament used: 0.631067m
;Layer height: 0.2
;MINX:86.442
;MINY:87.324
;MINZ:0.2
;MAXX:127.947
;MAXY:127.18
;MAXZ:63.2
;Generated with Cura_SteamEngine 4.13.1
M140 S60
M105
M190 S60
M104 S200
M105
M109 S200
M82 ;absolute extrusion mode
; Ender 3 Custom Start G-code
G92 E0 ; Reset Extruder
G28 ; Home all axes
G1 Z2.0 F3000 ; Move Z Axis up little to prevent scratching of Heat Bed
G1 X0.1 Y20 Z0.3 F5000.0 ; Move to start position
G1 X0.1 Y200.0 Z0.3 F1500.0 E15 ; Draw the first line
G1 X0.4 Y200.0 Z0.3 F5000.0 ; Move to side a little
G1 X0.4 Y20 Z0.3 F1500.0 E30 ; Draw the second line
G92 E0 ; Reset Extruder
G1 Z2.0 F3000 ; Move Z Axis up little to prevent scratching of Heat Bed
G1 X5 Y20 Z0.3 F5000.0 ; Move over to prevent blob squish
G92 E0
G92 E0
G1 F1500 E-6.5
;LAYER_COUNT:400
;LAYER:0
M107
G0 F6000 X92.579 Y92.86 Z0.2
;TYPE:SKIRT
G1 F1500 E0
G1 F1200 X92.778 Y92.672 E0.01366
G1 X93.197 Y92.294 E0.04181
G1 X93.634 Y91.92 E0.07051
G1 X94.125 Y91.523 E0.10201
G1 X94.342 Y91.357 E0.11564
G1 X94.745 Y91.063 E0.14053
G1 X95.229 Y90.725 E0.16998
G1 X95.816 Y90.34 E0.205
G1 X96.05 Y90.197 E0.21868
G1 X96.446 Y89.966 E0.24156
G1 X96.923 Y89.7 E0.2688
G1 X97.541 Y89.38 E0.30352
G1 X97.801 Y89.255 E0.31792
G1 X98.2 Y89.072 E0.33982
G1 X98.552 Y88.919 E0.35897
G1 X99.266 Y88.637 E0.39726
G1 X100.072 Y88.349 E0.43997
G1 X101.129 Y88.027 E0.49509
G1 X101.886 Y87.836 E0.53404
G1 X102.975 Y87.617 E0.58946
G1 X103.753 Y87.499 E0.62872
G1 X104.149 Y87.446 E0.64865
G1 X104.278 Y87.431 E0.65513
G1 X104.923 Y87.374 E0.68744
G1 X105.444 Y87.343 E0.71348
G1 X105.914 Y87.324 E0.73694
G1 X106.634 Y87.325 E0.77286
G1 X107.31 Y87.347 E0.80661
G1 X107.653 Y87.363 E0.82374
G1 X107.781 Y87.371 E0.83014
G1 X108.488 Y87.438 E0.86557
G1 X109.201 Y87.527 E0.90141
G1 X109.679 Y87.596 E0.92551
G1 X110.339 Y87.724 E0.95905
G1 X111.107 Y87.896 E0.99832
G1 X111.605 Y88.019 E1.02391
G1 X111.793 Y88.07 E1.03363
G1 X112.308 Y88.223 E1.06043
G1 X112.575 Y88.309 E1.07442
G1 X113.022 Y88.463 E1.09801
G1 X113.549 Y88.657 E1.12603
G1 X114.188 Y88.914 E1.16039
G1 X114.453 Y89.03 E1.17482
G1 X114.914 Y89.244 E1.20018
G1 X115.443 Y89.504 E1.22959
G1 X116.001 Y89.798 E1.26105
G1 X116.204 Y89.912 E1.27267
G1 X116.627 Y90.161 E1.29716
G1 X117.118 Y90.465 E1.32597
G1 X117.682 Y90.838 E1.3597
G1 X117.925 Y91.009 E1.37453
G1 X118.314 Y91.295 E1.39861
G1 X118.75 Y91.63 E1.42605
G1 X119.249 Y92.037 E1.45817
G1 X119.473 Y92.23 E1.47292
G1 X119.867 Y92.585 E1.49938
G1 X120.27 Y92.966 E1.52705
G1 X120.689 Y93.383 E1.55654
G1 X120.898 Y93.602 E1.57165
G1 X121.305 Y94.051 E1.60188
G1 X121.687 Y94.496 E1.63114
G1 X122.097 Y95.003 E1.66367
G1 X122.269 Y95.228 E1.6778
G1 X122.576 Y95.649 E1.70379
G1 X122.911 Y96.131 E1.73308
G1 X123.233 Y96.62 E1.76229
G1 X123.363 Y96.829 E1.77457
G1 X123.647 Y97.312 E1.80252
G1 X123.943 Y97.844 E1.8329
G1 X124.261 Y98.457 E1.86735
G1 X124.37 Y98.684 E1.87991
G1 X124.564 Y99.111 E1.90331
G1 X124.723 Y99.48 E1.92336
G1 X124.989 Y100.155 E1.95955
G1 X125.265 Y100.926 E2.00041
G1 X125.588 Y101.986 E2.05569
G1 X125.788 Y102.778 E2.09645
G1 X126.005 Y103.849 E2.15096
G1 X126.116 Y104.572 E2.18746
G1 X126.171 Y104.978 E2.2079
G1 X126.188 Y105.123 E2.21518
G1 X126.246 Y105.776 E2.24789
G1 X126.281 Y106.362 E2.27718
G1 X126.298 Y106.791 E2.2986
G1 X126.301 Y106.925 E2.30528
G1 X126.298 Y107.549 E2.33641
G1 X126.28 Y108.112 E2.36452
G1 X126.258 Y108.557 E2.38675
G1 X126.185 Y109.357 E2.42682
G1 X126.08 Y110.181 E2.46827
G1 X125.891 Y111.255 E2.52267
G1 X125.724 Y111.996 E2.56057
G1 X125.428 Y113.066 E2.61595
G1 X125.147 Y113.919 E2.66076
G1 X124.992 Y114.361 E2.68413
G1 X124.732 Y115.012 E2.7191
G1 X124.603 Y115.309 E2.73526
G1 X124.383 Y115.785 E2.76142
G1 X124.146 Y116.269 E2.7883
G1 X123.837 Y116.857 E2.82144
G1 X123.686 Y117.125 E2.83679
G1 X123.442 Y117.538 E2.86072
G1 X123.147 Y118.014 E2.88866
G1 X122.773 Y118.58 E2.92251
G1 X122.606 Y118.817 E2.93697
G1 X122.316 Y119.21 E2.96134
G1 X121.971 Y119.658 E2.98955
G1 X121.552 Y120.171 E3.02259
G1 X121.364 Y120.388 E3.03692
G1 X121.024 Y120.764 E3.06221
G1 X120.652 Y121.157 E3.08921
G1 X120.225 Y121.584 E3.11933
G1 X120 Y121.798 E3.13482
G1 X119.561 Y122.195 E3.16435
G1 X119.119 Y122.574 E3.1934
G1 X118.625 Y122.974 E3.22511
G1 X118.42 Y123.131 E3.238
G1 X117.991 Y123.444 E3.26449
G1 X117.486 Y123.795 E3.29517
G1 X116.92 Y124.165 E3.32891
G1 X116.668 Y124.319 E3.34364
G1 X116.278 Y124.546 E3.36616
G1 X115.825 Y124.799 E3.39204
G1 X115.222 Y125.113 E3.42596
G1 X114.953 Y125.243 E3.44087
G1 X114.479 Y125.459 E3.46685
G1 X114.122 Y125.612 E3.48623
G1 X113.486 Y125.863 E3.52034
G1 X112.708 Y126.143 E3.5616
G1 X111.607 Y126.478 E3.61901
G1 X110.828 Y126.673 E3.65907
G1 X109.763 Y126.886 E3.71326
G1 X109.013 Y127 E3.75111
G1 X108.629 Y127.052 E3.77044
G1 X108.459 Y127.072 E3.77898
G1 X107.81 Y127.13 E3.81149
G1 X107.331 Y127.159 E3.83543
G1 X106.947 Y127.176 E3.85461
G1 X106.799 Y127.18 E3.86199
G1 X106.115 Y127.178 E3.89612
G1 X105.437 Y127.156 E3.92996
G1 X105.098 Y127.14 E3.94689
G1 X104.953 Y127.131 E3.95414
G1 X104.228 Y127.063 E3.99047
G1 X103.537 Y126.976 E4.02521
G1 X103.181 Y126.925 E4.04316
G1 X102.394 Y126.777 E4.08311
G1 X101.624 Y126.604 E4.12248
G1 X101.16 Y126.49 E4.14632
G1 X100.974 Y126.44 E4.15593
G1 X100.433 Y126.28 E4.18407
G1 X100.166 Y126.194 E4.19807
G1 X99.719 Y126.04 E4.22166
G1 X99.192 Y125.846 E4.24967
G1 X98.553 Y125.589 E4.28404
G1 X98.288 Y125.473 E4.29847
G1 X97.835 Y125.263 E4.32338
G1 X97.305 Y125.003 E4.35283
G1 X96.705 Y124.686 E4.38669
G1 X96.493 Y124.566 E4.39884
G1 X96.093 Y124.329 E4.42203
G1 X95.6 Y124.023 E4.45098
G1 X95.04 Y123.652 E4.4845
G1 X94.813 Y123.492 E4.49835
G1 X94.416 Y123.199 E4.52297
G1 X93.966 Y122.852 E4.55132
G1 X93.456 Y122.435 E4.58419
G1 X93.231 Y122.24 E4.59904
G1 X92.874 Y121.917 E4.62306
G1 X92.471 Y121.537 E4.65069
G1 X92.02 Y121.088 E4.68244
G1 X91.851 Y120.91 E4.69469
G1 X91.576 Y120.611 E4.71496
G1 X91.41 Y120.422 E4.72751
G1 X91.048 Y120 E4.75524
G1 X90.663 Y119.526 E4.78571
G1 X90.506 Y119.322 E4.79855
G1 X90.166 Y118.856 E4.82733
G1 X89.81 Y118.342 E4.85853
G1 X89.453 Y117.794 E4.89116
G1 X89.316 Y117.57 E4.90426
G1 X89.07 Y117.148 E4.92862
G1 X88.791 Y116.645 E4.95732
G1 X88.481 Y116.045 E4.99101
G1 X88.372 Y115.818 E5.00358
G1 X88.18 Y115.396 E5.02671
G1 X88.029 Y115.046 E5.04573
G1 X87.762 Y114.369 E5.08203
G1 X87.47 Y113.554 E5.12522
G1 X87.146 Y112.492 E5.18062
G1 X86.956 Y111.74 E5.21932
G1 X86.736 Y110.647 E5.27494
G1 X86.618 Y109.869 E5.3142
G1 X86.563 Y109.459 E5.33484
G1 X86.55 Y109.346 E5.34051
G1 X86.495 Y108.703 E5.37271
G1 X86.462 Y108.138 E5.40094
G1 X86.446 Y107.77 E5.41932
G1 X86.442 Y107.618 E5.42691
G1 X86.444 Y106.958 E5.45983
G1 X86.461 Y106.41 E5.48719
G1 X86.48 Y106.014 E5.50697
G1 X86.493 Y105.816 E5.51687
G1 X86.557 Y105.139 E5.55079
G1 X86.652 Y104.381 E5.5889
G1 X86.848 Y103.268 E5.64529
G1 X87.031 Y102.461 E5.68657
G1 X87.324 Y101.404 E5.74129
G1 X87.587 Y100.606 E5.78321
G1 X87.747 Y100.151 E5.80727
G1 X88.021 Y99.464 E5.84417
G1 X88.149 Y99.171 E5.86013
G1 X88.362 Y98.711 E5.88542
G1 X88.619 Y98.187 E5.91453
G1 X88.926 Y97.604 E5.94741
G1 X89.041 Y97.4 E5.95909
G1 X89.288 Y96.983 E5.98327
G1 X89.602 Y96.477 E6.01298
G1 X89.977 Y95.911 E6.04685
G1 X90.14 Y95.68 E6.06096
G1 X90.427 Y95.29 E6.08512
G1 X90.78 Y94.832 E6.11396
G1 X91.243 Y94.27 E6.15029
G1 X91.414 Y94.075 E6.16323
G1 X91.722 Y93.737 E6.18605
G1 X92.138 Y93.299 E6.21618
G1 X92.579 Y92.86 E6.24723
G0 F6000 X92.991 Y93.296
G1 F1200 X93.19 Y93.108 E6.26089
G1 X93.588 Y92.75 E6.28759
G1 X94.025 Y92.376 E6.31629
G1 X94.489 Y92 E6.34608
G1 X94.706 Y91.834 E6.35971
G1 X95.088 Y91.554 E6.38334
G1 X95.572 Y91.216 E6.4128
G1 X96.129 Y90.852 E6.44599
G1 X96.363 Y90.709 E6.45967
G1 X96.738 Y90.49 E6.48134
G1 X97.215 Y90.224 E6.50859
G1 X97.801 Y89.92 E6.54152
G1 X98.061 Y89.795 E6.55592
G1 X98.439 Y89.622 E6.57666
G1 X98.791 Y89.469 E6.5958
G1 X99.468 Y89.202 E6.63211
G1 X100.274 Y88.914 E6.67481
G1 X101.275 Y88.609 E6.72702
G1 X102.032 Y88.418 E6.76597
G1 X103.064 Y88.21 E6.81849
G1 X103.842 Y88.092 E6.85775
G1 X104.218 Y88.042 E6.87668
G1 X104.347 Y88.027 E6.88315
G1 X104.959 Y87.973 E6.91381
G1 X105.48 Y87.942 E6.93984
G1 X105.932 Y87.924 E6.96241
G1 X106.615 Y87.925 E6.99649
G1 X107.291 Y87.947 E7.03023
G1 X107.616 Y87.962 E7.04646
G1 X107.744 Y87.97 E7.05286
G1 X108.414 Y88.033 E7.08644
G1 X109.127 Y88.122 E7.12228
G1 X109.582 Y88.188 E7.14522
G1 X110.208 Y88.309 E7.17703
G1 X110.976 Y88.481 E7.21629
G1 X111.448 Y88.598 E7.24056
G1 X111.636 Y88.649 E7.25027
G1 X112.124 Y88.794 E7.27567
G1 X112.391 Y88.88 E7.28967
G1 X112.814 Y89.026 E7.31199
G1 X113.341 Y89.22 E7.34001
G1 X113.947 Y89.464 E7.3726
G1 X114.212 Y89.58 E7.38703
G1 X114.649 Y89.783 E7.41107
G1 X115.178 Y90.043 E7.44048
G1 X115.707 Y90.321 E7.47029
G1 X115.91 Y90.435 E7.48191
G1 X116.311 Y90.672 E7.50515
G1 X116.802 Y90.976 E7.53396
G1 X117.337 Y91.329 E7.56594
G1 X117.58 Y91.5 E7.58076
G1 X117.948 Y91.771 E7.60356
G1 X118.384 Y92.106 E7.63099
G1 X118.858 Y92.491 E7.66146
G1 X119.082 Y92.684 E7.67621
G1 X119.455 Y93.021 E7.70129
G1 X119.858 Y93.402 E7.72896
G1 X120.255 Y93.798 E7.75693
G1 X120.464 Y94.017 E7.77204
G1 X120.85 Y94.442 E7.80068
G1 X121.232 Y94.887 E7.82994
G1 X121.621 Y95.367 E7.86076
G1 X121.793 Y95.592 E7.87489
G1 X122.084 Y95.991 E7.89953
G1 X122.419 Y96.473 E7.92882
G1 X122.724 Y96.937 E7.95652
G1 X122.854 Y97.146 E7.9688
G1 X123.123 Y97.603 E7.99525
G1 X123.419 Y98.135 E8.02563
G1 X123.72 Y98.717 E8.05832
G1 X123.829 Y98.944 E8.07088
G1 X124.013 Y99.349 E8.09307
G1 X124.172 Y99.718 E8.11312
G1 X124.424 Y100.357 E8.14739
G1 X124.7 Y101.128 E8.18824
G1 X125.006 Y102.133 E8.24066
G1 X125.206 Y102.925 E8.28141
G1 X125.412 Y103.94 E8.33308
G1 X125.523 Y104.663 E8.36957
G1 X125.575 Y105.048 E8.38896
G1 X125.592 Y105.193 E8.39624
G1 X125.647 Y105.812 E8.42724
G1 X125.682 Y106.398 E8.45653
G1 X125.698 Y106.804 E8.4768
G1 X125.701 Y106.938 E8.48349
G1 X125.698 Y107.53 E8.51303
G1 X125.68 Y108.093 E8.54113
G1 X125.659 Y108.523 E8.56261
G1 X125.59 Y109.281 E8.60058
G1 X125.485 Y110.105 E8.64202
G1 X125.305 Y111.123 E8.6936
G1 X125.138 Y111.864 E8.73149
G1 X124.858 Y112.878 E8.78397
G1 X124.577 Y113.731 E8.82878
G1 X124.428 Y114.156 E8.85125
G1 X124.182 Y114.773 E8.88439
G1 X124.053 Y115.07 E8.90054
G1 X123.844 Y115.522 E8.92539
G1 X123.607 Y116.006 E8.95227
G1 X123.314 Y116.563 E8.98367
G1 X123.163 Y116.831 E8.99902
G1 X122.932 Y117.222 E9.02168
G1 X122.637 Y117.698 E9.04962
G1 X122.282 Y118.234 E9.08169
G1 X122.115 Y118.471 E9.09615
G1 X121.841 Y118.844 E9.11924
G1 X121.496 Y119.292 E9.14745
G1 X121.098 Y119.778 E9.17879
G1 X120.91 Y119.995 E9.19312
G1 X120.588 Y120.351 E9.21707
G1 X120.216 Y120.744 E9.24406
G1 X119.812 Y121.149 E9.2726
G1 X119.587 Y121.363 E9.2881
G1 X119.17 Y121.74 E9.31614
G1 X118.728 Y122.119 E9.34519
G1 X118.26 Y122.498 E9.37523
G1 X118.055 Y122.655 E9.38812
G1 X117.649 Y122.951 E9.41318
G1 X117.144 Y123.302 E9.44387
G1 X116.607 Y123.653 E9.47587
G1 X116.355 Y123.807 E9.49061
G1 X115.986 Y124.022 E9.51191
G1 X115.533 Y124.275 E9.5378
G1 X114.961 Y124.573 E9.56998
G1 X114.692 Y124.703 E9.58488
G1 X114.243 Y124.908 E9.60951
G1 X113.886 Y125.061 E9.62889
G1 X113.283 Y125.298 E9.66121
G1 X112.505 Y125.578 E9.70246
G1 X111.461 Y125.896 E9.75691
G1 X110.682 Y126.091 E9.79697
G1 X109.673 Y126.293 E9.84831
G1 X108.923 Y126.407 E9.88616
G1 X108.559 Y126.456 E9.90448
G1 X108.389 Y126.476 E9.91302
G1 X107.774 Y126.531 E9.94383
G1 X107.295 Y126.56 E9.96777
G1 X106.93 Y126.576 E9.986
G1 X106.782 Y126.58 E9.99338
G1 X106.134 Y126.578 E10.02571
G1 X105.456 Y126.556 E10.05955
G1 X105.135 Y126.541 E10.07559
G1 X104.99 Y126.532 E10.08283
G1 X104.303 Y126.468 E10.11726
G1 X103.612 Y126.381 E10.152
G1 X103.271 Y126.332 E10.16919
G1 X102.526 Y126.192 E10.20701
G1 X101.756 Y126.019 E10.24638
G1 X101.315 Y125.91 E10.26905
G1 X101.129 Y125.86 E10.27866
G1 X100.617 Y125.709 E10.30529
G1 X100.35 Y125.623 E10.31928
G1 X99.927 Y125.477 E10.34161
G1 X99.4 Y125.283 E10.36962
G1 X98.794 Y125.039 E10.40222
G1 X98.529 Y124.923 E10.41665
G1 X98.099 Y124.724 E10.44029
G1 X97.569 Y124.464 E10.46974
G1 X97.001 Y124.164 E10.50179
G1 X96.789 Y124.044 E10.51394
G1 X96.41 Y123.819 E10.53593
G1 X95.917 Y123.513 E10.56488
G1 X95.385 Y123.161 E10.5967
G1 X95.158 Y123.001 E10.61056
G1 X94.782 Y122.724 E10.63386
G1 X94.332 Y122.377 E10.66221
G1 X93.849 Y121.982 E10.69334
G1 X93.624 Y121.787 E10.70819
G1 X93.285 Y121.48 E10.73101
G1 X92.882 Y121.1 E10.75864
G1 X92.455 Y120.675 E10.7887
G1 X92.286 Y120.497 E10.80095
G1 X92.023 Y120.21 E10.82037
G1 X91.866 Y120.031 E10.83225
G1 X91.504 Y119.609 E10.85998
G1 X91.139 Y119.16 E10.88885
G1 X90.982 Y118.956 E10.9017
G1 X90.659 Y118.514 E10.92901
G1 X90.303 Y118 E10.9602
G1 X89.965 Y117.481 E10.9911
G1 X89.828 Y117.257 E11.0042
G1 X89.595 Y116.857 E11.0273
G1 X89.316 Y116.354 E11.05599
G1 X89.022 Y115.785 E11.08795
G1 X88.913 Y115.558 E11.10051
G1 X88.731 Y115.158 E11.12243
G1 X88.58 Y114.808 E11.14145
G1 X88.327 Y114.166 E11.17588
G1 X88.035 Y113.351 E11.21907
G1 X87.728 Y112.345 E11.27154
G1 X87.538 Y111.593 E11.31024
G1 X87.329 Y110.558 E11.36292
G1 X87.211 Y109.78 E11.40218
G1 X87.159 Y109.391 E11.42176
G1 X87.146 Y109.278 E11.42743
G1 X87.094 Y108.668 E11.45798
G1 X87.061 Y108.103 E11.48621
G1 X87.046 Y107.754 E11.50364
G1 X87.042 Y107.602 E11.51123
G1 X87.043 Y106.977 E11.54241
G1 X87.06 Y106.429 E11.56976
G1 X87.078 Y106.053 E11.58854
G1 X87.091 Y105.855 E11.59844
G1 X87.153 Y105.214 E11.63057
G1 X87.248 Y104.456 E11.66868
G1 X87.433 Y103.4 E11.72217
G1 X87.616 Y102.593 E11.76345
G1 X87.894 Y101.592 E11.81528
G1 X88.157 Y100.794 E11.8572
G1 X88.261 Y100.493 E11.87309
G1 X88.311 Y100.355 E11.88041
G1 X88.571 Y99.704 E11.91538
G1 X88.699 Y99.411 E11.93134
G1 X88.901 Y98.975 E11.95531
G1 X89.158 Y98.451 E11.98443
G1 X89.449 Y97.898 E12.0156
G1 X89.564 Y97.694 E12.02729
G1 X89.797 Y97.3 E12.05012
G1 X90.111 Y96.794 E12.07983
G1 X90.467 Y96.257 E12.11198
G1 X90.63 Y96.026 E12.12608
G1 X90.903 Y95.656 E12.14902
G1 X91.256 Y95.198 E12.17787
G1 X91.694 Y94.665 E12.21229
G1 X91.865 Y94.47 E12.22523
G1 X92.157 Y94.151 E12.2468
G1 X92.573 Y93.713 E12.27694
G1 X92.991 Y93.296 E12.3064
G0 F6000 X93.403 Y93.732
G1 F1200 X93.602 Y93.544 E12.32006
G1 X93.978 Y93.206 E12.34528
G1 X94.415 Y92.832 E12.37398
G1 X94.854 Y92.476 E12.40217
G1 X95.071 Y92.31 E12.4158
G1 X95.432 Y92.046 E12.43812
G1 X95.916 Y91.708 E12.46757
G1 X96.442 Y91.364 E12.49893
G1 X96.676 Y91.221 E12.51261
G1 X97.03 Y91.014 E12.53307
G1 X97.507 Y90.748 E12.56031
G1 X98.061 Y90.461 E12.59144
G1 X98.321 Y90.336 E12.60583
G1 X98.678 Y90.173 E12.62541
G1 X99.03 Y90.02 E12.64456
G1 X99.67 Y89.767 E12.6789
G1 X100.476 Y89.479 E12.7216
G1 X101.422 Y89.191 E12.77093
G1 X102.179 Y89 E12.80988
G1 X103.154 Y88.803 E12.85951
G1 X103.932 Y88.685 E12.89877
G1 X104.287 Y88.638 E12.91663
G1 X104.416 Y88.623 E12.92311
G1 X104.994 Y88.572 E12.95206
G1 X105.515 Y88.541 E12.9781
G1 X105.95 Y88.524 E12.99982
G1 X106.595 Y88.524 E13.032
G1 X107.271 Y88.546 E13.06574
G1 X107.706 Y88.569 E13.08747
G1 X108.34 Y88.628 E13.11924
G1 X109.053 Y88.717 E13.15509
G1 X109.486 Y88.781 E13.17693
G1 X110.077 Y88.895 E13.20695
G1 X110.845 Y89.067 E13.24622
G1 X111.291 Y89.177 E13.26914
G1 X111.479 Y89.228 E13.27886
G1 X111.94 Y89.365 E13.30285
G1 X112.207 Y89.451 E13.31684
G1 X112.607 Y89.589 E13.33795
G1 X113.134 Y89.783 E13.36597
G1 X113.706 Y90.013 E13.39673
G1 X113.971 Y90.129 E13.41116
G1 X114.384 Y90.321 E13.43388
G1 X114.913 Y90.581 E13.46329
