;FLAVOR:Marlin
;TIME:4459
;Filament used: 1.8205m
;Layer height: 0.2
;MINX:84.049
;MINY:76.232
;MINZ:0.2
;MAXX:138.931
;MAXY:132.003
;MAXZ:94
;Generated with Cura_SteamEngine 4.13.1
M140 S60
M105
M190 S60
M104 S200
M105
M109 S200
M82 ;absolute extrusion mode
; Ender 3 Custom Start G-code
G92 E0 ; Reset Extruder
G28 ; Home all axes
G1 Z2.0 F3000 ; Move Z Axis up little to prevent scratching of Heat Bed
G1 X0.1 Y20 Z0.3 F5000.0 ; Move to start position
G1 X0.1 Y200.0 Z0.3 F1500.0 E15 ; Draw the first line
G1 X0.4 Y200.0 Z0.3 F5000.0 ; Move to side a little
G1 X0.4 Y20 Z0.3 F1500.0 E30 ; Draw the second line
G92 E0 ; Reset Extruder
G1 Z2.0 F3000 ; Move Z Axis up little to prevent scratching of Heat Bed
G1 X5 Y20 Z0.3 F5000.0 ; Move over to prevent blob squish
G92 E0
G92 E0
G1 F1500 E-6.5
;LAYER_COUNT:550
;LAYER:0
M107
G0 F6000 X91.755 Y84.681 Z0.2
;TYPE:SKIRT
G1 F1500 E0
G1 F1200 X92.293 Y84.133 E0.03831
G1 X93.017 Y83.444 E0.08818
G1 X93.596 Y82.93 E0.1268
G1 X94.465 Y82.208 E0.18317
G1 X95.076 Y81.734 E0.22175
G1 X95.892 Y81.144 E0.27199
G1 X96.266 Y80.884 E0.29471
G1 X96.638 Y80.643 E0.31682
G1 X97.548 Y80.078 E0.37026
G1 X98.203 Y79.701 E0.40797
G1 X99.075 Y79.236 E0.45727
G1 X99.457 Y79.04 E0.47869
G1 X99.881 Y78.839 E0.5021
G1 X100.69 Y78.475 E0.54636
G1 X101.088 Y78.304 E0.56797
G1 X101.513 Y78.135 E0.59079
G1 X102.377 Y77.812 E0.63681
G1 X102.767 Y77.674 E0.65745
G1 X102.902 Y77.629 E0.66455
G1 X103.214 Y77.53 E0.68088
G1 X104.012 Y77.289 E0.72247
G1 X104.393 Y77.181 E0.74222
G1 X104.612 Y77.123 E0.75353
G1 X104.937 Y77.042 E0.77024
G1 X105.668 Y76.871 E0.80769
G1 X106.003 Y76.798 E0.8248
G1 X106.23 Y76.752 E0.83635
G1 X106.614 Y76.681 E0.85583
G1 X107.39 Y76.551 E0.89509
G1 X107.734 Y76.499 E0.91244
G1 X107.961 Y76.468 E0.92387
G1 X108.35 Y76.421 E0.94342
G1 X109.154 Y76.339 E0.98374
G1 X109.536 Y76.307 E1.00287
G1 X109.916 Y76.281 E1.02187
G1 X110.23 Y76.264 E1.03756
G1 X110.694 Y76.245 E1.06073
G1 X111.019 Y76.236 E1.07695
G1 X111.334 Y76.232 E1.09266
G1 X111.688 Y76.233 E1.11033
G1 X112.295 Y76.244 E1.14061
G1 X112.64 Y76.255 E1.15784
G1 X112.931 Y76.269 E1.17237
G1 X113.285 Y76.292 E1.19007
G1 X114.107 Y76.357 E1.23121
G1 X114.482 Y76.393 E1.25
G1 X114.687 Y76.416 E1.26029
G1 X115.033 Y76.46 E1.27769
G1 X115.837 Y76.575 E1.31821
G1 X116.228 Y76.638 E1.33797
G1 X116.724 Y76.731 E1.36315
G1 X117.564 Y76.907 E1.40597
G1 X117.918 Y76.987 E1.42407
G1 X118.054 Y77.02 E1.43106
G1 X118.432 Y77.119 E1.45055
G1 X119.321 Y77.367 E1.4966
G1 X119.766 Y77.5 E1.51977
G1 X120.169 Y77.633 E1.54094
G1 X121.035 Y77.937 E1.58673
G1 X121.377 Y78.063 E1.60491
G1 X121.501 Y78.111 E1.61155
G1 X121.887 Y78.269 E1.63235
G1 X122.793 Y78.658 E1.68155
G1 X123.474 Y78.977 E1.71906
G1 X124.458 Y79.478 E1.77415
G1 X124.813 Y79.666 E1.79419
G1 X125.197 Y79.886 E1.81627
G1 X125.981 Y80.355 E1.86185
G1 X126.349 Y80.585 E1.8835
G1 X126.721 Y80.832 E1.90578
G1 X127.602 Y81.444 E1.9593
G1 X128.222 Y81.907 E1.9979
G1 X129.05 Y82.569 E2.05079
G1 X129.633 Y83.067 E2.08904
G1 X130.411 Y83.779 E2.14166
G1 X130.98 Y84.338 E2.18145
G1 X131.776 Y85.175 E2.23908
G1 X132.294 Y85.757 E2.27795
G1 X132.922 Y86.514 E2.32702
G1 X133.226 Y86.897 E2.35142
G1 X133.437 Y87.18 E2.36903
G1 X134.046 Y88.024 E2.42095
G1 X134.279 Y88.359 E2.44131
G1 X134.52 Y88.731 E2.46343
G1 X135.044 Y89.572 E2.51286
G1 X135.293 Y89.99 E2.53714
G1 X135.471 Y90.312 E2.55549
G1 X135.918 Y91.149 E2.60283
G1 X136.11 Y91.523 E2.62381
G1 X136.305 Y91.934 E2.6465
G1 X136.691 Y92.789 E2.6933
G1 X136.861 Y93.185 E2.7148
G1 X137.024 Y93.596 E2.73686
G1 X137.348 Y94.46 E2.7829
G1 X137.482 Y94.836 E2.80281
G1 X137.526 Y94.967 E2.80971
G1 X137.634 Y95.307 E2.8275
G1 X137.876 Y96.109 E2.8693
G1 X137.979 Y96.474 E2.88822
G1 X138.037 Y96.692 E2.89947
G1 X138.122 Y97.033 E2.91701
G1 X138.293 Y97.765 E2.95451
G1 X138.366 Y98.097 E2.97147
G1 X138.412 Y98.324 E2.98302
G1 X138.483 Y98.708 E3.00251
G1 X138.613 Y99.484 E3.04176
G1 X138.663 Y99.813 E3.05836
G1 X138.687 Y99.987 E3.06713
G1 X138.737 Y100.401 E3.08793
G1 X138.829 Y101.311 E3.13356
G1 X138.859 Y101.672 E3.15164
G1 X138.886 Y102.061 E3.17109
G1 X138.905 Y102.403 E3.18818
G1 X138.918 Y102.732 E3.2046
G1 X138.926 Y103.031 E3.21953
G1 X138.931 Y103.403 E3.23809
G1 X138.93 Y103.746 E3.2552
G1 X138.92 Y104.359 E3.28579
G1 X138.91 Y104.705 E3.30306
G1 X138.896 Y105.006 E3.31809
G1 X138.872 Y105.379 E3.33674
G1 X138.807 Y106.201 E3.37787
G1 X138.771 Y106.576 E3.39667
G1 X138.748 Y106.781 E3.40696
G1 X138.704 Y107.131 E3.42456
G1 X138.589 Y107.933 E3.46498
G1 X138.525 Y108.326 E3.48485
G1 X138.439 Y108.781 E3.50795
G1 X138.252 Y109.674 E3.55347
G1 X138.164 Y110.061 E3.57327
G1 X138.121 Y110.236 E3.58226
G1 X138.032 Y110.573 E3.59965
G1 X137.807 Y111.382 E3.64154
G1 X137.696 Y111.759 E3.66115
G1 X137.661 Y111.87 E3.66695
G1 X137.547 Y112.211 E3.68489
G1 X137.218 Y113.151 E3.73458
G1 X137.056 Y113.588 E3.75783
G1 X136.919 Y113.923 E3.77589
G1 X136.527 Y114.842 E3.82573
G1 X136.205 Y115.533 E3.86377
G1 X135.723 Y116.483 E3.91691
G1 X135.511 Y116.881 E3.93941
G1 X135.283 Y117.279 E3.96229
G1 X134.78 Y118.118 E4.0111
G1 X134.578 Y118.445 E4.03027
G1 X134.322 Y118.829 E4.0533
G1 X133.76 Y119.64 E4.10253
G1 X133.302 Y120.257 E4.14086
G1 X132.631 Y121.099 E4.19458
G1 X132.293 Y121.503 E4.22086
G1 X132.065 Y121.761 E4.23803
G1 X131.386 Y122.503 E4.28821
G1 X130.828 Y123.072 E4.32797
G1 X129.989 Y123.87 E4.38574
G1 X129.411 Y124.383 E4.4243
G1 X128.655 Y125.011 E4.47333
G1 X128.267 Y125.32 E4.49807
G1 X127.987 Y125.529 E4.51551
G1 X127.138 Y126.142 E4.56775
G1 X126.734 Y126.421 E4.59225
G1 X126.438 Y126.612 E4.60982
G1 X125.594 Y127.138 E4.65944
G1 X125.102 Y127.427 E4.6879
G1 X124.867 Y127.557 E4.7013
G1 X124.017 Y128.011 E4.74938
G1 X123.71 Y128.169 E4.7666
G1 X123.579 Y128.234 E4.7739
G1 X123.196 Y128.415 E4.79503
G1 X122.369 Y128.788 E4.8403
G1 X121.93 Y128.975 E4.8641
G1 X121.58 Y129.113 E4.88287
G1 X120.73 Y129.432 E4.92817
G1 X120.326 Y129.575 E4.94955
G1 X120.146 Y129.635 E4.95901
G1 X119.842 Y129.731 E4.97492
G1 X119.066 Y129.966 E5.01537
G1 X118.665 Y130.08 E5.03617
G1 X118.445 Y130.138 E5.04752
G1 X118.132 Y130.216 E5.06361
G1 X117.401 Y130.387 E5.10107
G1 X117.077 Y130.458 E5.11761
G1 X116.861 Y130.502 E5.12861
G1 X116.463 Y130.575 E5.1488
G1 X115.662 Y130.709 E5.18932
G1 X115.302 Y130.764 E5.20749
G1 X115.124 Y130.788 E5.21645
G1 X114.753 Y130.832 E5.23509
G1 X113.88 Y130.921 E5.27887
G1 X113.501 Y130.953 E5.29784
G1 X113.093 Y130.981 E5.31824
G1 X112.751 Y130.999 E5.33533
G1 X112.415 Y131.012 E5.35211
G1 X112.128 Y131.02 E5.36643
G1 X111.764 Y131.025 E5.38459
G1 X111.408 Y131.024 E5.40235
G1 X110.77 Y131.013 E5.43419
G1 X110.427 Y131.002 E5.45131
G1 X110.151 Y130.989 E5.46509
G1 X109.785 Y130.966 E5.48339
G1 X108.963 Y130.901 E5.52453
G1 X108.588 Y130.865 E5.54332
G1 X108.383 Y130.842 E5.55361
G1 X108.037 Y130.798 E5.57101
G1 X107.233 Y130.683 E5.61153
G1 X106.819 Y130.616 E5.63246
G1 X106.368 Y130.53 E5.65536
G1 X105.5 Y130.348 E5.69961
G1 X105.138 Y130.266 E5.71813
G1 X104.982 Y130.228 E5.72614
G1 X104.616 Y130.133 E5.745
G1 X103.755 Y129.893 E5.7896
G1 X103.38 Y129.781 E5.80912
G1 X102.917 Y129.63 E5.83342
G1 X102.064 Y129.332 E5.8785
G1 X101.689 Y129.193 E5.89845
G1 X101.581 Y129.151 E5.90423
G1 X101.222 Y129.004 E5.92358
G1 X100.267 Y128.595 E5.97542
G1 X99.573 Y128.27 E6.01365
G1 X98.635 Y127.792 E6.06617
G1 X98.283 Y127.606 E6.08603
G1 X97.875 Y127.372 E6.1095
G1 X97.063 Y126.885 E6.15674
G1 X96.697 Y126.657 E6.17825
G1 X96.336 Y126.417 E6.19988
G1 X95.526 Y125.856 E6.24903
G1 X95.086 Y125.536 E6.27618
G1 X94.824 Y125.332 E6.29274
G1 X94.023 Y124.691 E6.34393
G1 X93.447 Y124.198 E6.38175
G1 X92.64 Y123.46 E6.43631
G1 X92.058 Y122.888 E6.47702
G1 X91.283 Y122.071 E6.5332
G1 X90.772 Y121.496 E6.57158
G1 X90.142 Y120.736 E6.62083
G1 X89.896 Y120.429 E6.64046
G1 X89.614 Y120.054 E6.66387
G1 X88.988 Y119.184 E6.71734
G1 X88.561 Y118.546 E6.75564
G1 X88.028 Y117.69 E6.80595
G1 X87.799 Y117.307 E6.82821
G1 X87.738 Y117.2 E6.83436
G1 X87.585 Y116.921 E6.85023
G1 X87.161 Y116.127 E6.89514
G1 X86.978 Y115.77 E6.91515
G1 X86.905 Y115.621 E6.92343
G1 X86.751 Y115.294 E6.94146
G1 X86.378 Y114.468 E6.98668
G1 X86.189 Y114.024 E7.01075
G1 X86.051 Y113.674 E7.02952
G1 X85.732 Y112.824 E7.07482
G1 X85.589 Y112.42 E7.0962
G1 X85.529 Y112.24 E7.10567
G1 X85.433 Y111.936 E7.12157
G1 X85.198 Y111.16 E7.16202
G1 X85.083 Y110.754 E7.18307
G1 X85.023 Y110.526 E7.19484
G1 X84.946 Y110.217 E7.21072
G1 X84.777 Y109.494 E7.24777
G1 X84.706 Y109.171 E7.26427
G1 X84.662 Y108.955 E7.27526
G1 X84.589 Y108.557 E7.29545
G1 X84.455 Y107.756 E7.33597
G1 X84.399 Y107.39 E7.35444
G1 X84.372 Y107.189 E7.36456
G1 X84.33 Y106.834 E7.38239
G1 X84.245 Y106.007 E7.42387
G1 X84.211 Y105.608 E7.44385
G1 X84.185 Y105.224 E7.46305
G1 X84.168 Y104.909 E7.47879
G1 X84.15 Y104.461 E7.50116
G1 X84.142 Y104.145 E7.51693
G1 X84.138 Y103.83 E7.53264
G1 X84.139 Y103.476 E7.55031
G1 X84.15 Y102.869 E7.58059
G1 X84.161 Y102.524 E7.59781
G1 X84.175 Y102.233 E7.61235
G1 X84.198 Y101.879 E7.63005
G1 X84.263 Y101.057 E7.67119
G1 X84.299 Y100.682 E7.68998
G1 X84.322 Y100.477 E7.70027
G1 X84.367 Y100.125 E7.71798
G1 X84.484 Y99.31 E7.75905
G1 X84.549 Y98.904 E7.77957
G1 X84.58 Y98.732 E7.78829
G1 X84.64 Y98.424 E7.80394
G1 X84.806 Y97.628 E7.84451
G1 X84.894 Y97.239 E7.86441
G1 X84.931 Y97.088 E7.87216
G1 X85.022 Y96.74 E7.89011
G1 X85.274 Y95.835 E7.93698
G1 X85.397 Y95.424 E7.95838
G1 X85.544 Y94.978 E7.98181
G1 X85.827 Y94.17 E8.02452
G1 X85.969 Y93.787 E8.0449
G1 X86.019 Y93.659 E8.05176
G1 X86.159 Y93.318 E8.07015
G1 X86.566 Y92.367 E8.12175
G1 X86.891 Y91.671 E8.16008
G1 X87.374 Y90.723 E8.21316
G1 X87.548 Y90.395 E8.23168
G1 X87.793 Y89.965 E8.25637
G1 X88.263 Y89.18 E8.30202
G1 X88.47 Y88.846 E8.32162
G1 X88.739 Y88.442 E8.34584
G1 X89.352 Y87.56 E8.39943
G1 X89.813 Y86.942 E8.43789
G1 X90.475 Y86.114 E8.49078
G1 X90.991 Y85.512 E8.53034
G1 X91.755 Y84.681 E8.58665
G0 F6000 X92.197 Y85.087
G1 F1200 X92.707 Y84.568 E8.62296
G1 X93.431 Y83.879 E8.67282
G1 X93.979 Y83.391 E8.70943
G1 X94.848 Y82.669 E8.76579
G1 X95.427 Y82.22 E8.80235
G1 X96.243 Y81.63 E8.85259
G1 X96.602 Y81.381 E8.87438
G1 X96.954 Y81.153 E8.89531
G1 X97.864 Y80.588 E8.94874
G1 X98.485 Y80.23 E8.98451
G1 X99.357 Y79.765 E9.03381
G1 X99.725 Y79.577 E9.05443
G1 X100.128 Y79.386 E9.07668
G1 X100.937 Y79.022 E9.12093
G1 X101.32 Y78.857 E9.14174
G1 X101.723 Y78.697 E9.16337
G1 X102.587 Y78.374 E9.20939
G1 X102.957 Y78.243 E9.22897
G1 X103.388 Y78.104 E9.25157
G1 X104.186 Y77.863 E9.29316
G1 X104.546 Y77.761 E9.31182
G1 X104.765 Y77.703 E9.32313
G1 X105.073 Y77.627 E9.33895
G1 X105.804 Y77.456 E9.37641
G1 X106.122 Y77.386 E9.39265
G1 X106.349 Y77.34 E9.40421
G1 X106.713 Y77.273 E9.42267
G1 X107.489 Y77.143 E9.46193
G1 X107.815 Y77.093 E9.47838
G1 X108.042 Y77.062 E9.48981
G1 X108.411 Y77.018 E9.50835
G1 X109.215 Y76.936 E9.54867
G1 X109.577 Y76.905 E9.5668
G1 X109.957 Y76.879 E9.5858
G1 X110.255 Y76.863 E9.60069
G1 X110.719 Y76.844 E9.62386
G1 X111.027 Y76.836 E9.63923
G1 X111.342 Y76.832 E9.65494
G1 X111.677 Y76.833 E9.67166
G1 X112.284 Y76.844 E9.70195
G1 X112.611 Y76.855 E9.71827
G1 X112.902 Y76.869 E9.7328
G1 X113.237 Y76.89 E9.74955
G1 X114.059 Y76.955 E9.79069
G1 X114.415 Y76.989 E9.80853
G1 X114.62 Y77.012 E9.81882
G1 X114.948 Y77.054 E9.83532
G1 X115.752 Y77.169 E9.87584
G1 X116.123 Y77.228 E9.89458
G1 X116.28 Y77.256 E9.90254
G1 X116.601 Y77.319 E9.91886
G1 X117.441 Y77.495 E9.96168
G1 X117.776 Y77.57 E9.9788
G1 X117.912 Y77.603 E9.98578
G1 X118.271 Y77.697 E10.0043
G1 X119.16 Y77.945 E10.05034
G1 X119.588 Y78.073 E10.07263
G1 X119.97 Y78.199 E10.0927
G1 X120.836 Y78.503 E10.13849
G1 X121.161 Y78.623 E10.15577
G1 X121.285 Y78.671 E10.16241
G1 X121.65 Y78.82 E10.18208
G1 X122.556 Y79.209 E10.23127
G1 X123.202 Y79.512 E10.26687
G1 X124.186 Y80.013 E10.32195
G1 X124.525 Y80.193 E10.3411
G1 X124.889 Y80.401 E10.36202
G1 X125.673 Y80.87 E10.4076
G1 X126.026 Y81.09 E10.42835
G1 X126.379 Y81.325 E10.44951
G1 X127.26 Y81.937 E10.50302
G1 X127.848 Y82.376 E10.53963
G1 X128.676 Y83.038 E10.59252
G1 X129.228 Y83.51 E10.62876
G1 X130.006 Y84.222 E10.68137
G1 X130.545 Y84.751 E10.71905
G1 X131.341 Y85.588 E10.77668
G1 X131.832 Y86.141 E10.81357
G1 X132.46 Y86.898 E10.86264
G1 X132.751 Y87.263 E10.88593
G1 X132.95 Y87.531 E10.90258
G1 X133.559 Y88.375 E10.95451
G1 X133.782 Y88.695 E10.97397
G1 X134.011 Y89.048 E10.99496
G1 X134.535 Y89.889 E11.0444
G1 X134.771 Y90.285 E11.0674
G1 X134.942 Y90.594 E11.08501
G1 X135.389 Y91.431 E11.13235
G1 X135.573 Y91.791 E11.15252
G1 X135.759 Y92.181 E11.17408
G1 X136.145 Y93.036 E11.22088
G1 X136.306 Y93.411 E11.24124
G1 X136.462 Y93.807 E11.26248
G1 X136.786 Y94.671 E11.30851
G1 X136.913 Y95.027 E11.32737
G1 X136.957 Y95.158 E11.33427
G1 X137.059 Y95.48 E11.35112
G1 X137.301 Y96.282 E11.39291
G1 X137.4 Y96.628 E11.41087
G1 X137.458 Y96.846 E11.42212
G1 X137.538 Y97.169 E11.43872
G1 X137.709 Y97.901 E11.47622
G1 X137.778 Y98.216 E11.49231
G1 X137.824 Y98.443 E11.50387
G1 X137.891 Y98.807 E11.52233
G1 X138.021 Y99.583 E11.56159
G1 X138.069 Y99.895 E11.57734
G1 X138.093 Y100.069 E11.5861
G1 X138.14 Y100.462 E11.60585
G1 X138.232 Y101.372 E11.65148
G1 X138.261 Y101.713 E11.66855
G1 X138.288 Y102.102 E11.68801
G1 X138.306 Y102.427 E11.70424
G1 X138.319 Y102.756 E11.72067
G1 X138.326 Y103.04 E11.73484
G1 X138.331 Y103.412 E11.7534
G1 X138.331 Y103.736 E11.76957
G1 X138.321 Y104.349 E11.80016
G1 X138.31 Y104.677 E11.81653
G1 X138.296 Y104.978 E11.83156
G1 X138.274 Y105.331 E11.84921
G1 X138.209 Y106.153 E11.89035
G1 X138.175 Y106.509 E11.90819
G1 X138.152 Y106.714 E11.91848
G1 X138.11 Y107.046 E11.93517
G1 X137.995 Y107.848 E11.9756
G1 X137.935 Y108.22 E11.99439
G1 X137.852 Y108.658 E12.01664
G1 X137.665 Y109.551 E12.06215
G1 X137.581 Y109.918 E12.08094
G1 X137.538 Y110.093 E12.08993
G1 X137.454 Y110.413 E12.10643
G1 X137.229 Y111.222 E12.14833
G1 X137.123 Y111.579 E12.16691
G1 X136.981 Y112.013 E12.18969
G1 X136.652 Y112.953 E12.23937
G1 X136.497 Y113.37 E12.26157
G1 X136.367 Y113.688 E12.27871
G1 X135.975 Y114.607 E12.32855
G1 X135.669 Y115.262 E12.36462
G1 X135.187 Y116.212 E12.41777
G1 X134.985 Y116.593 E12.43928
G1 X134.769 Y116.971 E12.461
G1 X134.266 Y117.81 E12.50981
G1 X134.071 Y118.123 E12.52821
G1 X133.829 Y118.487 E12.55001
G1 X133.267 Y119.298 E12.59924
G1 X132.832 Y119.883 E12.63561
G1 X132.161 Y120.725 E12.68933
G1 X131.895 Y121.047 E12.71016
G1 X131.622 Y121.356 E12.73073
G1 X130.943 Y122.098 E12.78091
G1 X130.414 Y122.637 E12.81859
G1 X129.575 Y123.435 E12.87636
G1 X129.028 Y123.922 E12.9129
G1 X128.272 Y124.55 E12.96193
G1 X127.901 Y124.845 E12.98558
G1 X127.636 Y125.042 E13.00205
G1 X126.787 Y125.655 E13.05429
G1 X126.401 Y125.921 E13.07768
G1 X126.12 Y126.103 E13.09438
G1 X125.276 Y126.629 E13.144
G1 X124.807 Y126.905 E13.17115
G1 X124.584 Y127.028 E13.18386
G1 X123.734 Y127.482 E13.23193
G1 X123.444 Y127.631 E13.2482
G1 X123.313 Y127.696 E13.25549
G1 X122.949 Y127.868 E13.27558
G1 X122.122 Y128.241 E13.32084
G1 X121.706 Y128.419 E13.34342
G1 X121.369 Y128.551 E13.36147
G1 X120.519 Y128.87 E13.40677
G1 X120.136 Y129.006 E13.42704
G1 X119.956 Y129.066 E13.43651
G1 X119.668 Y129.157 E13.45158
G1 X118.892 Y129.392 E13.49203
G1 X118.512 Y129.5 E13.51174
G1 X118.292 Y129.558 E13.52309
G1 X117.996 Y129.631 E13.5383
G1 X117.265 Y129.802 E13.57575
G1 X116.958 Y129.87 E13.59144
G1 X116.742 Y129.914 E13.60244
G1 X116.364 Y129.984 E13.62162
G1 X115.563 Y130.118 E13.66213
G1 X115.221 Y130.169 E13.67939
G1 X115.043 Y130.193 E13.68835
