;FLAVOR:Marlin
;TIME:2886
;Filament used: 1.0826m
;Layer height: 0.2
;MINX:86.752
;MINY:80.283
;MINZ:0.2
;MAXX:135.76
;MAXY:129.291
;MAXZ:72.4
;Generated with Cura_SteamEngine 4.13.1
M140 S60
M105
M190 S60
M104 S200
M105
M109 S200
M82 ;absolute extrusion mode
; Ender 3 Custom Start G-code
G92 E0 ; Reset Extruder
G28 ; Home all axes
G1 Z2.0 F3000 ; Move Z Axis up little to prevent scratching of Heat Bed
G1 X0.1 Y20 Z0.3 F5000.0 ; Move to start position
G1 X0.1 Y200.0 Z0.3 F1500.0 E15 ; Draw the first line
G1 X0.4 Y200.0 Z0.3 F5000.0 ; Move to side a little
G1 X0.4 Y20 Z0.3 F1500.0 E30 ; Draw the second line
G92 E0 ; Reset Extruder
G1 Z2.0 F3000 ; Move Z Axis up little to prevent scratching of Heat Bed
G1 X5 Y20 Z0.3 F5000.0 ; Move over to prevent blob squish
G92 E0
G92 E0
G1 F1500 E-6.5
;LAYER_COUNT:450
;LAYER:0
M107
G0 F6000 X93.49 Y87.919 Z0.2
;TYPE:SKIRT
G1 F1500 E0
G1 F1200 X94.047 Y87.351 E0.03969
G1 X94.675 Y86.753 E0.08295
G1 X95.257 Y86.235 E0.12182
G1 X95.954 Y85.656 E0.16703
G1 X96.58 Y85.171 E0.20654
G1 X97.313 Y84.643 E0.25161
G1 X97.948 Y84.217 E0.28976
G1 X98.642 Y83.784 E0.33057
G1 X99.314 Y83.396 E0.36928
G1 X100.129 Y82.961 E0.41537
G1 X100.817 Y82.622 E0.45363
G1 X101.58 Y82.278 E0.49539
G1 X102.283 Y81.989 E0.53331
G1 X103.062 Y81.698 E0.5748
G1 X103.502 Y81.543 E0.59807
G1 X103.842 Y81.435 E0.61587
G1 X104.509 Y81.233 E0.65064
G1 X105.205 Y81.045 E0.68661
G1 X106.02 Y80.853 E0.72838
G1 X106.508 Y80.749 E0.75327
G1 X106.91 Y80.675 E0.77367
G1 X107.554 Y80.568 E0.80624
G1 X107.885 Y80.517 E0.82295
G1 X107.995 Y80.502 E0.82848
G1 X108.369 Y80.458 E0.84727
G1 X109.135 Y80.379 E0.88569
G1 X109.509 Y80.346 E0.90442
G1 X109.751 Y80.329 E0.91653
G1 X110.112 Y80.31 E0.93456
G1 X110.499 Y80.295 E0.95388
G1 X110.799 Y80.287 E0.96886
G1 X111.116 Y80.283 E0.98467
G1 X111.454 Y80.284 E1.00153
G1 X111.872 Y80.291 E1.02239
G1 X112.239 Y80.303 E1.04071
G1 X112.745 Y80.332 E1.066
G1 X113.597 Y80.399 E1.10863
G1 X114.109 Y80.451 E1.13431
G1 X114.426 Y80.492 E1.15026
G1 X115.104 Y80.59 E1.18443
G1 X115.56 Y80.665 E1.20749
G1 X115.889 Y80.728 E1.2242
G1 X116.632 Y80.882 E1.26206
G1 X117.358 Y81.058 E1.29933
G1 X118.184 Y81.286 E1.34208
G1 X118.938 Y81.528 E1.38159
G1 X119.104 Y81.582 E1.39029
G1 X119.791 Y81.823 E1.42662
G1 X120.51 Y82.102 E1.46509
G1 X121.262 Y82.424 E1.50591
G1 X121.942 Y82.743 E1.54338
G1 X122.769 Y83.163 E1.58965
G1 X123.463 Y83.545 E1.62918
G1 X124.204 Y83.988 E1.67225
G1 X124.859 Y84.411 E1.71115
G1 X125.568 Y84.903 E1.7542
G1 X126.201 Y85.375 E1.7936
G1 X126.899 Y85.934 E1.83821
G1 X127.47 Y86.423 E1.87572
G1 X128.124 Y87.021 E1.91993
G1 X128.695 Y87.58 E1.95979
G1 X129.285 Y88.2 E2.00249
G1 X129.8 Y88.779 E2.04115
G1 X130.399 Y89.5 E2.08792
G1 X130.884 Y90.127 E2.12746
G1 X131.384 Y90.821 E2.17014
G1 X131.811 Y91.457 E2.20836
G1 X132.275 Y92.201 E2.2521
G1 X132.667 Y92.88 E2.29122
G1 X133.082 Y93.659 E2.33525
G1 X133.415 Y94.338 E2.37298
G1 X133.774 Y95.134 E2.41655
G1 X134.067 Y95.847 E2.45501
G1 X134.339 Y96.577 E2.49387
G1 X134.469 Y96.943 E2.51325
G1 X134.605 Y97.363 E2.53527
G1 X134.812 Y98.049 E2.57102
G1 X134.941 Y98.509 E2.59486
G1 X135.044 Y98.916 E2.6158
G1 X135.208 Y99.623 E2.65201
G1 X135.35 Y100.338 E2.68838
G1 X135.487 Y101.163 E2.7301
G1 X135.556 Y101.638 E2.75405
G1 X135.594 Y101.97 E2.77072
G1 X135.662 Y102.64 E2.80432
G1 X135.691 Y102.973 E2.821
G1 X135.711 Y103.25 E2.83485
G1 X135.732 Y103.621 E2.85339
G1 X135.748 Y104.023 E2.87346
G1 X135.756 Y104.318 E2.88819
G1 X135.76 Y104.602 E2.90236
G1 X135.76 Y104.944 E2.91942
G1 X135.753 Y105.39 E2.94167
G1 X135.741 Y105.764 E2.96034
G1 X135.733 Y105.93 E2.96863
G1 X135.71 Y106.29 E2.98663
G1 X135.641 Y107.155 E3.02992
G1 X135.597 Y107.6 E3.05223
G1 X135.552 Y107.95 E3.06984
G1 X135.456 Y108.617 E3.10346
G1 X135.38 Y109.08 E3.12686
G1 X135.308 Y109.451 E3.14572
G1 X135.149 Y110.208 E3.18431
G1 X134.974 Y110.929 E3.22132
G1 X134.744 Y111.755 E3.2641
G1 X134.514 Y112.483 E3.30219
G1 X134.217 Y113.328 E3.34688
G1 X133.941 Y114.038 E3.38488
G1 X133.612 Y114.807 E3.42661
G1 X133.296 Y115.484 E3.46388
G1 X132.898 Y116.269 E3.50779
G1 X132.509 Y116.975 E3.54801
G1 X132.038 Y117.762 E3.59377
G1 X131.619 Y118.412 E3.63235
G1 X131.159 Y119.075 E3.67261
G1 X130.691 Y119.702 E3.71164
G1 X130.104 Y120.436 E3.75853
G1 X129.604 Y121.02 E3.79689
G1 X129.027 Y121.65 E3.83951
G1 X128.478 Y122.21 E3.87863
G1 X127.824 Y122.833 E3.9237
G1 X127.237 Y123.355 E3.96289
G1 X126.537 Y123.936 E4.00827
G1 X125.916 Y124.416 E4.04743
G1 X125.257 Y124.891 E4.08796
G1 X124.613 Y125.323 E4.12665
G1 X123.799 Y125.83 E4.17449
G1 X123.126 Y126.219 E4.21327
G1 X122.392 Y126.61 E4.25476
G1 X121.709 Y126.945 E4.29272
G1 X120.901 Y127.309 E4.33693
G1 X120.18 Y127.605 E4.37581
G1 X119.407 Y127.892 E4.41695
G1 X118.732 Y128.119 E4.45248
G1 X117.968 Y128.35 E4.4923
G1 X117.578 Y128.46 E4.51252
G1 X117.438 Y128.497 E4.51974
G1 X117.113 Y128.578 E4.53645
G1 X116.513 Y128.718 E4.56719
G1 X116.059 Y128.815 E4.59035
G1 X115.657 Y128.89 E4.61075
G1 X114.964 Y129.006 E4.64581
G1 X114.571 Y129.065 E4.66563
G1 X114.125 Y129.119 E4.68805
G1 X113.34 Y129.199 E4.72741
G1 X112.967 Y129.231 E4.74609
G1 X112.692 Y129.25 E4.75984
G1 X112.349 Y129.268 E4.77698
G1 X112.068 Y129.279 E4.79101
G1 X111.77 Y129.287 E4.80588
G1 X111.468 Y129.291 E4.82095
G1 X111.115 Y129.29 E4.83856
G1 X110.599 Y129.281 E4.86431
G1 X110.28 Y129.271 E4.88023
G1 X110.059 Y129.261 E4.89127
G1 X109.666 Y129.237 E4.91091
G1 X108.963 Y129.181 E4.9461
G1 X108.462 Y129.13 E4.97122
G1 X108.121 Y129.087 E4.98837
G1 X107.416 Y128.986 E5.0239
G1 X106.913 Y128.902 E5.04934
G1 X106.641 Y128.849 E5.06317
G1 X105.854 Y128.685 E5.10327
G1 X105.12 Y128.507 E5.14096
G1 X104.307 Y128.281 E5.18305
G1 X103.812 Y128.131 E5.20886
G1 X103.53 Y128.037 E5.22369
G1 X102.779 Y127.774 E5.26339
G1 X102.062 Y127.495 E5.30177
G1 X101.21 Y127.131 E5.34799
G1 X100.514 Y126.806 E5.38632
G1 X99.769 Y126.427 E5.42802
G1 X99.077 Y126.045 E5.46745
G1 X98.28 Y125.568 E5.51379
G1 X97.633 Y125.151 E5.5522
G1 X96.971 Y124.692 E5.59239
G1 X96.341 Y124.222 E5.6316
G1 X95.607 Y123.635 E5.67849
G1 X95.03 Y123.141 E5.71638
G1 X94.399 Y122.564 E5.75904
G1 X93.828 Y122.005 E5.79891
G1 X93.198 Y121.343 E5.8445
G1 X92.675 Y120.754 E5.8838
G1 X92.118 Y120.082 E5.92734
G1 X91.646 Y119.471 E5.96586
G1 X91.128 Y118.753 E6.01003
G1 X90.691 Y118.102 E6.04915
G1 X90.231 Y117.363 E6.09258
G1 X89.852 Y116.707 E6.13038
G1 X89.441 Y115.938 E6.17388
G1 X89.1 Y115.246 E6.21237
G1 X88.745 Y114.459 E6.25544
G1 X88.458 Y113.763 E6.293
G1 X88.17 Y112.994 E6.33397
G1 X88.007 Y112.529 E6.35855
G1 X87.904 Y112.204 E6.37556
G1 X87.695 Y111.509 E6.41177
G1 X87.592 Y111.143 E6.43074
G1 X87.548 Y110.977 E6.4393
G1 X87.465 Y110.644 E6.45643
G1 X87.325 Y110.044 E6.48716
G1 X87.247 Y109.686 E6.50544
G1 X87.221 Y109.556 E6.51206
G1 X87.154 Y109.187 E6.53077
G1 X87.025 Y108.411 E6.57001
G1 X86.928 Y107.687 E6.60646
G1 X86.843 Y106.85 E6.64843
G1 X86.811 Y106.483 E6.66681
G1 X86.795 Y106.252 E6.67836
G1 X86.778 Y105.936 E6.69415
G1 X86.764 Y105.6 E6.71093
G1 X86.755 Y105.246 E6.72859
G1 X86.752 Y104.97 E6.74237
G1 X86.753 Y104.644 E6.75863
G1 X86.762 Y104.13 E6.78428
G1 X86.772 Y103.797 E6.8009
G1 X86.782 Y103.582 E6.81164
G1 X86.805 Y103.216 E6.82993
G1 X86.861 Y102.503 E6.86561
G1 X86.905 Y102.059 E6.88787
G1 X86.957 Y101.651 E6.90839
G1 X87.058 Y100.947 E6.94388
G1 X87.135 Y100.478 E6.96759
G1 X87.196 Y100.162 E6.98364
G1 X87.361 Y99.374 E7.02381
G1 X87.457 Y98.956 E7.04521
G1 X87.557 Y98.571 E7.06505
G1 X87.776 Y97.787 E7.10566
G1 X88.004 Y97.063 E7.14353
G1 X88.275 Y96.293 E7.18426
G1 X88.55 Y95.587 E7.22206
G1 X88.909 Y94.748 E7.26759
G1 X89.233 Y94.056 E7.30571
G1 X89.633 Y93.27 E7.34971
G1 X90.009 Y92.589 E7.38852
G1 X90.454 Y91.844 E7.43181
G1 X90.884 Y91.177 E7.4714
G1 X91.381 Y90.462 E7.51485
G1 X91.848 Y89.837 E7.55377
G1 X92.403 Y89.144 E7.59806
G1 X92.892 Y88.573 E7.63557
G1 X93.49 Y87.919 E7.67978
G0 F6000 X93.933 Y88.324
G1 F1200 X94.46 Y87.785 E7.71739
G1 X95.088 Y87.187 E7.76065
G1 X95.64 Y86.697 E7.79748
G1 X96.337 Y86.118 E7.84269
G1 X96.931 Y85.658 E7.88017
G1 X97.664 Y85.13 E7.92524
G1 X98.265 Y84.726 E7.96137
G1 X98.959 Y84.293 E8.00218
G1 X99.597 Y83.925 E8.03892
G1 X100.412 Y83.49 E8.08501
G1 X101.064 Y83.169 E8.12127
G1 X101.827 Y82.825 E8.16302
G1 X102.493 Y82.551 E8.19895
G1 X103.272 Y82.26 E8.24044
G1 X103.693 Y82.112 E8.2627
G1 X104.016 Y82.009 E8.27962
G1 X104.683 Y81.807 E8.31439
G1 X105.343 Y81.629 E8.34849
G1 X106.158 Y81.437 E8.39027
G1 X106.628 Y81.337 E8.41424
G1 X107.008 Y81.266 E8.43352
G1 X107.652 Y81.159 E8.46609
G1 X108.076 Y81.097 E8.48747
G1 X108.431 Y81.055 E8.50531
G1 X109.197 Y80.976 E8.54373
G1 X109.551 Y80.945 E8.56145
G1 X109.793 Y80.928 E8.57356
G1 X110.135 Y80.909 E8.59065
G1 X110.522 Y80.894 E8.60997
G1 X110.806 Y80.887 E8.62414
G1 X111.123 Y80.883 E8.63996
G1 X111.444 Y80.884 E8.65597
G1 X111.862 Y80.891 E8.67683
G1 X112.21 Y80.902 E8.6942
G1 X112.374 Y80.91 E8.70239
G1 X112.698 Y80.931 E8.71859
G1 X113.55 Y80.998 E8.76123
G1 X114.04 Y81.047 E8.7858
G1 X114.34 Y81.086 E8.80089
G1 X115.018 Y81.184 E8.83507
G1 X115.456 Y81.256 E8.85721
G1 X115.767 Y81.316 E8.87301
G1 X116.51 Y81.47 E8.91087
G1 X117.198 Y81.636 E8.94618
G1 X118.024 Y81.864 E8.98893
G1 X118.738 Y82.095 E9.02637
G1 X118.74 Y82.09 E9.02664
G1 X119.592 Y82.389 E9.07169
G1 X120.274 Y82.654 E9.10819
G1 X121.026 Y82.976 E9.149
G1 X121.671 Y83.277 E9.18451
G1 X122.498 Y83.697 E9.23079
G1 X123.155 Y84.06 E9.26824
G1 X123.896 Y84.503 E9.31131
G1 X124.517 Y84.904 E9.34819
G1 X125.226 Y85.396 E9.39124
G1 X125.826 Y85.843 E9.42857
G1 X126.524 Y86.402 E9.47318
G1 X127.065 Y86.866 E9.50874
G1 X127.719 Y87.464 E9.55295
G1 X128.26 Y87.994 E9.59074
G1 X128.85 Y88.614 E9.63344
G1 X129.338 Y89.163 E9.67008
G1 X129.937 Y89.884 E9.71685
G1 X130.397 Y90.477 E9.75429
G1 X130.897 Y91.171 E9.79696
G1 X131.302 Y91.775 E9.83325
G1 X131.766 Y92.519 E9.87699
G1 X132.137 Y93.162 E9.91403
G1 X132.552 Y93.941 E9.95806
G1 X132.868 Y94.585 E9.99385
G1 X133.227 Y95.381 E10.03742
G1 X133.505 Y96.056 E10.07384
G1 X133.777 Y96.786 E10.1127
G1 X133.902 Y97.139 E10.13138
G1 X134.03 Y97.536 E10.1522
G1 X134.237 Y98.222 E10.18794
G1 X134.323 Y98.522 E10.20351
G1 X134.362 Y98.666 E10.21096
G1 X134.459 Y99.052 E10.23081
G1 X134.623 Y99.759 E10.26702
G1 X134.758 Y100.436 E10.30146
G1 X134.895 Y101.261 E10.34319
G1 X134.961 Y101.716 E10.36612
G1 X134.997 Y102.03 E10.38189
G1 X135.065 Y102.7 E10.41549
G1 X135.093 Y103.016 E10.43132
G1 X135.113 Y103.293 E10.44517
G1 X135.132 Y103.645 E10.46276
G1 X135.148 Y104.047 E10.48283
G1 X135.156 Y104.326 E10.49676
G1 X135.16 Y104.61 E10.51093
G1 X135.16 Y104.935 E10.52714
G1 X135.153 Y105.381 E10.54939
G1 X135.141 Y105.735 E10.56707
G1 X135.133 Y105.901 E10.57536
G1 X135.111 Y106.243 E10.59246
G1 X135.042 Y107.108 E10.63575
G1 X135 Y107.532 E10.657
G1 X134.958 Y107.865 E10.67375
G1 X134.862 Y108.532 E10.70737
G1 X134.789 Y108.976 E10.72982
G1 X134.721 Y109.328 E10.7477
G1 X134.562 Y110.085 E10.78629
G1 X134.396 Y110.768 E10.82136
G1 X134.166 Y111.594 E10.86414
G1 X133.948 Y112.284 E10.90024
G1 X133.651 Y113.129 E10.94493
G1 X133.389 Y113.802 E10.98096
G1 X133.06 Y114.571 E11.02269
G1 X132.761 Y115.213 E11.05802
G1 X132.363 Y115.998 E11.10193
G1 X131.994 Y116.667 E11.14005
G1 X131.523 Y117.454 E11.1858
G1 X131.126 Y118.07 E11.22237
G1 X130.666 Y118.733 E11.26262
G1 X130.223 Y119.327 E11.29959
G1 X129.636 Y120.061 E11.34648
G1 X129.161 Y120.615 E11.38289
G1 X128.584 Y121.245 E11.42551
G1 X128.064 Y121.775 E11.46255
G1 X127.41 Y122.398 E11.50762
G1 X126.853 Y122.893 E11.54479
G1 X126.153 Y123.474 E11.59018
G1 X125.566 Y123.929 E11.62723
G1 X124.907 Y124.404 E11.66776
G1 X124.296 Y124.814 E11.70447
G1 X123.482 Y125.321 E11.75231
G1 X122.844 Y125.689 E11.78906
G1 X122.11 Y126.08 E11.83055
G1 X121.462 Y126.398 E11.86656
G1 X120.654 Y126.762 E11.91078
G1 X119.971 Y127.042 E11.9476
G1 X119.198 Y127.329 E11.98874
G1 X118.559 Y127.545 E12.02239
G1 X117.795 Y127.776 E12.06221
G1 X117.425 Y127.88 E12.08139
G1 X116.977 Y127.994 E12.10445
G1 X116.377 Y128.134 E12.13519
G1 X116.081 Y128.199 E12.15031
G1 X115.939 Y128.228 E12.15754
G1 X115.557 Y128.298 E12.17691
G1 X114.864 Y128.414 E12.21197
G1 X114.492 Y128.47 E12.23074
G1 X114.064 Y128.522 E12.25225
G1 X113.279 Y128.602 E12.29161
G1 X112.925 Y128.632 E12.30934
G1 X112.65 Y128.651 E12.32309
G1 X112.325 Y128.669 E12.33933
G1 X112.044 Y128.68 E12.35336
G1 X111.762 Y128.687 E12.36743
G1 X111.46 Y128.691 E12.3825
G1 X111.126 Y128.69 E12.39916
G1 X110.61 Y128.681 E12.42491
G1 X110.307 Y128.672 E12.44004
G1 X110.086 Y128.662 E12.45107
G1 X109.713 Y128.639 E12.46972
G1 X109.01 Y128.583 E12.5049
G1 X108.529 Y128.534 E12.52902
G1 X108.206 Y128.493 E12.54527
G1 X107.501 Y128.392 E12.5808
G1 X107.021 Y128.312 E12.60507
G1 X106.763 Y128.262 E12.61819
G1 X105.976 Y128.098 E12.65829
G1 X105.281 Y127.929 E12.69398
G1 X104.468 Y127.703 E12.73608
G1 X103.995 Y127.56 E12.76073
G1 X103.728 Y127.47 E12.77479
G1 X102.977 Y127.207 E12.81448
G1 X102.298 Y126.944 E12.85081
G1 X101.446 Y126.58 E12.89704
G1 X100.786 Y126.271 E12.93339
G1 X100.041 Y125.892 E12.97509
G1 X99.385 Y125.53 E13.01247
G1 X98.588 Y125.053 E13.05881
G1 X97.975 Y124.658 E13.0952
G1 X97.313 Y124.199 E13.13539
G1 X96.716 Y123.754 E13.17253
G1 X95.982 Y123.167 E13.21942
G1 X95.434 Y122.698 E13.25541
G1 X94.803 Y122.121 E13.29807
G1 X94.263 Y121.591 E13.33582
G1 X93.633 Y120.929 E13.38141
G1 X93.137 Y120.371 E13.41866
G1 X92.58 Y119.699 E13.4622
G1 X92.132 Y119.12 E13.49873
G1 X91.614 Y118.402 E13.5429
G1 X91.2 Y117.785 E13.57997
G1 X90.74 Y117.046 E13.62339
G1 X90.381 Y116.424 E13.65922
G1 X89.97 Y115.655 E13.70272
G1 X89.647 Y114.999 E13.7392
G1 X89.292 Y114.212 E13.78228
G1 X89.02 Y113.553 E13.81785
G1 X88.732 Y112.784 E13.85881
G1 X88.576 Y112.339 E13.88234
G1 X88.479 Y112.031 E13.89845
G1 X88.27 Y111.336 E13.93466
G1 X88.172 Y110.99 E13.9526
G1 X88.128 Y110.824 E13.96117
G1 X88.049 Y110.508 E13.97742
G1 X87.909 Y109.908 E14.00816
G1 X87.81 Y109.439 E14.03207
G1 X87.746 Y109.088 E14.04987
G1 X87.617 Y108.312 E14.08912
G1 X87.525 Y107.626 E14.12365
G1 X87.44 Y106.789 E14.16562
G1 X87.41 Y106.441 E14.18305
G1 X87.394 Y106.21 E14.1946
G1 X87.377 Y105.911 E14.20954
G1 X87.363 Y105.575 E14.22632
G1 X87.355 Y105.239 E14.24308
G1 X87.352 Y104.963 E14.25686
G1 X87.353 Y104.654 E14.27227
G1 X87.362 Y104.14 E14.29792
G1 X87.372 Y103.825 E14.31364
G1 X87.382 Y103.61 E14.32438
G1 X87.403 Y103.263 E14.34172
G1 X87.459 Y102.55 E14.3774
G1 X87.501 Y102.129 E14.39851
G1 X87.55 Y101.736 E14.41827
G1 X87.651 Y101.032 E14.45375
G1 X87.725 Y100.585 E14.47636
G1 X87.783 Y100.285 E14.4916
G1 X87.948 Y99.497 E14.53177
G1 X88.04 Y99.097 E14.55225
G1 X88.135 Y98.732 E14.57106
G1 X88.354 Y97.948 E14.61167
G1 X88.57 Y97.262 E14.64755
G1 X88.841 Y96.492 E14.68828
G1 X89.102 Y95.823 E14.72411
G1 X89.461 Y94.984 E14.76964
G1 X89.768 Y94.328 E14.80577
G1 X90.168 Y93.542 E14.84977
G1 X90.524 Y92.896 E14.88657
G1 X90.969 Y92.151 E14.92986
G1 X91.377 Y91.52 E14.96735
G1 X91.874 Y90.805 E15.01079
G1 X92.316 Y90.212 E15.04769
G1 X92.871 Y89.519 E15.09199
G1 X93.335 Y88.978 E15.12755
G1 X93.933 Y88.324 E15.17176
G0 F6000 X94.376 Y88.729
G1 F1200 X94.874 Y88.22 E15.20728
G1 X95.502 Y87.622 E15.25055
G1 X96.023 Y87.158 E15.28535
G1 X96.72 Y86.579 E15.33056
G1 X97.282 Y86.144 E15.36602
G1 X98.015 Y85.616 E15.41109
G1 X98.583 Y85.235 E15.44521
G1 X99.277 Y84.802 E15.48602
G1 X99.879 Y84.454 E15.52071
G1 X100.694 Y84.019 E15.5668
G1 X101.311 Y83.716 E15.60109
G1 X102.074 Y83.372 E15.64285
