;FLAVOR:Marlin
;TIME:6302
;Filament used: 2.43376m
;Layer height: 0.2
;MINX:80.831
;MINY:89.714
;MINZ:0.2
;MAXX:135.665
;MAXY:146.37
;MAXZ:109.4
;Generated with Cura_SteamEngine 4.13.1
M140 S60
M105
M190 S60
M104 S200
M105
M109 S200
M82 ;absolute extrusion mode
; Ender 3 Custom Start G-code
G92 E0 ; Reset Extruder
G28 ; Home all axes
G1 Z2.0 F3000 ; Move Z Axis up little to prevent scratching of Heat Bed
G1 X0.1 Y20 Z0.3 F5000.0 ; Move to start position
G1 X0.1 Y200.0 Z0.3 F1500.0 E15 ; Draw the first line
G1 X0.4 Y200.0 Z0.3 F5000.0 ; Move to side a little
G1 X0.4 Y20 Z0.3 F1500.0 E30 ; Draw the second line
G92 E0 ; Reset Extruder
G1 Z2.0 F3000 ; Move Z Axis up little to prevent scratching of Heat Bed
G1 X5 Y20 Z0.3 F5000.0 ; Move over to prevent blob squish
G92 E0
G92 E0
G1 F1500 E-6.5
;LAYER_COUNT:575
;LAYER:0
M107
G0 F6000 X89.728 Y96.823 Z0.2
;TYPE:SKIRT
G1 F1500 E0
G1 F1200 X90.307 Y96.308 E0.03866
G1 X91.067 Y95.677 E0.08794
G1 X91.688 Y95.196 E0.12713
G1 X92.58 Y94.553 E0.18199
G1 X92.986 Y94.273 E0.20659
G1 X93.283 Y94.082 E0.22421
G1 X94.071 Y93.591 E0.27053
G1 X94.442 Y93.369 E0.2921
G1 X94.816 Y93.16 E0.31348
G1 X95.658 Y92.71 E0.36111
G1 X96.032 Y92.518 E0.38208
G1 X96.434 Y92.328 E0.40426
G1 X97.307 Y91.934 E0.45205
G1 X97.748 Y91.746 E0.47597
G1 X98.126 Y91.597 E0.49624
G1 X98.939 Y91.294 E0.53952
G1 X99.27 Y91.176 E0.55705
G1 X99.474 Y91.107 E0.5678
G1 X99.831 Y90.993 E0.5865
G1 X100.572 Y90.769 E0.62512
G1 X100.973 Y90.656 E0.6459
G1 X101.201 Y90.596 E0.65766
G1 X101.505 Y90.52 E0.6733
G1 X102.252 Y90.345 E0.71157
G1 X102.705 Y90.248 E0.73469
G1 X103.144 Y90.166 E0.75697
G1 X103.98 Y90.027 E0.79925
G1 X104.329 Y89.974 E0.81686
G1 X104.507 Y89.95 E0.82582
G1 X104.886 Y89.905 E0.84486
G1 X105.775 Y89.815 E0.88944
G1 X106.122 Y89.786 E0.90681
G1 X106.433 Y89.764 E0.92237
G1 X106.802 Y89.743 E0.94081
G1 X107.244 Y89.726 E0.96287
G1 X107.528 Y89.719 E0.97705
G1 X107.892 Y89.714 E0.99521
G1 X108.255 Y89.715 E1.01332
G1 X108.817 Y89.725 E1.04136
G1 X109.18 Y89.737 E1.05948
G1 X109.362 Y89.746 E1.06857
G1 X109.689 Y89.767 E1.08492
G1 X110.688 Y89.845 E1.13491
G1 X111.063 Y89.88 E1.1537
G1 X111.198 Y89.895 E1.16048
G1 X111.571 Y89.943 E1.17924
G1 X112.319 Y90.051 E1.21695
G1 X112.703 Y90.113 E1.23635
G1 X112.904 Y90.149 E1.24654
G1 X113.231 Y90.212 E1.26316
G1 X114.068 Y90.387 E1.30582
G1 X114.532 Y90.494 E1.32957
G1 X114.954 Y90.603 E1.35132
G1 X115.793 Y90.837 E1.39477
G1 X116.275 Y90.982 E1.41988
G1 X116.577 Y91.083 E1.43577
G1 X117.545 Y91.422 E1.48694
G1 X117.903 Y91.554 E1.50598
G1 X118.347 Y91.733 E1.52986
G1 X119.224 Y92.109 E1.57747
G1 X119.666 Y92.31 E1.60169
G1 X119.993 Y92.47 E1.61985
G1 X120.863 Y92.913 E1.66856
G1 X121.17 Y93.075 E1.68588
G1 X121.648 Y93.347 E1.71332
G1 X122.53 Y93.877 E1.76465
G1 X123.164 Y94.286 E1.80229
G1 X123.994 Y94.862 E1.8527
G1 X124.328 Y95.103 E1.87325
G1 X124.676 Y95.371 E1.89516
G1 X125.485 Y96.019 E1.94687
G1 X126.054 Y96.506 E1.98424
G1 X126.832 Y97.217 E2.03682
G1 X127.392 Y97.765 E2.07591
G1 X128.128 Y98.536 E2.12909
G1 X128.661 Y99.135 E2.16909
G1 X129.357 Y99.974 E2.22347
G1 X129.671 Y100.369 E2.24865
G1 X129.879 Y100.648 E2.26601
G1 X130.425 Y101.404 E2.31254
G1 X130.705 Y101.81 E2.33714
G1 X130.916 Y102.137 E2.35656
G1 X131.433 Y102.966 E2.4053
G1 X131.679 Y103.38 E2.42933
G1 X131.848 Y103.684 E2.44668
G1 X132.312 Y104.552 E2.49578
G1 X132.53 Y104.98 E2.51975
G1 X132.71 Y105.359 E2.54068
G1 X133.082 Y106.184 E2.58583
G1 X133.284 Y106.662 E2.61172
G1 X133.398 Y106.955 E2.6274
G1 X133.715 Y107.8 E2.67243
G1 X133.836 Y108.138 E2.69034
G1 X133.905 Y108.341 E2.70104
G1 X134.026 Y108.718 E2.72079
G1 X134.25 Y109.46 E2.75946
G1 X134.359 Y109.845 E2.77942
G1 X134.419 Y110.072 E2.79114
G1 X134.497 Y110.385 E2.80723
G1 X134.672 Y111.131 E2.84546
G1 X134.755 Y111.514 E2.86501
G1 X134.79 Y111.69 E2.87396
G1 X134.852 Y112.027 E2.89106
G1 X134.989 Y112.842 E2.93229
G1 X135.046 Y113.22 E2.95136
G1 X135.07 Y113.399 E2.96037
G1 X135.113 Y113.762 E2.97861
G1 X135.202 Y114.636 E3.02244
G1 X135.236 Y115.041 E3.04271
G1 X135.255 Y115.328 E3.05706
G1 X135.27 Y115.618 E3.07155
G1 X135.291 Y116.131 E3.09716
G1 X135.301 Y116.498 E3.11548
G1 X135.304 Y116.834 E3.13225
G1 X135.302 Y117.156 E3.14831
G1 X135.291 Y117.733 E3.1771
G1 X135.28 Y118.051 E3.19298
G1 X135.264 Y118.393 E3.21006
G1 X135.242 Y118.756 E3.2282
G1 X135.2 Y119.291 E3.25497
G1 X135.161 Y119.695 E3.27522
G1 X135.08 Y120.405 E3.31088
G1 X135.034 Y120.757 E3.32859
G1 X134.979 Y121.135 E3.34764
G1 X134.93 Y121.446 E3.36335
G1 X134.88 Y121.734 E3.37793
G1 X134.803 Y122.132 E3.39816
G1 X134.633 Y122.941 E3.4394
G1 X134.555 Y123.285 E3.457
G1 X134.523 Y123.417 E3.46378
G1 X134.425 Y123.794 E3.48321
G1 X134.174 Y124.695 E3.52987
G1 X134.069 Y125.051 E3.54839
G1 X134.021 Y125.204 E3.55639
G1 X133.903 Y125.56 E3.5751
G1 X133.622 Y126.363 E3.61754
G1 X133.441 Y126.845 E3.64323
G1 X133.309 Y127.167 E3.66059
G1 X132.897 Y128.13 E3.71285
G1 X132.742 Y128.478 E3.73186
G1 X132.543 Y128.886 E3.7545
G1 X132.074 Y129.805 E3.80598
G1 X131.698 Y130.485 E3.84474
G1 X131.179 Y131.352 E3.89516
G1 X130.954 Y131.712 E3.91634
G1 X130.709 Y132.079 E3.93835
G1 X130.118 Y132.928 E3.98996
G1 X129.662 Y133.539 E4.028
G1 X129.024 Y134.337 E4.07897
G1 X128.78 Y134.632 E4.09807
G1 X128.703 Y134.722 E4.10398
G1 X128.448 Y135.01 E4.12317
G1 X127.822 Y135.694 E4.16943
G1 X127.27 Y136.257 E4.20876
G1 X126.429 Y137.058 E4.26671
G1 X125.838 Y137.584 E4.30618
G1 X125.025 Y138.258 E4.35887
G1 X124.407 Y138.736 E4.39784
G1 X123.581 Y139.331 E4.44863
G1 X123.175 Y139.611 E4.47324
G1 X122.881 Y139.8 E4.49067
G1 X122.052 Y140.317 E4.53942
G1 X121.638 Y140.563 E4.56344
G1 X121.334 Y140.732 E4.5808
G1 X120.466 Y141.196 E4.6299
G1 X120.115 Y141.376 E4.64958
G1 X120.001 Y141.432 E4.65592
G1 X119.663 Y141.591 E4.67455
G1 X118.839 Y141.963 E4.71966
G1 X118.356 Y142.168 E4.74583
G1 X118.063 Y142.282 E4.76152
G1 X117.218 Y142.599 E4.80654
G1 X116.864 Y142.726 E4.82531
G1 X116.66 Y142.795 E4.83605
G1 X116.303 Y142.909 E4.85475
G1 X115.562 Y143.133 E4.89337
G1 X115.153 Y143.248 E4.91457
G1 X114.932 Y143.306 E4.92596
G1 X114.634 Y143.38 E4.94128
G1 X113.895 Y143.553 E4.97915
G1 X113.558 Y143.627 E4.99636
G1 X113.331 Y143.673 E5.00792
G1 X112.945 Y143.744 E5.0275
G1 X112.186 Y143.871 E5.06589
G1 X111.785 Y143.931 E5.08612
G1 X111.587 Y143.957 E5.09608
G1 X111.266 Y143.995 E5.11221
G1 X110.41 Y144.083 E5.15514
G1 X110.033 Y144.115 E5.17402
G1 X109.717 Y144.137 E5.18982
G1 X109.375 Y144.156 E5.20691
G1 X108.822 Y144.178 E5.23452
G1 X108.423 Y144.187 E5.25443
G1 X108.026 Y144.189 E5.27424
G1 X107.729 Y144.187 E5.28906
G1 X107.344 Y144.179 E5.30827
G1 X107.013 Y144.167 E5.32479
G1 X106.63 Y144.148 E5.34392
G1 X106.284 Y144.125 E5.36122
G1 X105.483 Y144.061 E5.40131
G1 X105.097 Y144.024 E5.42066
G1 X104.904 Y144.002 E5.43035
G1 X104.563 Y143.958 E5.4475
G1 X103.815 Y143.85 E5.48521
G1 X103.454 Y143.792 E5.50345
G1 X103.211 Y143.749 E5.51576
G1 X102.863 Y143.682 E5.53344
G1 X102.083 Y143.519 E5.5732
G1 X101.635 Y143.417 E5.59612
G1 X101.247 Y143.316 E5.61612
G1 X100.337 Y143.063 E5.66325
G1 X99.937 Y142.944 E5.68407
G1 X99.811 Y142.904 E5.69066
G1 X99.494 Y142.798 E5.70734
G1 X98.625 Y142.494 E5.75327
G1 X98.17 Y142.324 E5.7775
G1 X97.818 Y142.18 E5.79647
G1 X96.905 Y141.789 E5.84603
G1 X96.504 Y141.609 E5.86795
G1 X96.141 Y141.432 E5.8881
G1 X95.267 Y140.987 E5.93703
G1 X94.846 Y140.762 E5.96085
G1 X94.514 Y140.57 E5.97998
G1 X93.594 Y140.018 E6.03351
G1 X92.947 Y139.6 E6.07194
G1 X92.114 Y139.021 E6.12255
G1 X91.495 Y138.559 E6.16109
G1 X90.661 Y137.892 E6.21436
G1 X90.312 Y137.601 E6.23704
G1 X90.006 Y137.33 E6.25743
G1 X89.324 Y136.706 E6.30355
G1 X88.76 Y136.153 E6.34295
G1 X87.959 Y135.312 E6.4009
G1 X87.433 Y134.721 E6.44037
G1 X86.759 Y133.908 E6.49305
G1 X86.269 Y133.274 E6.53303
G1 X85.646 Y132.406 E6.58634
G1 X85.229 Y131.782 E6.62378
G1 X84.69 Y130.917 E6.67463
G1 X84.439 Y130.494 E6.69917
G1 X84.267 Y130.183 E6.7169
G1 X83.827 Y129.359 E6.7635
G1 X83.653 Y129.02 E6.78251
G1 X83.59 Y128.892 E6.78963
G1 X83.427 Y128.546 E6.80871
G1 X83.055 Y127.722 E6.85381
G1 X82.859 Y127.261 E6.87881
G1 X82.734 Y126.944 E6.89581
G1 X82.421 Y126.112 E6.94015
G1 X82.282 Y125.72 E6.9609
G1 X82.229 Y125.562 E6.96922
G1 X82.124 Y125.233 E6.98645
G1 X81.877 Y124.416 E7.02903
G1 X81.762 Y124.009 E7.05013
G1 X81.71 Y123.811 E7.06034
G1 X81.636 Y123.513 E7.07566
G1 X81.461 Y122.766 E7.11394
G1 X81.384 Y122.411 E7.13206
G1 X81.349 Y122.237 E7.14092
G1 X81.279 Y121.857 E7.1602
G1 X81.143 Y121.04 E7.20152
G1 X81.09 Y120.689 E7.21923
G1 X81.066 Y120.511 E7.22819
G1 X81.021 Y120.132 E7.24723
G1 X80.931 Y119.243 E7.29181
G1 X80.902 Y118.896 E7.30918
G1 X80.88 Y118.585 E7.32473
G1 X80.859 Y118.216 E7.34317
G1 X80.842 Y117.774 E7.36524
G1 X80.835 Y117.475 E7.38016
G1 X80.831 Y117.154 E7.39618
G1 X80.832 Y116.794 E7.41414
G1 X80.844 Y116.157 E7.44592
G1 X80.856 Y115.815 E7.463
G1 X80.871 Y115.507 E7.47838
G1 X80.893 Y115.151 E7.49618
G1 X80.954 Y114.387 E7.53441
G1 X80.988 Y114.032 E7.55221
G1 X81.014 Y113.798 E7.56395
G1 X81.061 Y113.429 E7.58251
G1 X81.169 Y112.679 E7.62031
G1 X81.237 Y112.261 E7.64144
G1 X81.265 Y112.107 E7.64925
G1 X81.324 Y111.807 E7.66451
G1 X81.507 Y110.933 E7.70905
G1 X81.597 Y110.54 E7.72917
G1 X81.72 Y110.061 E7.75384
G1 X81.955 Y109.22 E7.79741
G1 X82.056 Y108.881 E7.81505
G1 X82.102 Y108.734 E7.82274
G1 X82.226 Y108.36 E7.8424
G1 X82.531 Y107.491 E7.88834
G1 X82.692 Y107.059 E7.91134
G1 X82.836 Y106.707 E7.93032
G1 X83.228 Y105.79 E7.98007
G1 X83.457 Y105.287 E8.00765
G1 X83.594 Y105.01 E8.02306
G1 X84.079 Y104.061 E8.07623
G1 X84.462 Y103.371 E8.11561
G1 X84.992 Y102.489 E8.16694
G1 X85.403 Y101.853 E8.20472
G1 X85.98 Y101.022 E8.25519
G1 X86.204 Y100.71 E8.27436
G1 X86.476 Y100.356 E8.29663
G1 X87.111 Y99.562 E8.34735
G1 X87.395 Y99.221 E8.36949
G1 X87.686 Y98.892 E8.3914
G1 X88.312 Y98.208 E8.43766
G1 X88.87 Y97.639 E8.47742
G1 X89.728 Y96.823 E8.5365
G0 F6000 X90.141 Y97.258
G1 F1200 X90.69 Y96.77 E8.57314
G1 X91.45 Y96.139 E8.62243
G1 X92.039 Y95.683 E8.65959
G1 X92.931 Y95.04 E8.71445
G1 X93.319 Y94.773 E8.73794
G1 X93.601 Y94.591 E8.75469
G1 X94.389 Y94.1 E8.80101
G1 X94.745 Y93.887 E8.82171
G1 X95.099 Y93.689 E8.84194
G1 X95.941 Y93.239 E8.88957
G1 X96.382 Y93.016 E8.91423
G1 X96.681 Y92.875 E8.93072
G1 X97.554 Y92.481 E8.97851
G1 X97.977 Y92.3 E9.00146
G1 X98.335 Y92.159 E9.02066
G1 X99.148 Y91.856 E9.06394
G1 X99.463 Y91.745 E9.0806
G1 X99.667 Y91.676 E9.09135
G1 X100.005 Y91.567 E9.10907
G1 X100.746 Y91.343 E9.14769
G1 X101.126 Y91.236 E9.16738
G1 X101.354 Y91.176 E9.17915
G1 X101.642 Y91.104 E9.19396
G1 X102.389 Y90.929 E9.23223
G1 X102.826 Y90.835 E9.25453
G1 X103.242 Y90.758 E9.27564
G1 X104.078 Y90.619 E9.31792
G1 X104.41 Y90.569 E9.33467
G1 X104.588 Y90.545 E9.34363
G1 X104.946 Y90.502 E9.36162
G1 X105.835 Y90.412 E9.4062
G1 X106.164 Y90.384 E9.42267
G1 X106.475 Y90.362 E9.43823
G1 X106.825 Y90.343 E9.45572
G1 X107.267 Y90.326 E9.47778
G1 X107.536 Y90.319 E9.49121
G1 X107.9 Y90.314 E9.50937
G1 X108.244 Y90.315 E9.52653
G1 X108.806 Y90.325 E9.55458
G1 X109.15 Y90.336 E9.57175
G1 X109.332 Y90.345 E9.58084
G1 X109.642 Y90.365 E9.59634
G1 X110.641 Y90.443 E9.64633
G1 X110.997 Y90.477 E9.66417
G1 X111.132 Y90.492 E9.67095
G1 X111.486 Y90.537 E9.68875
G1 X112.234 Y90.645 E9.72645
G1 X112.598 Y90.704 E9.74485
G1 X112.799 Y90.74 E9.75504
G1 X113.108 Y90.8 E9.77074
G1 X113.945 Y90.975 E9.8134
G1 X114.242 Y91.041 E9.82858
G1 X114.393 Y91.077 E9.83633
G1 X114.793 Y91.181 E9.85695
G1 X115.632 Y91.415 E9.9004
G1 X116.093 Y91.554 E9.92442
G1 X116.379 Y91.65 E9.93948
G1 X117.347 Y91.989 E9.99064
G1 X117.689 Y92.115 E10.00883
G1 X118.11 Y92.285 E10.03148
G1 X118.987 Y92.661 E10.07909
G1 X119.41 Y92.853 E10.10226
G1 X119.721 Y93.005 E10.11953
G1 X120.591 Y93.448 E10.16824
G1 X120.886 Y93.603 E10.18486
G1 X121.339 Y93.861 E10.21087
G1 X122.221 Y94.391 E10.26221
G1 X122.821 Y94.779 E10.29786
G1 X123.651 Y95.355 E10.34826
G1 X123.971 Y95.585 E10.36792
G1 X124.301 Y95.84 E10.38873
G1 X125.11 Y96.488 E10.44044
G1 X125.649 Y96.949 E10.47582
G1 X126.427 Y97.66 E10.52841
G1 X126.958 Y98.18 E10.56549
G1 X127.694 Y98.951 E10.61866
G1 X128.199 Y99.518 E10.65654
G1 X128.895 Y100.357 E10.71093
G1 X129.196 Y100.735 E10.73504
G1 X129.392 Y100.999 E10.75144
G1 X129.938 Y101.755 E10.79797
G1 X130.204 Y102.14 E10.82131
G1 X130.407 Y102.454 E10.83997
G1 X130.924 Y103.283 E10.88871
G1 X131.159 Y103.678 E10.91164
G1 X131.319 Y103.966 E10.92808
G1 X131.783 Y104.834 E10.97718
G1 X131.992 Y105.246 E11.00023
G1 X132.163 Y105.606 E11.02011
G1 X132.535 Y106.431 E11.06526
G1 X132.727 Y106.884 E11.08981
G1 X132.836 Y107.165 E11.10485
G1 X133.153 Y108.01 E11.14987
G1 X133.268 Y108.331 E11.16688
G1 X133.337 Y108.534 E11.17758
G1 X133.452 Y108.892 E11.19634
G1 X133.676 Y109.634 E11.23501
G1 X133.779 Y109.999 E11.25393
G1 X133.839 Y110.226 E11.26564
G1 X133.913 Y110.522 E11.28087
G1 X134.088 Y111.268 E11.31909
G1 X134.167 Y111.631 E11.33763
G1 X134.202 Y111.807 E11.34658
G1 X134.26 Y112.126 E11.36276
G1 X134.397 Y112.941 E11.40399
G1 X134.451 Y113.3 E11.4221
G1 X134.475 Y113.479 E11.43111
G1 X134.516 Y113.823 E11.44839
G1 X134.605 Y114.697 E11.49222
G1 X134.637 Y115.081 E11.51145
G1 X134.656 Y115.368 E11.5258
G1 X134.671 Y115.642 E11.53949
G1 X134.692 Y116.155 E11.5651
G1 X134.701 Y116.504 E11.58252
G1 X134.704 Y116.84 E11.59928
G1 X134.702 Y117.145 E11.6145
G1 X134.691 Y117.722 E11.64329
G1 X134.681 Y118.023 E11.65832
G1 X134.665 Y118.365 E11.6754
G1 X134.644 Y118.709 E11.69259
G1 X134.602 Y119.244 E11.71937
G1 X134.565 Y119.627 E11.73856
G1 X134.484 Y120.337 E11.77422
G1 X134.44 Y120.67 E11.79097
G1 X134.385 Y121.048 E11.81003
G1 X134.338 Y121.343 E11.82493
G1 X134.288 Y121.631 E11.83952
G1 X134.216 Y122.009 E11.85871
G1 X134.046 Y122.818 E11.89996
G1 X133.94 Y123.276 E11.92341
G1 X133.847 Y123.633 E11.94182
G1 X133.596 Y124.534 E11.98848
G1 X133.496 Y124.872 E12.00606
G1 X133.448 Y125.025 E12.01406
G1 X133.336 Y125.362 E12.03178
G1 X133.055 Y126.165 E12.07423
G1 X132.914 Y126.547 E12.09454
G1 X132.757 Y126.931 E12.11524
G1 X132.345 Y127.894 E12.16749
G1 X132.197 Y128.227 E12.18567
G1 X132.009 Y128.614 E12.20714
G1 X131.54 Y129.533 E12.25861
G1 X131.183 Y130.176 E12.29531
G1 X130.664 Y131.043 E12.34572
G1 X130.449 Y131.389 E12.36604
G1 X130.217 Y131.736 E12.38687
G1 X129.626 Y132.585 E12.43848
G1 X129.194 Y133.165 E12.47456
G1 X128.556 Y133.963 E12.52553
G1 X128.247 Y134.332 E12.54954
G1 X128.006 Y134.605 E12.56771
G1 X127.38 Y135.289 E12.61397
G1 X126.856 Y135.823 E12.65129
G1 X126.015 Y136.624 E12.70924
G1 X125.455 Y137.122 E12.74662
G1 X124.642 Y137.796 E12.79931
G1 X124.056 Y138.249 E12.83626
G1 X123.23 Y138.844 E12.88705
G1 X122.842 Y139.111 E12.91055
G1 X122.564 Y139.291 E12.92707
G1 X121.735 Y139.808 E12.97581
G1 X121.34 Y140.043 E12.99874
G1 X121.052 Y140.203 E13.01518
G1 X120.184 Y140.667 E13.06428
G1 X119.851 Y140.837 E13.08294
G1 X119.416 Y141.045 E13.10699
G1 X118.592 Y141.417 E13.1521
G1 X118.134 Y141.611 E13.17691
G1 X117.853 Y141.72 E13.19195
G1 X117.008 Y142.037 E13.23698
G1 X116.671 Y142.157 E13.25482
G1 X116.467 Y142.226 E13.26557
G1 X116.129 Y142.335 E13.28329
G1 X115.388 Y142.559 E13.32191
G1 X115.001 Y142.668 E13.34197
G1 X114.78 Y142.726 E13.35336
G1 X114.498 Y142.796 E13.36786
G1 X113.759 Y142.969 E13.40573
G1 X113.439 Y143.039 E13.42207
G1 X113.212 Y143.085 E13.43362
G1 X112.846 Y143.153 E13.4522
G1 X112.087 Y143.28 E13.49059
G1 X111.707 Y143.336 E13.50975
G1 X111.509 Y143.362 E13.51972
G1 X111.205 Y143.398 E13.53499
