;FLAVOR:Marlin
;TIME:930
;Filament used: 0.132197m
;Layer height: 0.2
;MINX:96.07
;MINY:94.739
;MINZ:0.2
;MAXX:122.132
;MAXY:120.709
;MAXZ:39.6
;Generated with Cura_SteamEngine 4.13.1
M140 S60
M105
M190 S60
M104 S200
M105
M109 S200
M82 ;absolute extrusion mode
; Ender 3 Custom Start G-code
G92 E0 ; Reset Extruder
G28 ; Home all axes
G1 Z2.0 F3000 ; Move Z Axis up little to prevent scratching of Heat Bed
G1 X0.1 Y20 Z0.3 F5000.0 ; Move to start position
G1 X0.1 Y200.0 Z0.3 F1500.0 E15 ; Draw the first line
G1 X0.4 Y200.0 Z0.3 F5000.0 ; Move to side a little
G1 X0.4 Y20 Z0.3 F1500.0 E30 ; Draw the second line
G92 E0 ; Reset Extruder
G1 Z2.0 F3000 ; Move Z Axis up little to prevent scratching of Heat Bed
G1 X5 Y20 Z0.3 F5000.0 ; Move over to prevent blob squish
G92 E0
G92 E0
G1 F1500 E-6.5
;LAYER_COUNT:249
;LAYER:0
M107
G0 F6000 X100.063 Y98.371 Z0.2
;TYPE:SKIRT
G1 F1500 E0
G1 F1200 X100.797 Y97.716 E0.04908
G1 X101.491 Y97.186 E0.09265
G1 X101.669 Y97.06 E0.10353
G1 X102.494 Y96.525 E0.15258
G1 X103.36 Y96.058 E0.20167
G1 X104.262 Y95.664 E0.25078
G1 X105.192 Y95.344 E0.29984
G1 X106.56 Y95.02 E0.36998
G1 X107.116 Y94.922 E0.39815
G1 X108.091 Y94.79 E0.44723
G1 X109.073 Y94.739 E0.49629
G1 X110.056 Y94.767 E0.54535
G1 X111.251 Y94.91 E0.6054
G1 X111.462 Y94.946 E0.61608
G1 X112.424 Y95.151 E0.66515
G1 X113.366 Y95.433 E0.71421
G1 X114.283 Y95.791 E0.76332
G1 X115.003 Y96.135 E0.80313
G1 X115.211 Y96.243 E0.81482
G1 X116.065 Y96.732 E0.86392
G1 X116.876 Y97.288 E0.91298
G1 X117.34 Y97.652 E0.9424
G1 X117.495 Y97.78 E0.95243
G1 X118.227 Y98.437 E1.0015
G1 X118.904 Y99.151 E1.05059
G1 X119.541 Y99.945 E1.10137
G1 X119.71 Y100.175 E1.11561
G1 X120.26 Y100.991 E1.16471
G1 X120.741 Y101.849 E1.21378
G1 X121.152 Y102.743 E1.26287
G1 X121.48 Y103.641 E1.31057
G1 X121.55 Y103.859 E1.32199
G1 X121.812 Y104.807 E1.37106
G1 X121.997 Y105.773 E1.42013
G1 X122.102 Y106.751 E1.4692
G1 X122.126 Y107.268 E1.49502
G1 X122.132 Y107.518 E1.5075
G1 X122.115 Y108.501 E1.55655
G1 X122.019 Y109.48 E1.60562
G1 X121.77 Y110.757 E1.67053
G1 X121.721 Y110.952 E1.68056
G1 X121.443 Y111.895 E1.72961
G1 X121.089 Y112.813 E1.7787
G1 X120.46 Y114.061 E1.84842
G1 X120.353 Y114.246 E1.85909
G1 X119.827 Y115.077 E1.90815
G1 X119.234 Y115.862 E1.95723
G1 X118.533 Y116.645 E2.00967
G1 X118.362 Y116.82 E2.02187
G1 X117.647 Y117.495 E2.07093
G1 X116.532 Y118.355 E2.14118
G1 X116.327 Y118.495 E2.15357
G1 X115.493 Y119.016 E2.20263
G1 X114.456 Y119.543 E2.26066
G1 X114.349 Y119.591 E2.26651
G1 X113.435 Y119.957 E2.31563
G1 X112.468 Y120.255 E2.36611
G1 X112.247 Y120.313 E2.37751
G1 X111.286 Y120.523 E2.42659
G1 X110.311 Y120.656 E2.47568
G1 X109.572 Y120.702 E2.51262
G1 X109.359 Y120.709 E2.52325
G1 X108.376 Y120.702 E2.5723
G1 X107.396 Y120.614 E2.62139
G1 X106.427 Y120.447 E2.67044
G1 X105.57 Y120.231 E2.71454
G1 X105.344 Y120.165 E2.72628
G1 X104.412 Y119.851 E2.77535
G1 X103.508 Y119.462 E2.82445
G1 X102.23 Y118.752 E2.89738
G1 X102.023 Y118.62 E2.90963
G1 X101.216 Y118.058 E2.9587
G1 X100.271 Y117.262 E3.02034
G1 X100.105 Y117.107 E3.03167
G1 X99.414 Y116.407 E3.08074
G1 X98.782 Y115.653 E3.12983
G1 X98.24 Y114.891 E3.17648
G1 X98.13 Y114.723 E3.1865
G1 X97.625 Y113.879 E3.23557
G1 X97.043 Y112.649 E3.30345
G1 X97.004 Y112.553 E3.30862
G1 X96.671 Y111.628 E3.35767
G1 X96.414 Y110.678 E3.40677
G1 X96.306 Y110.147 E3.4338
G1 X96.26 Y109.892 E3.44673
G1 X96.125 Y108.918 E3.49579
G1 X96.07 Y107.936 E3.54486
G1 X96.094 Y106.952 E3.59396
G1 X96.176 Y106.135 E3.63493
G1 X96.207 Y105.904 E3.64656
G1 X96.377 Y104.935 E3.69564
G1 X96.605 Y104.05 E3.74123
G1 X96.628 Y103.973 E3.74524
G1 X96.948 Y103.043 E3.79431
G1 X97.458 Y101.91 E3.8563
G1 X97.554 Y101.723 E3.86679
G1 X98.038 Y100.867 E3.91585
G1 X98.59 Y100.053 E3.96491
G1 X99.221 Y99.271 E4.01504
G1 X99.385 Y99.084 E4.02745
G1 X100.063 Y98.371 E4.07654
G0 F6000 X100.498 Y98.785
G1 F1200 X101.215 Y98.149 E4.12436
G1 X101.838 Y97.676 E4.16338
G1 X102.016 Y97.55 E4.17426
G1 X102.821 Y97.029 E4.2221
G1 X103.667 Y96.577 E4.26995
G1 X104.547 Y96.197 E4.31778
G1 X105.456 Y95.891 E4.36563
G1 X106.664 Y95.611 E4.42749
G1 X107.22 Y95.513 E4.45566
G1 X108.17 Y95.386 E4.50348
G1 X109.128 Y95.338 E4.55133
G1 X110.087 Y95.371 E4.5992
G1 X111.15 Y95.502 E4.65264
G1 X111.361 Y95.538 E4.66332
G1 X112.299 Y95.738 E4.71117
G1 X113.217 Y96.016 E4.75902
G1 X114.108 Y96.37 E4.80685
G1 X114.726 Y96.668 E4.84108
G1 X114.934 Y96.776 E4.85277
G1 X115.766 Y97.253 E4.90062
G1 X116.556 Y97.797 E4.94847
G1 X116.958 Y98.115 E4.97405
G1 X117.113 Y98.243 E4.98408
G1 X117.826 Y98.884 E5.03191
G1 X118.483 Y99.582 E5.07973
G1 X119.057 Y100.301 E5.12563
G1 X119.226 Y100.531 E5.13987
G1 X119.761 Y101.326 E5.18768
G1 X120.228 Y102.164 E5.23554
G1 X120.624 Y103.038 E5.28341
G1 X120.908 Y103.824 E5.32511
G1 X120.978 Y104.042 E5.33653
G1 X121.233 Y104.967 E5.3844
G1 X121.41 Y105.909 E5.43222
G1 X121.526 Y107.282 E5.50096
G1 X121.532 Y107.532 E5.51344
G1 X121.515 Y108.491 E5.56129
G1 X121.418 Y109.445 E5.60913
G1 X121.188 Y110.611 E5.66842
G1 X121.139 Y110.806 E5.67845
G1 X120.867 Y111.725 E5.72627
G1 X120.519 Y112.619 E5.77413
G1 X119.941 Y113.761 E5.83799
G1 X119.834 Y113.946 E5.84865
G1 X119.32 Y114.755 E5.89647
G1 X118.74 Y115.519 E5.94432
G1 X118.104 Y116.225 E5.99173
G1 X117.933 Y116.4 E6.00394
G1 X117.235 Y117.058 E6.0518
G1 X116.194 Y117.86 E6.11736
G1 X115.989 Y118 E6.12974
G1 X115.175 Y118.507 E6.17759
G1 X114.21 Y118.996 E6.23156
G1 X114.103 Y119.044 E6.23741
G1 X113.212 Y119.399 E6.28526
G1 X112.315 Y119.674 E6.33207
G1 X112.094 Y119.732 E6.34347
G1 X111.157 Y119.937 E6.39132
G1 X110.207 Y120.063 E6.43913
G1 X109.553 Y120.103 E6.47182
G1 X109.34 Y120.11 E6.48245
G1 X108.381 Y120.101 E6.5303
G1 X107.426 Y120.013 E6.57814
G1 X106.482 Y119.845 E6.62598
G1 X105.738 Y119.655 E6.66429
G1 X105.512 Y119.589 E6.67604
G1 X104.604 Y119.282 E6.72386
G1 X103.724 Y118.9 E6.77172
G1 X102.553 Y118.246 E6.83863
G1 X102.346 Y118.114 E6.85088
G1 X101.559 Y117.565 E6.89875
G1 X100.681 Y116.823 E6.95611
G1 X100.515 Y116.668 E6.96744
G1 X99.842 Y115.985 E7.01527
G1 X99.228 Y115.249 E7.06309
G1 X98.742 Y114.563 E7.10504
G1 X98.632 Y114.395 E7.11505
G1 X98.14 Y113.571 E7.16293
G1 X97.599 Y112.423 E7.22625
G1 X97.56 Y112.327 E7.23142
G1 X97.236 Y111.425 E7.27924
G1 X96.897 Y110.041 E7.35032
G1 X96.851 Y109.786 E7.36325
G1 X96.72 Y108.836 E7.4111
G1 X96.669 Y107.878 E7.45896
G1 X96.698 Y106.919 E7.50683
G1 X96.77 Y106.214 E7.54218
G1 X96.801 Y105.983 E7.55381
G1 X96.968 Y105.039 E7.60164
G1 X97.18 Y104.222 E7.64375
G1 X97.203 Y104.145 E7.64776
G1 X97.516 Y103.238 E7.69562
G1 X97.991 Y102.184 E7.7533
G1 X98.087 Y101.997 E7.76379
G1 X98.561 Y101.163 E7.81165
G1 X99.102 Y100.371 E7.8595
G1 X99.672 Y99.666 E7.90473
G1 X99.836 Y99.479 E7.91714
G1 X100.498 Y98.785 E7.96499
G0 F6000 X100.932 Y99.2
G1 F1200 X101.633 Y98.583 E8.01158
G1 X102.184 Y98.165 E8.04608
G1 X102.362 Y98.039 E8.05696
G1 X103.147 Y97.533 E8.10356
G1 X103.972 Y97.096 E8.15014
G1 X104.831 Y96.731 E8.1967
G1 X105.718 Y96.44 E8.24327
G1 X106.768 Y96.201 E8.297
G1 X107.324 Y96.103 E8.32516
G1 X108.249 Y95.981 E8.37171
G1 X109.182 Y95.938 E8.41831
G1 X110.115 Y95.975 E8.46489
G1 X111.049 Y96.093 E8.51186
G1 X111.26 Y96.129 E8.52254
G1 X112.173 Y96.326 E8.56914
G1 X113.066 Y96.599 E8.61573
G1 X113.931 Y96.948 E8.66226
G1 X114.45 Y97.2 E8.69105
G1 X114.658 Y97.308 E8.70274
G1 X115.467 Y97.774 E8.74932
G1 X116.576 Y98.577 E8.81763
G1 X116.731 Y98.705 E8.82765
G1 X117.424 Y99.33 E8.87421
G1 X118.062 Y100.012 E8.9208
G1 X118.574 Y100.656 E8.96185
G1 X118.743 Y100.886 E8.97609
G1 X119.263 Y101.661 E9.02265
G1 X119.715 Y102.478 E9.06923
G1 X120.095 Y103.331 E9.11582
G1 X120.337 Y104.008 E9.15169
G1 X120.407 Y104.226 E9.16311
G1 X120.654 Y105.126 E9.20968
G1 X120.823 Y106.044 E9.25624
G1 X120.926 Y107.296 E9.31892
G1 X120.932 Y107.546 E9.33139
G1 X120.914 Y108.48 E9.378
G1 X120.817 Y109.408 E9.42455
G1 X120.606 Y110.464 E9.47828
G1 X120.557 Y110.659 E9.48831
G1 X120.291 Y111.554 E9.53489
G1 X119.95 Y112.423 E9.58146
G1 X119.421 Y113.46 E9.63954
G1 X119.314 Y113.645 E9.6502
G1 X118.813 Y114.433 E9.69679
G1 X118.246 Y115.174 E9.74334
G1 X117.675 Y115.806 E9.78583
G1 X117.504 Y115.981 E9.79804
G1 X116.824 Y116.62 E9.84459
G1 X115.855 Y117.364 E9.90554
G1 X115.65 Y117.504 E9.91793
G1 X114.857 Y117.997 E9.96451
G1 X113.964 Y118.448 E10.01443
G1 X113.857 Y118.496 E10.02028
G1 X112.99 Y118.841 E10.06683
G1 X112.163 Y119.094 E10.10998
G1 X111.942 Y119.152 E10.12138
G1 X111.03 Y119.35 E10.16794
G1 X110.104 Y119.469 E10.21451
G1 X109.533 Y119.503 E10.24305
G1 X109.32 Y119.51 E10.25368
G1 X108.386 Y119.501 E10.30028
G1 X107.457 Y119.412 E10.34684
G1 X106.539 Y119.243 E10.39341
G1 X105.906 Y119.079 E10.42604
G1 X105.68 Y119.013 E10.43778
G1 X104.796 Y118.713 E10.48436
G1 X103.941 Y118.339 E10.53091
G1 X102.875 Y117.74 E10.59192
G1 X102.668 Y117.608 E10.60417
G1 X101.903 Y117.073 E10.65074
G1 X101.09 Y116.385 E10.70387
G1 X100.924 Y116.23 E10.71521
G1 X100.27 Y115.564 E10.76177
G1 X99.674 Y114.845 E10.80837
G1 X99.244 Y114.234 E10.84564
G1 X99.134 Y114.066 E10.85566
G1 X98.656 Y113.264 E10.90224
G1 X98.155 Y112.198 E10.961
G1 X98.116 Y112.102 E10.96617
G1 X97.801 Y111.222 E11.0128
G1 X97.487 Y109.934 E11.07894
G1 X97.441 Y109.679 E11.09187
G1 X97.315 Y108.754 E11.13845
G1 X97.268 Y107.822 E11.185
G1 X97.302 Y106.889 E11.23158
G1 X97.365 Y106.294 E11.26143
G1 X97.396 Y106.063 E11.27306
G1 X97.56 Y105.144 E11.31963
G1 X97.755 Y104.393 E11.35834
G1 X97.778 Y104.316 E11.36235
G1 X98.083 Y103.434 E11.40891
G1 X98.525 Y102.458 E11.46237
G1 X98.621 Y102.271 E11.47285
G1 X99.083 Y101.459 E11.51946
G1 X99.612 Y100.69 E11.56603
G1 X100.123 Y100.062 E11.60642
G1 X100.287 Y99.875 E11.61883
G1 X100.932 Y99.2 E11.66541
G0 F6000 X101.366 Y99.615
G1 F1200 X102.049 Y99.018 E11.71067
G1 X102.531 Y98.655 E11.74077
G1 X102.709 Y98.529 E11.75165
G1 X103.472 Y98.038 E11.79692
G1 X104.276 Y97.616 E11.84222
G1 X105.113 Y97.266 E11.88748
G1 X105.978 Y96.991 E11.93276
G1 X106.872 Y96.792 E11.97846
G1 X107.428 Y96.694 E12.00662
G1 X108.328 Y96.576 E12.05191
G1 X109.235 Y96.538 E12.0972
G1 X110.141 Y96.58 E12.14245
G1 X110.948 Y96.685 E12.18305
G1 X111.159 Y96.721 E12.19373
G1 X112.046 Y96.913 E12.23901
G1 X112.913 Y97.182 E12.28429
G1 X113.753 Y97.526 E12.32958
G1 X114.173 Y97.733 E12.35294
G1 X114.381 Y97.841 E12.36463
G1 X115.168 Y98.294 E12.40994
G1 X116.194 Y99.04 E12.47322
G1 X116.349 Y99.168 E12.48325
G1 X117.022 Y99.776 E12.5285
G1 X117.64 Y100.441 E12.57379
G1 X118.09 Y101.011 E12.61003
G1 X118.259 Y101.241 E12.62427
G1 X118.764 Y101.995 E12.66954
G1 X119.2 Y102.791 E12.71482
G1 X119.565 Y103.622 E12.7601
G1 X119.766 Y104.191 E12.79021
G1 X119.836 Y104.409 E12.80163
G1 X120.075 Y105.284 E12.84688
G1 X120.236 Y106.178 E12.8922
G1 X120.326 Y107.311 E12.94891
G1 X120.332 Y107.561 E12.96138
G1 X120.314 Y108.468 E13.00664
G1 X120.216 Y109.37 E13.05191
G1 X120.024 Y110.318 E13.10016
G1 X119.975 Y110.513 E13.1102
G1 X119.716 Y111.383 E13.15548
G1 X119.38 Y112.226 E13.20076
G1 X118.902 Y113.16 E13.2531
G1 X118.795 Y113.345 E13.26377
G1 X118.307 Y114.11 E13.30904
G1 X117.753 Y114.829 E13.35432
G1 X117.246 Y115.387 E13.39193
G1 X117.075 Y115.562 E13.40414
G1 X116.413 Y116.182 E13.44939
G1 X115.517 Y116.869 E13.50572
G1 X115.312 Y117.009 E13.5181
G1 X114.541 Y117.487 E13.56336
G1 X113.719 Y117.901 E13.60928
G1 X113.612 Y117.949 E13.61513
G1 X112.768 Y118.283 E13.66042
G1 X112.011 Y118.514 E13.6999
G1 X111.79 Y118.572 E13.7113
G1 X110.903 Y118.763 E13.75657
G1 X110.002 Y118.876 E13.80187
G1 X109.513 Y118.903 E13.8263
G1 X109.3 Y118.91 E13.83694
G1 X108.393 Y118.9 E13.88219
G1 X107.49 Y118.81 E13.92746
G1 X106.598 Y118.641 E13.97276
G1 X106.075 Y118.503 E13.99974
G1 X105.849 Y118.437 E14.01149
G1 X104.99 Y118.144 E14.05677
G1 X104.16 Y117.777 E14.10205
G1 X103.198 Y117.235 E14.15713
G1 X102.991 Y117.103 E14.16938
G1 X102.248 Y116.581 E14.21468
G1 X101.5 Y115.946 E14.26364
G1 X101.334 Y115.791 E14.27497
G1 X100.698 Y115.143 E14.32027
G1 X100.122 Y114.442 E14.36553
G1 X99.746 Y113.905 E14.39824
G1 X99.636 Y113.737 E14.40825
G1 X99.173 Y112.957 E14.45351
G1 X98.71 Y111.972 E14.50781
G1 X98.671 Y111.876 E14.51298
G1 X98.367 Y111.021 E14.55825
G1 X98.078 Y109.828 E14.61949
G1 X98.032 Y109.573 E14.63242
G1 X97.91 Y108.673 E14.67773
G1 X97.868 Y107.767 E14.72298
G1 X97.906 Y106.86 E14.76827
G1 X97.96 Y106.374 E14.79266
G1 X97.991 Y106.143 E14.80429
G1 X98.151 Y105.25 E14.84955
G1 X98.33 Y104.565 E14.88488
G1 X98.353 Y104.488 E14.88889
G1 X98.651 Y103.631 E14.93415
G1 X99.059 Y102.732 E14.98341
G1 X99.155 Y102.545 E14.99389
G1 X99.605 Y101.757 E15.03917
G1 X100.122 Y101.011 E15.08445
G1 X100.574 Y100.458 E15.12008
G1 X100.738 Y100.271 E15.13249
G1 X101.366 Y99.615 E15.1778
G1 F1500 E8.6778
;MESH:Botanical1.stl
G0 F6000 X108.41 Y106.517
G0 X108.436 Y107.115
G0 X108.835 Y107.633
G0 X109.559 Y108.106
;TYPE:WALL-OUTER
G1 F1500 E15.1778
G1 F1200 X109.571 Y107.879 E15.18914
G1 X109.605 Y107.338 E15.21618
G1 X109.728 Y107.563 E15.22897
G1 X109.739 Y107.802 E15.24091
G1 X109.641 Y108.017 E15.2527
G1 X109.559 Y108.106 E15.25874
G0 F6000 X109.326 Y108.265
G1 F1200 X109.135 Y108.328 E15.26877
G1 X108.916 Y108.31 E15.27973
G1 X108.681 Y108.157 E15.29372
G1 X108.517 Y107.974 E15.30598
G1 X108.458 Y107.759 E15.31711
G1 X108.525 Y107.477 E15.33157
G1 X108.728 Y108.09 E15.36378
G1 X109.326 Y108.265 E15.39487
G0 F6000 X109.23 Y108.225
;MESH:NONMESH
G0 F300 X109.23 Y108.225 Z0.4
G0 F6000 X109.048 Y107.798
;TIME_ELAPSED:21.361643
;LAYER:1
M106 S85
;TYPE:WALL-INNER
;MESH:Botanical1.stl
G1 F600 X109.002 Y107.751 E15.39815
G1 X109.12 Y107.698 E15.40092
G1 X109.183 Y107.716 E15.40178
G1 X109.048 Y107.798 E15.40472
G0 F7500 X108.888 Y108.398
;TYPE:WALL-OUTER
G1 F600 X108.689 Y108.283 E15.41619
G1 X108.491 Y108.102 E15.42957
G1 X108.386 Y107.907 E15.44062
G1 X108.383 Y107.648 E15.45354
G1 X108.468 Y107.442 E15.46466
G1 X108.639 Y107.263 E15.47701
G1 X108.931 Y107.114 E15.49336
G1 X109.171 Y107.09 E15.5054
G1 X109.456 Y107.169 E15.52015
G1 X109.673 Y107.317 E15.53326
G1 X109.812 Y107.534 E15.54611
G1 X109.835 Y107.791 E15.55899
G1 X109.757 Y107.996 E15.56993
G1 X109.573 Y108.176 E15.58277
G1 X109.324 Y108.343 E15.59773
G1 X109.122 Y108.414 E15.60841
G1 X108.888 Y108.398 E15.62011
G0 F7500 X109.08 Y107.767
G0 X109.434 Y107.788
;TYPE:SKIN
G1 F600 X109.566 Y107.657 E15.62475
G0 F7500 X109.201 Y107.978
;MESH:NONMESH
G0 F300 X109.201 Y107.978 Z0.6
G0 F7500 X109.024 Y107.881
;TIME_ELAPSED:22.161497
;LAYER:2
M106 S170
;TYPE:WALL-INNER
;MESH:Botanical1.stl
G1 F600 X108.912 Y107.78 E15.63228
G1 X109.118 Y107.688 E15.637
G1 X109.276 Y107.722 E15.64081
G1 X109.024 Y107.881 E15.64688
G0 F9000 X108.95 Y108.501
;TYPE:WALL-OUTER
G1 F600 X108.746 Y108.43 E15.65765
G1 X108.474 Y108.203 E15.67533
G1 X108.315 Y107.984 E15.68883
G1 X108.283 Y107.713 E15.70244
G1 X108.377 Y107.473 E15.7153
G1 X108.548 Y107.293 E15.72769
G1 X108.797 Y107.166 E15.74164
G1 X109.059 Y107.073 E15.75551
G1 X109.34 Y107.114 E15.76967
G1 X109.592 Y107.192 E15.78283
G1 X109.796 Y107.352 E15.79577
G1 X109.926 Y107.594 E15.80947
G1 X109.938 Y107.711 E15.81534
G1 X109.874 Y107.958 E15.82807
G1 X109.681 Y108.174 E15.84252
G1 X109.406 Y108.354 E15.85892
G1 X109.186 Y108.48 E15.87157
G1 X108.95 Y108.501 E15.88339
G0 F9000 X109.03 Y107.846
G0 X109.103 Y108.019
;MESH:NONMESH
G0 F300 X109.103 Y108.019 Z0.8
G0 F9000 X109.344 Y107.716
;TIME_ELAPSED:22.981384
;LAYER:3
M106 S255
;TYPE:WALL-INNER
;MESH:Botanical1.stl
G1 F600 X109.209 Y107.761 E15.89049
G1 X109.007 Y107.959 E15.9046
