;FLAVOR:Marlin
;TIME:4804
;Filament used: 1.60638m
;Layer height: 0.2
;MINX:81.76
;MINY:82.752
;MINZ:0.2
;MAXX:131.979
;MAXY:142.103
;MAXZ:72.6
;Generated with Cura_SteamEngine 4.13.1
M140 S60
M105
M190 S60
M104 S200
M105
M109 S200
M82 ;absolute extrusion mode
; Ender 3 Custom Start G-code
G92 E0 ; Reset Extruder
G28 ; Home all axes
G1 Z2.0 F3000 ; Move Z Axis up little to prevent scratching of Heat Bed
G1 X0.1 Y20 Z0.3 F5000.0 ; Move to start position
G1 X0.1 Y200.0 Z0.3 F1500.0 E15 ; Draw the first line
G1 X0.4 Y200.0 Z0.3 F5000.0 ; Move to side a little
G1 X0.4 Y20 Z0.3 F1500.0 E30 ; Draw the second line
G92 E0 ; Reset Extruder
G1 Z2.0 F3000 ; Move Z Axis up little to prevent scratching of Heat Bed
G1 X5 Y20 Z0.3 F5000.0 ; Move over to prevent blob squish
G92 E0
G92 E0
G1 F1500 E-6.5
;LAYER_COUNT:450
;LAYER:0
M107
G0 F6000 X88.975 Y89.697 Z0.2
;TYPE:SKIRT
G1 F1500 E0
G1 F1200 X89.56 Y89.14 E0.0403
G1 X90.139 Y88.625 E0.07896
G1 X90.838 Y88.044 E0.12431
G1 X91.458 Y87.563 E0.16346
G1 X92.123 Y87.083 E0.20437
G1 X92.791 Y86.636 E0.24447
G1 X93.576 Y86.149 E0.29056
G1 X94.215 Y85.78 E0.32737
G1 X94.875 Y85.427 E0.36471
G1 X95.567 Y85.087 E0.40318
G1 X96.422 Y84.701 E0.44998
G1 X97.138 Y84.406 E0.48862
G1 X97.798 Y84.16 E0.52376
G1 X98.186 Y84.023 E0.54429
G1 X98.57 Y83.899 E0.56442
G1 X99.304 Y83.677 E0.60268
G1 X99.993 Y83.492 E0.63827
G1 X100.752 Y83.313 E0.67717
G1 X101.108 Y83.235 E0.69536
G1 X101.562 Y83.15 E0.7184
G1 X102.321 Y83.024 E0.75678
G1 X102.648 Y82.975 E0.77328
G1 X103.111 Y82.918 E0.79655
G1 X103.839 Y82.844 E0.83306
G1 X104.189 Y82.814 E0.85059
G1 X104.429 Y82.797 E0.86259
G1 X104.788 Y82.777 E0.88053
G1 X105.142 Y82.763 E0.8982
G1 X105.471 Y82.755 E0.91462
G1 X105.748 Y82.752 E0.92844
G1 X106.063 Y82.753 E0.94416
G1 X106.547 Y82.761 E0.96831
G1 X106.931 Y82.773 E0.98748
G1 X107.111 Y82.782 E0.99647
G1 X107.462 Y82.805 E1.01402
G1 X108.28 Y82.871 E1.05496
G1 X109.005 Y82.953 E1.09136
G1 X109.743 Y83.06 E1.12856
G1 X110.221 Y83.139 E1.15273
G1 X110.534 Y83.2 E1.16864
G1 X111.368 Y83.376 E1.21117
G1 X111.987 Y83.531 E1.243
G1 X112.801 Y83.758 E1.28516
G1 X113.518 Y83.983 E1.32266
G1 X114.285 Y84.252 E1.36321
G1 X114.996 Y84.528 E1.40126
G1 X115.792 Y84.868 E1.44444
G1 X116.491 Y85.195 E1.48294
G1 X117.277 Y85.595 E1.52694
G1 X117.956 Y85.97 E1.56564
G1 X118.636 Y86.376 E1.60515
G1 X119.309 Y86.81 E1.6451
G1 X120.065 Y87.336 E1.69105
G1 X120.681 Y87.796 E1.72941
G1 X121.311 Y88.3 E1.76966
G1 X121.885 Y88.791 E1.80734
G1 X122.536 Y89.386 E1.85134
G1 X123.101 Y89.939 E1.89079
G1 X123.697 Y90.564 E1.93387
G1 X124.227 Y91.16 E1.97366
G1 X124.785 Y91.833 E2.01728
G1 X125.259 Y92.446 E2.05594
G1 X125.748 Y93.124 E2.09764
G1 X126.18 Y93.767 E2.13629
G1 X126.647 Y94.516 E2.18033
G1 X127.034 Y95.186 E2.21893
G1 X127.407 Y95.885 E2.25846
G1 X127.744 Y96.57 E2.29654
G1 X128.127 Y97.419 E2.34301
G1 X128.42 Y98.132 E2.38147
G1 X128.663 Y98.784 E2.41618
G1 X128.778 Y99.106 E2.43324
G1 X128.927 Y99.564 E2.45727
G1 X129.149 Y100.299 E2.49558
G1 X129.283 Y100.779 E2.52044
G1 X129.359 Y101.087 E2.53627
G1 X129.529 Y101.819 E2.57376
G1 X129.67 Y102.528 E2.60982
G1 X129.801 Y103.313 E2.64953
G1 X129.864 Y103.74 E2.67106
G1 X129.909 Y104.119 E2.6901
G1 X129.979 Y104.809 E2.7247
G1 X130.011 Y105.182 E2.74338
G1 X130.027 Y105.415 E2.75503
G1 X130.044 Y105.729 E2.77072
G1 X130.061 Y106.141 E2.79129
G1 X130.07 Y106.461 E2.80726
G1 X130.072 Y106.619 E2.81515
G1 X130.14 Y109.199 E2.94391
G1 X130.275 Y111.679 E3.06782
G1 X130.486 Y114.223 E3.19518
G1 X130.759 Y116.676 E3.31831
G1 X131.106 Y119.159 E3.44339
G1 X131.635 Y122.231 E3.59891
G1 X131.779 Y122.989 E3.63741
G1 X131.919 Y123.938 E3.68526
G1 X131.979 Y124.895 E3.7331
G1 X131.958 Y125.854 E3.78096
G1 X131.858 Y126.807 E3.82877
G1 X131.679 Y127.75 E3.87665
G1 X131.478 Y128.498 E3.91529
G1 X131.213 Y129.364 E3.96048
G1 X130.549 Y131.406 E4.0676
G1 X130.271 Y132.223 E4.11066
G1 X129.924 Y133.117 E4.1585
G1 X129.503 Y133.978 E4.20632
G1 X129.011 Y134.802 E4.2542
G1 X128.453 Y135.581 E4.302
G1 X127.831 Y136.312 E4.34989
G1 X127.151 Y136.988 E4.39773
G1 X126.31 Y137.687 E4.45228
G1 X125.637 Y138.194 E4.49432
G1 X123.886 Y139.47 E4.60241
G1 X123.171 Y139.977 E4.64614
G1 X122.365 Y140.498 E4.69402
G1 X121.519 Y140.949 E4.74185
G1 X120.639 Y141.329 E4.78968
G1 X119.729 Y141.634 E4.83756
G1 X118.798 Y141.862 E4.88538
G1 X117.851 Y142.011 E4.93321
G1 X116.733 Y142.085 E4.98911
G1 X115.618 Y142.103 E5.04474
G1 X113.516 Y142.102 E5.14961
G1 X112.838 Y142.092 E5.18344
G1 X111.881 Y142.038 E5.23126
G1 X110.931 Y141.904 E5.27912
G1 X109.996 Y141.692 E5.32696
G1 X109.131 Y141.42 E5.37219
G1 X108.242 Y141.062 E5.42001
G1 X107.385 Y140.631 E5.46787
G1 X106.373 Y139.997 E5.52744
G1 X105.462 Y139.356 E5.58302
G1 X103.799 Y138.144 E5.68568
G1 X103.217 Y137.708 E5.72196
G1 X102.474 Y137.101 E5.76983
G1 X101.534 Y136.163 E5.83608
G1 X100.751 Y135.286 E5.89473
G1 X98.995 Y133.376 E6.02418
G1 X97.252 Y131.585 E6.14886
G1 X95.456 Y129.842 E6.27372
G1 X93.601 Y128.14 E6.39932
G1 X91.718 Y126.508 E6.52364
G1 X90.704 Y125.678 E6.58901
G1 X90.196 Y125.245 E6.62231
G1 X89.911 Y124.993 E6.64129
G1 X89.298 Y124.431 E6.68278
G1 X88.742 Y123.885 E6.72166
G1 X88.121 Y123.233 E6.76658
G1 X87.598 Y122.645 E6.80584
G1 X87.062 Y121.999 E6.84772
G1 X86.592 Y121.393 E6.88598
G1 X86.094 Y120.704 E6.9284
G1 X85.641 Y120.028 E6.96899
G1 X85.166 Y119.262 E7.01396
G1 X84.788 Y118.605 E7.05178
G1 X84.41 Y117.895 E7.09191
G1 X84.072 Y117.206 E7.13019
G1 X83.711 Y116.403 E7.17412
G1 X83.439 Y115.743 E7.20973
G1 X83.179 Y115.053 E7.24652
G1 X82.936 Y114.339 E7.28415
G1 X82.691 Y113.532 E7.32622
G1 X82.56 Y113.065 E7.35042
G1 X82.473 Y112.717 E7.36832
G1 X82.321 Y112.067 E7.40162
G1 X82.22 Y111.588 E7.42604
G1 X82.159 Y111.255 E7.44293
G1 X82.042 Y110.556 E7.47829
G1 X81.975 Y110.104 E7.50109
G1 X81.93 Y109.732 E7.51978
G1 X81.852 Y108.974 E7.5578
G1 X81.819 Y108.579 E7.57757
G1 X81.807 Y108.403 E7.58638
G1 X81.79 Y108.092 E7.60191
G1 X81.773 Y107.677 E7.62264
G1 X81.763 Y107.311 E7.6409
G1 X81.76 Y106.983 E7.65727
G1 X81.762 Y106.682 E7.67229
G1 X81.768 Y106.33 E7.68985
G1 X81.778 Y106.011 E7.70577
G1 X81.788 Y105.788 E7.71691
G1 X81.812 Y105.399 E7.73635
G1 X81.875 Y104.6 E7.77634
G1 X81.956 Y103.867 E7.81313
G1 X82.067 Y103.095 E7.85204
G1 X82.14 Y102.648 E7.87464
G1 X82.214 Y102.268 E7.89395
G1 X82.366 Y101.549 E7.93062
G1 X82.539 Y100.842 E7.96693
G1 X82.766 Y100.027 E8.00914
G1 X82.992 Y99.307 E8.04679
G1 X83.261 Y98.54 E8.08734
G1 X83.541 Y97.821 E8.12583
G1 X83.886 Y97.015 E8.16957
G1 X84.21 Y96.322 E8.20774
G1 X84.599 Y95.558 E8.25051
G1 X84.979 Y94.871 E8.28968
G1 X85.414 Y94.144 E8.33195
G1 X85.833 Y93.494 E8.37053
G1 X86.304 Y92.815 E8.41176
G1 X86.77 Y92.189 E8.45069
G1 X87.312 Y91.511 E8.494
G1 X87.815 Y90.925 E8.53253
G1 X88.425 Y90.259 E8.57758
G1 X88.975 Y89.697 E8.61682
G0 F6000 X89.389 Y90.132
G1 F1200 X89.974 Y89.575 E8.65711
G1 X90.523 Y89.087 E8.69376
G1 X91.222 Y88.506 E8.73911
G1 X91.81 Y88.05 E8.77623
G1 X92.475 Y87.57 E8.81715
G1 X93.108 Y87.146 E8.85516
G1 X93.893 Y86.659 E8.90125
G1 X94.498 Y86.309 E8.93612
G1 X95.158 Y85.956 E8.97346
G1 X95.814 Y85.633 E9.00994
G1 X96.669 Y85.247 E9.05674
G1 X97.347 Y84.968 E9.09332
G1 X98.007 Y84.722 E9.12846
G1 X98.379 Y84.591 E9.14813
G1 X98.743 Y84.474 E9.16721
G1 X99.477 Y84.252 E9.20547
G1 X100.131 Y84.076 E9.23926
G1 X100.89 Y83.897 E9.27816
G1 X101.23 Y83.822 E9.29553
G1 X101.66 Y83.742 E9.31735
G1 X102.419 Y83.616 E9.35574
G1 X102.733 Y83.569 E9.37158
G1 X103.172 Y83.515 E9.39364
G1 X103.9 Y83.441 E9.43015
G1 X104.232 Y83.412 E9.44678
G1 X104.472 Y83.395 E9.45878
G1 X104.811 Y83.377 E9.47572
G1 X105.165 Y83.363 E9.49339
G1 X105.478 Y83.355 E9.50901
G1 X105.755 Y83.352 E9.52283
G1 X106.053 Y83.352 E9.5377
G1 X106.537 Y83.36 E9.56185
G1 X106.901 Y83.373 E9.58002
G1 X107.081 Y83.382 E9.58902
G1 X107.414 Y83.403 E9.60566
G1 X108.232 Y83.469 E9.6466
G1 X108.919 Y83.547 E9.6811
G1 X109.657 Y83.654 E9.7183
G1 X110.114 Y83.73 E9.74142
G1 X110.411 Y83.788 E9.75651
G1 X111.286 Y83.973 E9.80113
G1 X111.826 Y84.109 E9.82891
G1 X112.64 Y84.336 E9.87107
G1 X113.319 Y84.549 E9.90658
G1 X114.086 Y84.818 E9.94713
G1 X114.761 Y85.08 E9.98325
G1 X115.557 Y85.42 E10.02644
G1 X116.219 Y85.73 E10.06291
G1 X117.005 Y86.13 E10.1069
G1 X117.649 Y86.485 E10.14359
G1 X118.329 Y86.891 E10.1831
G1 X118.966 Y87.303 E10.22095
G1 X119.722 Y87.829 E10.2669
G1 X120.306 Y88.265 E10.30326
G1 X120.936 Y88.769 E10.34351
G1 X121.481 Y89.234 E10.37925
G1 X122.132 Y89.829 E10.42325
G1 X122.666 Y90.353 E10.46058
G1 X123.262 Y90.978 E10.50367
G1 X123.765 Y91.543 E10.54141
G1 X124.323 Y92.216 E10.58502
G1 X124.773 Y92.797 E10.62169
G1 X125.262 Y93.475 E10.66339
G1 X125.67 Y94.084 E10.69996
G1 X126.137 Y94.833 E10.744
G1 X126.505 Y95.468 E10.78061
G1 X126.878 Y96.167 E10.82014
G1 X127.197 Y96.817 E10.85627
G1 X127.58 Y97.666 E10.90273
G1 X127.858 Y98.341 E10.93915
G1 X128.101 Y98.993 E10.97387
G1 X128.211 Y99.304 E10.99032
G1 X128.352 Y99.737 E11.01304
G1 X128.574 Y100.472 E11.05135
G1 X128.702 Y100.931 E11.07512
G1 X128.774 Y101.223 E11.09013
G1 X128.944 Y101.955 E11.12762
G1 X129.078 Y102.627 E11.1618
G1 X129.209 Y103.412 E11.20151
G1 X129.27 Y103.82 E11.22209
G1 X129.312 Y104.18 E11.24017
G1 X129.382 Y104.87 E11.27477
G1 X129.412 Y105.223 E11.29245
G1 X129.428 Y105.456 E11.3041
G1 X129.445 Y105.754 E11.31899
G1 X129.462 Y106.166 E11.33956
G1 X129.47 Y106.469 E11.35469
G1 X129.472 Y106.643 E11.36337
G1 X129.54 Y109.211 E11.49153
G1 X129.677 Y111.737 E11.61774
G1 X129.888 Y114.272 E11.74465
G1 X130.164 Y116.751 E11.86909
G1 X130.513 Y119.25 E11.99498
G1 X131.043 Y122.327 E12.15075
G1 X131.19 Y123.101 E12.19005
G1 X131.325 Y124.025 E12.23664
G1 X131.38 Y124.957 E12.28322
G1 X131.355 Y125.89 E12.32978
G1 X131.25 Y126.818 E12.37638
G1 X131.066 Y127.733 E12.42294
G1 X130.904 Y128.322 E12.45342
G1 X130.58 Y129.375 E12.50838
G1 X129.929 Y131.371 E12.61313
G1 X129.704 Y132.029 E12.64782
G1 X129.364 Y132.898 E12.69438
G1 X128.951 Y133.736 E12.74098
G1 X128.468 Y134.535 E12.78756
G1 X127.919 Y135.289 E12.8341
G1 X127.307 Y135.994 E12.88067
G1 X126.637 Y136.644 E12.92725
G1 X125.949 Y137.208 E12.97163
G1 X125.276 Y137.715 E13.01367
G1 X123.533 Y138.985 E13.12126
G1 X122.824 Y139.487 E13.1646
G1 X122.04 Y139.993 E13.21115
G1 X121.215 Y140.43 E13.25773
G1 X120.355 Y140.795 E13.30434
G1 X119.468 Y141.084 E13.35088
G1 X118.559 Y141.297 E13.39746
G1 X117.635 Y141.431 E13.44404
G1 X116.723 Y141.485 E13.48962
G1 X115.618 Y141.503 E13.54476
G1 X113.525 Y141.502 E13.64918
G1 X112.847 Y141.492 E13.68301
G1 X111.915 Y141.438 E13.72958
G1 X110.991 Y141.305 E13.77616
G1 X110.082 Y141.093 E13.82272
G1 X109.332 Y140.854 E13.862
G1 X108.466 Y140.505 E13.90858
G1 X107.634 Y140.082 E13.95514
G1 X106.717 Y139.505 E14.00919
G1 X105.816 Y138.871 E14.06416
G1 X104.159 Y137.664 E14.16643
G1 X103.577 Y137.228 E14.20271
G1 X102.854 Y136.636 E14.24933
G1 X101.981 Y135.764 E14.31089
G1 X101.15 Y134.833 E14.37315
G1 X99.443 Y132.976 E14.49899
G1 X97.658 Y131.142 E14.62668
G1 X95.874 Y129.411 E14.75069
G1 X93.993 Y127.685 E14.87806
G1 X92.103 Y126.048 E15.0028
G1 X91.084 Y125.213 E15.06853
G1 X90.895 Y125.055 E15.08082
G1 X90.586 Y124.79 E15.10112
G1 X90.316 Y124.55 E15.11915
G1 X89.703 Y123.988 E15.16064
G1 X89.176 Y123.472 E15.19743
G1 X88.555 Y122.82 E15.24236
G1 X88.06 Y122.262 E15.27957
G1 X87.524 Y121.616 E15.32145
G1 X87.078 Y121.041 E15.35775
G1 X86.58 Y120.352 E15.40017
G1 X86.15 Y119.711 E15.43867
G1 X85.675 Y118.945 E15.48364
G1 X85.318 Y118.323 E15.51942
G1 X84.94 Y117.613 E15.55955
G1 X84.619 Y116.96 E15.59585
G1 X84.258 Y116.157 E15.63978
G1 X84 Y115.531 E15.67356
G1 X83.74 Y114.841 E15.71034
G1 X83.51 Y114.164 E15.74602
G1 X83.265 Y113.357 E15.78809
G1 X83.141 Y112.915 E15.81099
G1 X83.057 Y112.58 E15.82822
G1 X82.905 Y111.93 E15.86153
G1 X82.808 Y111.472 E15.88488
G1 X82.751 Y111.156 E15.9009
G1 X82.634 Y110.457 E15.93626
G1 X82.569 Y110.023 E15.95816
G1 X82.527 Y109.671 E15.97584
G1 X82.449 Y108.913 E16.01386
G1 X82.417 Y108.538 E16.03264
G1 X82.405 Y108.362 E16.04144
G1 X82.389 Y108.067 E16.05618
G1 X82.372 Y107.652 E16.0769
G1 X82.363 Y107.306 E16.09417
G1 X82.36 Y106.978 E16.11053
G1 X82.362 Y106.692 E16.1248
G1 X82.368 Y106.34 E16.14236
G1 X82.377 Y106.038 E16.15744
G1 X82.387 Y105.815 E16.16857
G1 X82.41 Y105.446 E16.18702
G1 X82.473 Y104.647 E16.227
G1 X82.55 Y103.953 E16.26184
G1 X82.661 Y103.181 E16.30075
G1 X82.731 Y102.753 E16.32239
G1 X82.801 Y102.393 E16.34069
G1 X82.953 Y101.674 E16.37735
G1 X83.117 Y101.003 E16.41181
G1 X83.344 Y100.188 E16.45402
G1 X83.558 Y99.506 E16.48968
G1 X83.827 Y98.739 E16.53023
G1 X84.092 Y98.057 E16.56674
G1 X84.437 Y97.251 E16.61048
G1 X84.745 Y96.594 E16.64668
G1 X85.134 Y95.83 E16.68945
G1 X85.494 Y95.179 E16.72656
G1 X85.929 Y94.452 E16.76883
G1 X86.326 Y93.836 E16.80539
G1 X86.797 Y93.157 E16.84662
G1 X87.239 Y92.564 E16.88352
G1 X87.781 Y91.886 E16.92682
G1 X88.257 Y91.33 E16.96334
G1 X88.867 Y90.664 E17.0084
G1 X89.389 Y90.132 E17.04558
G0 F6000 X89.803 Y90.566
G1 F1200 X90.388 Y90.009 E17.08588
G1 X90.906 Y89.548 E17.12048
G1 X91.605 Y88.967 E17.16582
G1 X92.161 Y88.536 E17.20092
G1 X92.826 Y88.056 E17.24184
G1 X93.424 Y87.656 E17.27773
G1 X94.209 Y87.169 E17.32382
G1 X94.781 Y86.838 E17.35679
G1 X95.441 Y86.485 E17.39413
G1 X96.061 Y86.18 E17.4286
G1 X96.916 Y85.794 E17.4754
G1 X97.557 Y85.531 E17.50997
G1 X98.217 Y85.285 E17.54511
G1 X98.573 Y85.159 E17.56395
G1 X98.917 Y85.048 E17.58199
G1 X99.651 Y84.826 E17.62024
G1 X100.269 Y84.66 E17.65217
G1 X101.028 Y84.481 E17.69107
G1 X101.352 Y84.41 E17.70762
G1 X101.758 Y84.334 E17.72823
G1 X102.517 Y84.208 E17.76661
G1 X102.817 Y84.163 E17.78175
G1 X103.232 Y84.112 E17.80261
G1 X103.96 Y84.038 E17.83912
G1 X104.274 Y84.011 E17.85484
G1 X104.514 Y83.994 E17.86684
G1 X104.835 Y83.976 E17.88288
G1 X105.189 Y83.962 E17.90056
G1 X105.484 Y83.955 E17.91528
G1 X105.761 Y83.952 E17.9291
G1 X106.043 Y83.952 E17.94317
G1 X106.527 Y83.96 E17.96732
G1 X106.871 Y83.972 E17.98449
G1 X107.051 Y83.981 E17.99348
G1 X107.365 Y84.001 E18.00918
G1 X108.183 Y84.067 E18.05012
G1 X108.833 Y84.141 E18.08276
G1 X109.571 Y84.248 E18.11997
G1 X110.008 Y84.32 E18.14206
G1 X110.288 Y84.375 E18.1563
G1 X111.154 Y84.558 E18.20046
G1 X111.665 Y84.687 E18.22675
G1 X112.479 Y84.914 E18.26891
G1 X113.121 Y85.115 E18.30247
G1 X113.888 Y85.384 E18.34302
G1 X114.525 Y85.632 E18.37713
G1 X115.321 Y85.972 E18.42031
G1 X115.947 Y86.264 E18.45477
G1 X116.733 Y86.664 E18.49877
G1 X117.341 Y87 E18.53343
G1 X118.021 Y87.406 E18.57294
G1 X118.624 Y87.795 E18.60874
G1 X119.38 Y88.321 E18.65469
G1 X119.931 Y88.733 E18.68902
G1 X120.561 Y89.237 E18.72927
G1 X121.076 Y89.677 E18.76306
G1 X121.727 Y90.272 E18.80706
G1 X122.232 Y90.767 E18.84234
G1 X122.828 Y91.392 E18.88543
G1 X123.303 Y91.926 E18.92108
G1 X123.861 Y92.599 E18.9647
G1 X124.286 Y93.148 E18.99934
G1 X124.775 Y93.826 E19.04104
G1 X125.161 Y94.401 E19.07559
G1 X125.628 Y95.15 E19.11963
G1 X125.975 Y95.751 E19.15425
G1 X126.348 Y96.45 E19.19378
G1 X126.65 Y97.064 E19.22792
G1 X127.033 Y97.913 E19.27438
G1 X127.295 Y98.551 E19.30879
G1 X127.614 Y99.412 E19.3546
G1 X127.645 Y99.501 E19.3593
G1 X127.778 Y99.911 E19.38081
G1 X128 Y100.646 E19.41911
G1 X128.122 Y101.083 E19.44175
G1 X128.19 Y101.359 E19.45593
G1 X128.36 Y102.091 E19.49342
G1 X128.487 Y102.726 E19.52573
G1 X128.618 Y103.511 E19.56544
G1 X128.675 Y103.901 E19.5851
G1 X128.715 Y104.24 E19.60213
G1 X128.785 Y104.93 E19.63673
G1 X128.814 Y105.264 E19.65346
G1 X128.83 Y105.497 E19.66511
