;FLAVOR:Marlin
;TIME:1712
;Filament used: 0.56111m
;Layer height: 0.2
;MINX:89.365
;MINY:84.334
;MINZ:0.2
;MAXX:132.588
;MAXY:127.557
;MAXZ:54.4
;Generated with Cura_SteamEngine 4.13.1
M140 S60
M105
M190 S60
M104 S200
M105
M109 S200
M82 ;absolute extrusion mode
; Ender 3 Custom Start G-code
G92 E0 ; Reset Extruder
G28 ; Home all axes
G1 Z2.0 F3000 ; Move Z Axis up little to prevent scratching of Heat Bed
G1 X0.1 Y20 Z0.3 F5000.0 ; Move to start position
G1 X0.1 Y200.0 Z0.3 F1500.0 E15 ; Draw the first line
G1 X0.4 Y200.0 Z0.3 F5000.0 ; Move to side a little
G1 X0.4 Y20 Z0.3 F1500.0 E30 ; Draw the second line
G92 E0 ; Reset Extruder
G1 Z2.0 F3000 ; Move Z Axis up little to prevent scratching of Heat Bed
G1 X5 Y20 Z0.3 F5000.0 ; Move over to prevent blob squish
G92 E0
G92 E0
G1 F1500 E-6.5
;LAYER_COUNT:350
;LAYER:0
M107
G0 F6000 X95.282 Y91.099 Z0.2
;TYPE:SKIRT
G1 F1500 E0
G1 F1200 X95.837 Y90.533 E0.03955
G1 X96.337 Y90.057 E0.07399
G1 X96.917 Y89.54 E0.11275
G1 X97.431 Y89.113 E0.14609
G1 X98.054 Y88.631 E0.18539
G1 X98.642 Y88.207 E0.22156
G1 X99.299 Y87.767 E0.26101
G1 X99.843 Y87.429 E0.29296
G1 X100.491 Y87.055 E0.33028
G1 X101.099 Y86.73 E0.36468
G1 X101.799 Y86.386 E0.40359
G1 X102.432 Y86.101 E0.43823
G1 X103.115 Y85.819 E0.47509
G1 X103.683 Y85.606 E0.50536
G1 X104.393 Y85.366 E0.54275
G1 X105.091 Y85.155 E0.57913
G1 X105.794 Y84.966 E0.61544
G1 X106.323 Y84.842 E0.64255
G1 X107.052 Y84.696 E0.67964
G1 X107.74 Y84.581 E0.71444
G1 X108.474 Y84.483 E0.75139
G1 X109.114 Y84.418 E0.78348
G1 X109.511 Y84.384 E0.80336
G1 X109.661 Y84.374 E0.81086
G1 X109.956 Y84.359 E0.8256
G1 X110.298 Y84.345 E0.84268
G1 X110.634 Y84.336 E0.85944
G1 X110.805 Y84.334 E0.86798
G1 X111.141 Y84.335 E0.88474
G1 X111.54 Y84.342 E0.90465
G1 X111.943 Y84.356 E0.92477
G1 X112.339 Y84.38 E0.94456
G1 X113.005 Y84.433 E0.97789
G1 X113.722 Y84.513 E1.01388
G1 X114.372 Y84.606 E1.04664
G1 X115.114 Y84.737 E1.08423
G1 X115.75 Y84.871 E1.11666
G1 X116.463 Y85.045 E1.15328
G1 X117.027 Y85.202 E1.18248
G1 X117.747 Y85.429 E1.22015
G1 X118.463 Y85.68 E1.258
G1 X119.187 Y85.961 E1.29675
G1 X119.794 Y86.221 E1.32969
G1 X120.472 Y86.538 E1.36703
G1 X121.059 Y86.836 E1.39987
G1 X121.755 Y87.22 E1.43953
G1 X122.367 Y87.586 E1.47511
G1 X123.024 Y88.01 E1.51412
G1 X123.554 Y88.378 E1.54631
G1 X124.177 Y88.842 E1.58507
G1 X124.741 Y89.293 E1.62109
G1 X125.313 Y89.782 E1.65864
G1 X125.807 Y90.233 E1.69201
G1 X126.388 Y90.803 E1.73262
G1 X126.869 Y91.309 E1.76745
G1 X127.384 Y91.889 E1.80614
G1 X127.808 Y92.4 E1.83927
G1 X128.281 Y93.01 E1.87778
G1 X128.71 Y93.604 E1.91434
G1 X129.152 Y94.263 E1.95392
G1 X129.496 Y94.816 E1.98642
G1 X129.87 Y95.463 E2.0237
G1 X130.189 Y96.059 E2.05743
G1 X130.526 Y96.743 E2.09547
G1 X130.799 Y97.346 E2.12849
G1 X131.098 Y98.069 E2.16752
G1 X131.342 Y98.723 E2.20235
G1 X131.578 Y99.425 E2.2393
G1 X131.76 Y100.029 E2.27077
G1 X131.949 Y100.736 E2.30728
G1 X132.091 Y101.345 E2.33848
G1 X132.237 Y102.083 E2.37601
G1 X132.343 Y102.725 E2.40848
G1 X132.438 Y103.431 E2.44402
G1 X132.504 Y104.078 E2.47646
G1 X132.536 Y104.454 E2.49529
G1 X132.55 Y104.657 E2.50544
G1 X132.567 Y104.961 E2.52063
G1 X132.577 Y105.197 E2.53242
G1 X132.586 Y105.538 E2.54943
G1 X132.588 Y105.696 E2.55732
G1 X132.587 Y106.046 E2.57478
G1 X132.578 Y106.553 E2.60008
G1 X132.563 Y106.975 E2.62114
G1 X132.539 Y107.357 E2.64024
G1 X132.489 Y107.978 E2.67132
G1 X132.41 Y108.686 E2.70686
G1 X132.314 Y109.356 E2.74063
G1 X132.188 Y110.071 E2.77685
G1 X132.069 Y110.642 E2.80595
G1 X131.886 Y111.392 E2.84447
G1 X131.692 Y112.086 E2.88042
G1 X131.473 Y112.784 E2.91692
G1 X131.271 Y113.362 E2.94746
G1 X130.986 Y114.096 E2.98674
G1 X130.705 Y114.752 E3.02235
G1 X130.391 Y115.424 E3.05935
G1 X130.063 Y116.071 E3.09554
G1 X129.676 Y116.773 E3.13554
G1 X129.371 Y117.283 E3.16518
G1 X128.946 Y117.942 E3.20431
G1 X128.507 Y118.574 E3.2427
G1 X128.037 Y119.204 E3.28191
G1 X127.65 Y119.687 E3.31279
G1 X127.165 Y120.253 E3.34998
G1 X126.678 Y120.786 E3.386
G1 X126.117 Y121.359 E3.426
G1 X125.618 Y121.834 E3.46037
G1 X125.029 Y122.357 E3.49967
G1 X124.514 Y122.784 E3.53305
G1 X123.911 Y123.251 E3.5711
G1 X123.348 Y123.658 E3.60576
G1 X122.689 Y124.101 E3.64537
G1 X122.085 Y124.477 E3.68087
G1 X121.409 Y124.866 E3.71978
G1 X120.832 Y125.173 E3.75239
G1 X120.158 Y125.504 E3.78985
G1 X119.546 Y125.78 E3.82334
G1 X118.854 Y126.066 E3.8607
G1 X118.243 Y126.295 E3.89325
G1 X117.548 Y126.53 E3.92986
G1 X116.942 Y126.714 E3.96145
G1 X116.224 Y126.907 E3.99854
G1 X115.571 Y127.06 E4.03201
G1 X114.836 Y127.207 E4.0694
G1 X114.235 Y127.307 E4.0998
G1 X113.509 Y127.404 E4.13634
G1 X112.82 Y127.474 E4.17089
G1 X112.436 Y127.507 E4.19012
G1 X112.259 Y127.519 E4.19897
G1 X111.722 Y127.545 E4.22579
G1 X111.391 Y127.555 E4.24231
G1 X111.252 Y127.557 E4.24925
G1 X110.885 Y127.556 E4.26756
G1 X110.373 Y127.547 E4.29311
G1 X109.896 Y127.529 E4.31692
G1 X109.558 Y127.507 E4.33382
G1 X108.946 Y127.458 E4.36445
G1 X108.228 Y127.378 E4.40049
G1 X107.574 Y127.284 E4.43346
G1 X106.859 Y127.158 E4.46968
G1 X106.246 Y127.03 E4.50092
G1 X105.517 Y126.853 E4.53835
G1 X104.909 Y126.684 E4.56983
G1 X104.184 Y126.456 E4.60775
G1 X103.508 Y126.219 E4.64348
G1 X102.798 Y125.943 E4.68149
G1 X102.189 Y125.683 E4.71453
G1 X101.478 Y125.351 E4.75367
G1 X100.835 Y125.023 E4.78969
G1 X100.163 Y124.651 E4.82801
G1 X99.624 Y124.329 E4.85933
G1 X98.967 Y123.906 E4.89831
G1 X98.376 Y123.496 E4.9342
G1 X97.745 Y123.025 E4.97348
G1 X97.214 Y122.6 E5.00742
G1 X96.637 Y122.107 E5.04528
G1 X96.155 Y121.666 E5.07787
G1 X95.594 Y121.116 E5.11707
G1 X95.083 Y120.58 E5.15401
G1 X94.551 Y119.981 E5.19398
G1 X94.136 Y119.48 E5.22644
G1 X93.67 Y118.879 E5.26438
G1 X93.243 Y118.288 E5.30076
G1 X92.792 Y117.614 E5.34122
G1 X92.454 Y117.069 E5.37321
G1 X92.086 Y116.431 E5.40996
G1 X91.755 Y115.812 E5.44498
G1 X91.415 Y115.122 E5.48335
G1 X91.14 Y114.513 E5.51669
G1 X90.846 Y113.798 E5.55526
G1 X90.629 Y113.216 E5.58625
G1 X90.396 Y112.524 E5.62268
G1 X90.186 Y111.829 E5.6589
G1 X89.991 Y111.101 E5.6965
G1 X89.863 Y110.549 E5.72477
G1 X89.723 Y109.844 E5.76063
G1 X89.615 Y109.197 E5.79335
G1 X89.517 Y108.466 E5.83015
G1 X89.446 Y107.767 E5.8652
G1 X89.413 Y107.385 E5.88433
G1 X89.389 Y106.953 E5.90592
G1 X89.375 Y106.596 E5.92374
G1 X89.367 Y106.289 E5.93906
G1 X89.365 Y106.129 E5.94705
G1 X89.366 Y105.784 E5.96426
G1 X89.373 Y105.384 E5.98422
G1 X89.39 Y104.924 E6.00718
G1 X89.412 Y104.575 E6.02463
G1 X89.464 Y103.918 E6.05751
G1 X89.545 Y103.186 E6.09425
G1 X89.638 Y102.54 E6.12681
G1 X89.764 Y101.828 E6.16289
G1 X89.892 Y101.215 E6.19413
G1 X90.072 Y100.476 E6.23208
G1 X90.236 Y99.888 E6.26253
G1 X90.46 Y99.175 E6.29982
G1 X90.72 Y98.433 E6.33904
G1 X91.002 Y97.708 E6.37785
G1 X91.238 Y97.157 E6.40776
G1 X91.556 Y96.477 E6.44521
G1 X91.876 Y95.847 E6.48046
G1 X92.263 Y95.146 E6.52041
G1 X92.614 Y94.56 E6.55449
G1 X93.037 Y93.905 E6.59339
G1 X93.42 Y93.354 E6.62687
G1 X93.883 Y92.734 E6.66547
G1 X94.323 Y92.184 E6.70061
G1 X94.819 Y91.605 E6.73865
G1 X95.282 Y91.099 E6.77287
G0 F6000 X95.724 Y91.504
G1 F1200 X96.25 Y90.967 E6.81037
G1 X96.75 Y90.491 E6.84481
G1 X97.301 Y90.002 E6.88157
G1 X97.815 Y89.575 E6.9149
G1 X98.405 Y89.118 E6.95214
G1 X98.993 Y88.694 E6.9883
G1 X99.616 Y88.277 E7.0257
G1 X100.16 Y87.939 E7.05766
G1 X100.774 Y87.584 E7.09304
G1 X101.382 Y87.259 E7.12744
G1 X102.045 Y86.933 E7.16429
G1 X102.678 Y86.648 E7.19893
G1 X103.326 Y86.381 E7.23389
G1 X103.894 Y86.168 E7.26416
G1 X104.567 Y85.94 E7.29961
G1 X105.265 Y85.729 E7.33599
G1 X105.931 Y85.551 E7.37038
G1 X106.46 Y85.427 E7.39749
G1 X107.151 Y85.288 E7.43265
G1 X107.839 Y85.173 E7.46746
G1 X108.535 Y85.08 E7.50249
G1 X109.175 Y85.015 E7.53458
G1 X109.551 Y84.983 E7.55341
G1 X109.98 Y84.958 E7.57485
G1 X110.322 Y84.944 E7.59192
G1 X110.641 Y84.936 E7.60784
G1 X110.812 Y84.934 E7.61638
G1 X111.13 Y84.935 E7.63224
G1 X111.529 Y84.942 E7.65215
G1 X111.916 Y84.955 E7.67147
G1 X112.292 Y84.978 E7.69026
G1 X112.958 Y85.031 E7.72359
G1 X113.637 Y85.107 E7.75768
G1 X114.287 Y85.2 E7.79044
G1 X114.99 Y85.324 E7.82605
G1 X115.626 Y85.458 E7.85848
G1 X116.302 Y85.623 E7.8932
G1 X116.866 Y85.78 E7.9224
G1 X117.549 Y85.995 E7.95813
G1 X118.265 Y86.246 E7.99598
G1 X118.951 Y86.512 E8.03269
G1 X119.558 Y86.772 E8.06563
G1 X120.2 Y87.073 E8.10101
G1 X120.787 Y87.371 E8.13385
G1 X121.448 Y87.735 E8.1715
G1 X122.06 Y88.101 E8.20707
G1 X122.682 Y88.503 E8.24402
G1 X123.212 Y88.871 E8.27621
G1 X123.802 Y89.311 E8.31293
G1 X124.366 Y89.762 E8.34896
G1 X124.908 Y90.225 E8.38452
G1 X125.402 Y90.676 E8.4179
G1 X125.953 Y91.216 E8.45639
G1 X126.434 Y91.722 E8.49122
G1 X126.922 Y92.272 E8.5279
G1 X127.346 Y92.783 E8.56103
G1 X127.794 Y93.361 E8.59751
G1 X128.223 Y93.955 E8.63407
G1 X128.642 Y94.58 E8.67161
G1 X128.986 Y95.133 E8.7041
G1 X129.341 Y95.746 E8.73944
G1 X129.66 Y96.342 E8.77317
G1 X129.98 Y96.99 E8.80922
G1 X130.253 Y97.593 E8.84225
G1 X130.535 Y98.279 E8.87925
G1 X130.779 Y98.933 E8.91407
G1 X131.003 Y99.598 E8.94908
G1 X131.185 Y100.202 E8.98055
G1 X131.364 Y100.872 E9.01515
G1 X131.506 Y101.481 E9.04635
G1 X131.645 Y102.18 E9.08191
G1 X131.751 Y102.822 E9.11437
G1 X131.841 Y103.492 E9.1481
G1 X131.907 Y104.139 E9.18054
G1 X131.937 Y104.495 E9.19837
G1 X131.951 Y104.698 E9.20852
G1 X131.967 Y104.987 E9.22296
G1 X131.977 Y105.223 E9.23474
G1 X131.986 Y105.546 E9.25087
G1 X131.988 Y105.704 E9.25875
G1 X131.987 Y106.035 E9.27526
G1 X131.978 Y106.542 E9.30056
G1 X131.964 Y106.946 E9.32073
G1 X131.941 Y107.309 E9.33887
G1 X131.891 Y107.93 E9.36996
G1 X131.816 Y108.601 E9.40364
G1 X131.72 Y109.271 E9.43741
G1 X131.601 Y109.949 E9.47175
G1 X131.482 Y110.52 E9.50085
G1 X131.309 Y111.23 E9.53731
G1 X131.115 Y111.924 E9.57326
G1 X130.907 Y112.586 E9.60788
G1 X130.705 Y113.164 E9.63843
G1 X130.434 Y113.86 E9.67569
G1 X130.153 Y114.516 E9.71129
G1 X129.856 Y115.153 E9.74636
G1 X129.528 Y115.8 E9.78255
G1 X129.161 Y116.466 E9.82049
G1 X128.856 Y116.976 E9.85013
G1 X128.453 Y117.599 E9.88715
G1 X128.014 Y118.231 E9.92554
G1 X127.568 Y118.829 E9.96276
G1 X127.181 Y119.312 E9.99364
G1 X126.722 Y119.848 E10.02884
G1 X126.235 Y120.381 E10.06486
G1 X125.703 Y120.924 E10.10279
G1 X125.204 Y121.399 E10.13716
G1 X124.646 Y121.895 E10.17441
G1 X124.131 Y122.322 E10.20778
G1 X123.56 Y122.765 E10.24384
G1 X122.997 Y123.172 E10.2785
G1 X122.371 Y123.591 E10.31608
G1 X121.767 Y123.967 E10.35158
G1 X121.127 Y124.337 E10.38846
G1 X120.55 Y124.644 E10.42106
G1 X119.911 Y124.957 E10.45656
G1 X119.299 Y125.233 E10.49006
G1 X118.643 Y125.504 E10.52547
G1 X118.032 Y125.733 E10.55802
G1 X117.374 Y125.956 E10.59268
G1 X116.768 Y126.14 E10.62428
G1 X116.088 Y126.323 E10.65941
G1 X115.435 Y126.476 E10.69287
G1 X114.737 Y126.615 E10.72838
G1 X114.136 Y126.715 E10.75878
G1 X113.449 Y126.807 E10.79336
G1 X112.76 Y126.877 E10.82791
G1 X112.395 Y126.908 E10.84618
G1 X111.951 Y126.935 E10.86838
G1 X111.696 Y126.946 E10.88111
G1 X111.244 Y126.957 E10.90367
G1 X110.895 Y126.956 E10.92108
G1 X110.383 Y126.947 E10.94663
G1 X109.926 Y126.93 E10.96944
G1 X109.606 Y126.909 E10.98544
G1 X108.994 Y126.86 E11.01607
G1 X108.313 Y126.784 E11.05026
G1 X107.659 Y126.69 E11.08322
G1 X106.982 Y126.571 E11.11751
G1 X106.369 Y126.443 E11.14876
G1 X105.678 Y126.275 E11.18424
G1 X105.07 Y126.106 E11.21572
G1 X104.383 Y125.89 E11.25165
G1 X103.707 Y125.653 E11.28739
G1 X103.033 Y125.392 E11.32344
G1 X102.424 Y125.132 E11.35648
G1 X101.751 Y124.817 E11.39355
G1 X101.108 Y124.489 E11.42957
G1 X100.471 Y124.136 E11.4659
G1 X99.932 Y123.814 E11.49722
G1 X99.309 Y123.413 E11.53419
G1 X98.718 Y123.003 E11.57007
G1 X98.12 Y122.557 E11.60729
G1 X97.589 Y122.132 E11.64122
G1 X97.042 Y121.664 E11.67714
G1 X96.56 Y121.223 E11.70973
G1 X96.029 Y120.702 E11.74684
G1 X95.518 Y120.166 E11.78379
G1 X95.013 Y119.598 E11.82171
G1 X94.598 Y119.097 E11.85417
G1 X94.157 Y118.527 E11.89012
G1 X93.73 Y117.936 E11.9265
G1 X93.302 Y117.298 E11.96482
G1 X92.964 Y116.753 E11.99682
G1 X92.615 Y116.148 E12.03167
G1 X92.284 Y115.529 E12.06669
G1 X91.962 Y114.875 E12.10305
G1 X91.687 Y114.266 E12.13639
G1 X91.408 Y113.588 E12.17297
G1 X91.191 Y113.006 E12.20396
G1 X90.97 Y112.351 E12.23845
G1 X90.76 Y111.656 E12.27467
G1 X90.576 Y110.965 E12.31034
G1 X90.448 Y110.413 E12.33861
G1 X90.315 Y109.746 E12.37254
G1 X90.207 Y109.099 E12.40527
G1 X90.114 Y108.405 E12.4402
G1 X90.043 Y107.706 E12.47526
G1 X90.005 Y107.241 E12.49853
G1 X89.988 Y106.929 E12.51412
G1 X89.974 Y106.572 E12.53195
G1 X89.965 Y106.121 E12.55445
G1 X89.966 Y105.794 E12.57076
G1 X89.973 Y105.394 E12.59072
G1 X89.989 Y104.953 E12.61274
G1 X90.01 Y104.622 E12.62929
G1 X90.062 Y103.965 E12.66217
G1 X90.139 Y103.272 E12.69695
G1 X90.232 Y102.626 E12.72952
G1 X90.351 Y101.951 E12.76371
G1 X90.479 Y101.338 E12.79495
G1 X90.65 Y100.638 E12.8309
G1 X90.814 Y100.05 E12.86136
G1 X91.026 Y99.373 E12.89675
G1 X91.286 Y98.631 E12.93598
G1 X91.553 Y97.944 E12.97275
G1 X91.789 Y97.393 E13.00265
G1 X92.091 Y96.749 E13.03814
G1 X92.411 Y96.119 E13.07339
G1 X92.778 Y95.454 E13.11129
G1 X93.129 Y94.868 E13.14537
G1 X93.53 Y94.248 E13.1822
G1 X93.913 Y93.697 E13.21568
G1 X94.352 Y93.109 E13.25229
G1 X94.792 Y92.559 E13.28743
G1 X95.261 Y92.01 E13.32345
G1 X95.724 Y91.504 E13.35767
G0 F6000 X96.167 Y91.909
G1 F1200 X96.664 Y91.402 E13.39309
G1 X97.164 Y90.926 E13.42753
G1 X97.684 Y90.463 E13.46227
G1 X98.198 Y90.036 E13.49561
G1 X98.756 Y89.605 E13.53078
G1 X99.344 Y89.181 E13.56695
G1 X99.932 Y88.786 E13.60229
G1 X100.476 Y88.448 E13.63424
G1 X101.056 Y88.113 E13.66766
G1 X101.664 Y87.788 E13.70205
G1 X102.291 Y87.48 E13.73691
G1 X102.924 Y87.195 E13.77154
G1 X103.536 Y86.943 E13.80456
G1 X104.104 Y86.73 E13.83482
G1 X104.741 Y86.515 E13.86837
G1 X105.439 Y86.304 E13.90475
G1 X106.068 Y86.135 E13.93724
G1 X106.597 Y86.011 E13.96435
G1 X107.25 Y85.88 E13.99757
G1 X107.938 Y85.765 E14.03238
G1 X108.595 Y85.677 E14.06545
G1 X109.235 Y85.612 E14.09754
G1 X109.591 Y85.582 E14.11536
G1 X110.005 Y85.558 E14.13605
G1 X110.347 Y85.544 E14.15313
G1 X110.648 Y85.536 E14.16815
G1 X110.819 Y85.534 E14.17668
G1 X111.12 Y85.535 E14.1917
G1 X111.519 Y85.542 E14.21161
G1 X111.889 Y85.554 E14.23008
G1 X112.244 Y85.576 E14.24782
G1 X112.91 Y85.629 E14.28116
G1 X113.552 Y85.701 E14.31339
G1 X114.202 Y85.794 E14.34615
G1 X114.867 Y85.911 E14.37983
G1 X115.503 Y86.045 E14.41226
G1 X116.141 Y86.201 E14.44503
G1 X116.705 Y86.358 E14.47423
G1 X117.35 Y86.561 E14.50797
G1 X118.066 Y86.812 E14.54582
G1 X118.714 Y87.064 E14.58051
G1 X119.321 Y87.324 E14.61345
G1 X119.929 Y87.608 E14.64693
G1 X120.516 Y87.906 E14.67978
G1 X121.14 Y88.25 E14.71533
G1 X121.752 Y88.616 E14.7509
G1 X122.339 Y88.995 E14.78576
G1 X122.869 Y89.363 E14.81795
G1 X123.428 Y89.78 E14.85275
G1 X123.992 Y90.231 E14.88877
G1 X124.504 Y90.668 E14.92236
G1 X124.998 Y91.119 E14.95573
G1 X125.518 Y91.63 E14.9921
G1 X125.999 Y92.136 E15.02693
G1 X126.461 Y92.655 E15.0616
G1 X126.885 Y93.166 E15.09472
G1 X127.308 Y93.712 E15.12918
G1 X127.737 Y94.306 E15.16574
G1 X128.133 Y94.897 E15.20123
G1 X128.477 Y95.45 E15.23372
G1 X128.812 Y96.03 E15.26714
G1 X129.131 Y96.626 E15.30086
G1 X129.433 Y97.238 E15.33491
G1 X129.706 Y97.841 E15.36793
G1 X129.973 Y98.489 E15.4029
G1 X130.217 Y99.143 E15.43773
G1 X130.429 Y99.771 E15.47079
G1 X130.611 Y100.375 E15.50227
G1 X130.78 Y101.008 E15.53495
G1 X130.922 Y101.617 E15.56615
G1 X131.053 Y102.278 E15.59977
G1 X131.159 Y102.92 E15.63223
G1 X131.244 Y103.553 E15.6641
G1 X131.31 Y104.2 E15.69654
G1 X131.339 Y104.536 E15.71337
G1 X131.353 Y104.739 E15.72352
G1 X131.368 Y105.012 E15.73716
