;FLAVOR:Marlin
;TIME:3097
;Filament used: 0.8756m
;Layer height: 0.2
;MINX:91.514
;MINY:84.933
;MINZ:0.2
;MAXX:134.076
;MAXY:129.138
;MAXZ:72.4
;Generated with Cura_SteamEngine 4.13.1
M140 S60
M105
M190 S60
M104 S200
M105
M109 S200
M82 ;absolute extrusion mode
; Ender 3 Custom Start G-code
G92 E0 ; Reset Extruder
G28 ; Home all axes
G1 Z2.0 F3000 ; Move Z Axis up little to prevent scratching of Heat Bed
G1 X0.1 Y20 Z0.3 F5000.0 ; Move to start position
G1 X0.1 Y200.0 Z0.3 F1500.0 E15 ; Draw the first line
G1 X0.4 Y200.0 Z0.3 F5000.0 ; Move to side a little
G1 X0.4 Y20 Z0.3 F1500.0 E30 ; Draw the second line
G92 E0 ; Reset Extruder
G1 Z2.0 F3000 ; Move Z Axis up little to prevent scratching of Heat Bed
G1 X5 Y20 Z0.3 F5000.0 ; Move over to prevent blob squish
G92 E0
G92 E0
G1 F1500 E-6.5
;LAYER_COUNT:450
;LAYER:0
M107
G0 F6000 X97.668 Y91.687 Z0.2
;TYPE:SKIRT
G1 F1500 E0
G1 F1200 X98.135 Y91.196 E0.03381
G1 X98.55 Y90.782 E0.06305
G1 X98.728 Y90.613 E0.0753
G1 X99.13 Y90.249 E0.10235
G1 X99.65 Y89.8 E0.13663
G1 X100.187 Y89.364 E0.17114
G1 X100.445 Y89.167 E0.18733
G1 X100.853 Y88.869 E0.21254
G1 X101.393 Y88.493 E0.24537
G1 X101.972 Y88.116 E0.27984
G1 X102.239 Y87.953 E0.29545
G1 X102.651 Y87.713 E0.31923
G1 X103.224 Y87.395 E0.35193
G1 X103.829 Y87.082 E0.38591
G1 X104.077 Y86.963 E0.39963
G1 X104.474 Y86.782 E0.4214
G1 X104.898 Y86.598 E0.44446
G1 X105.598 Y86.321 E0.48202
G1 X106.43 Y86.023 E0.52611
G1 X106.936 Y85.854 E0.55273
G1 X107.011 Y85.831 E0.55664
G1 X107.569 Y85.676 E0.58553
G1 X108.318 Y85.487 E0.62407
G1 X108.711 Y85.394 E0.64422
G1 X109.508 Y85.243 E0.68469
G1 X110.286 Y85.124 E0.72396
G1 X110.659 Y85.073 E0.74274
G1 X110.868 Y85.048 E0.75324
G1 X111.566 Y84.986 E0.7882
G1 X112.133 Y84.953 E0.81654
G1 X112.477 Y84.939 E0.83371
G1 X112.69 Y84.933 E0.84434
G1 X113.392 Y84.934 E0.87937
G1 X114.031 Y84.955 E0.91126
G1 X114.389 Y84.973 E0.92915
G1 X114.623 Y84.988 E0.94084
G1 X115.312 Y85.053 E0.97537
G1 X116.073 Y85.148 E1.01363
G1 X116.496 Y85.208 E1.03495
G1 X116.582 Y85.222 E1.03929
G1 X117.256 Y85.353 E1.07355
G1 X118.088 Y85.54 E1.11609
G1 X118.511 Y85.644 E1.13783
G1 X118.745 Y85.706 E1.1499
G1 X119.283 Y85.862 E1.17785
G1 X119.604 Y85.964 E1.19465
G1 X120.11 Y86.138 E1.22135
G1 X120.686 Y86.351 E1.25199
G1 X121.331 Y86.612 E1.2867
G1 X121.624 Y86.741 E1.30267
G1 X122.032 Y86.93 E1.32511
G1 X122.606 Y87.21 E1.35697
G1 X123.196 Y87.52 E1.39022
G1 X123.447 Y87.661 E1.40458
G1 X123.863 Y87.906 E1.42867
G1 X124.442 Y88.264 E1.46263
G1 X125.039 Y88.659 E1.49834
G1 X125.289 Y88.836 E1.51363
G1 X125.659 Y89.109 E1.53657
G1 X126.176 Y89.507 E1.56912
G1 X126.744 Y89.974 E1.6058
G1 X126.996 Y90.195 E1.62253
G1 X127.324 Y90.494 E1.64467
G1 X127.783 Y90.929 E1.67622
G1 X128.198 Y91.344 E1.7055
G1 X128.359 Y91.513 E1.71714
G1 X128.629 Y91.806 E1.73702
G1 X128.829 Y92.032 E1.75208
G1 X129.238 Y92.509 E1.78343
G1 X129.64 Y93.005 E1.81528
G1 X129.826 Y93.248 E1.83055
G1 X130.126 Y93.658 E1.85589
G1 X130.509 Y94.207 E1.88929
G1 X130.896 Y94.801 E1.92466
G1 X131.06 Y95.07 E1.94038
G1 X131.287 Y95.459 E1.96285
G1 X131.599 Y96.019 E1.99483
G1 X131.91 Y96.618 E2.0285
G1 X132.035 Y96.877 E2.04285
G1 X132.249 Y97.348 E2.06866
G1 X132.44 Y97.794 E2.09286
G1 X132.689 Y98.425 E2.12671
G1 X132.972 Y99.211 E2.16838
G1 X133.117 Y99.638 E2.19088
G1 X133.324 Y100.361 E2.2284
G1 X133.531 Y101.183 E2.27069
G1 X133.631 Y101.612 E2.29267
G1 X133.769 Y102.353 E2.33027
G1 X133.885 Y103.11 E2.36848
G1 X133.94 Y103.518 E2.38902
G1 X133.963 Y103.715 E2.39892
G1 X134.022 Y104.381 E2.43227
G1 X134.056 Y104.965 E2.46146
G1 X134.07 Y105.301 E2.47823
G1 X134.076 Y105.509 E2.48862
G1 X134.075 Y106.197 E2.52294
G1 X134.055 Y106.843 E2.55519
G1 X134.035 Y107.256 E2.57581
G1 X134.022 Y107.45 E2.58551
G1 X133.959 Y108.106 E2.61839
G1 X133.858 Y108.915 E2.65907
G1 X133.797 Y109.341 E2.68054
G1 X133.782 Y109.433 E2.68519
G1 X133.652 Y110.104 E2.71929
G1 X133.474 Y110.896 E2.75979
G1 X133.37 Y111.32 E2.78157
G1 X133.304 Y111.569 E2.79442
G1 X133.144 Y112.117 E2.8229
G1 X133.041 Y112.44 E2.83981
G1 X132.873 Y112.93 E2.86566
G1 X132.661 Y113.504 E2.89618
G1 X132.396 Y114.157 E2.93134
G1 X132.266 Y114.452 E2.94743
G1 X132.079 Y114.857 E2.96968
G1 X131.799 Y115.431 E3.00154
G1 X131.469 Y116.058 E3.03689
G1 X131.303 Y116.351 E3.05369
G1 X131.077 Y116.733 E3.07584
G1 X130.746 Y117.268 E3.10722
G1 X130.324 Y117.901 E3.14518
G1 X130.134 Y118.167 E3.16149
G1 X129.891 Y118.496 E3.18189
G1 X129.504 Y118.999 E3.21356
G1 X129.035 Y119.569 E3.25038
G1 X128.814 Y119.821 E3.2671
G1 X128.523 Y120.14 E3.28865
G1 X128.087 Y120.601 E3.3203
G1 X127.624 Y121.064 E3.35297
G1 X127.447 Y121.231 E3.36511
G1 X127.189 Y121.467 E3.38256
G1 X126.966 Y121.664 E3.3974
G1 X126.491 Y122.071 E3.42861
G1 X126.001 Y122.468 E3.46007
G1 X125.766 Y122.648 E3.47484
G1 X125.344 Y122.956 E3.5009
G1 X124.791 Y123.341 E3.53452
G1 X124.224 Y123.711 E3.5683
G1 X123.961 Y123.872 E3.58368
G1 X123.556 Y124.109 E3.60709
G1 X122.998 Y124.42 E3.63896
G1 X122.386 Y124.738 E3.67337
G1 X122.12 Y124.866 E3.6881
G1 X121.689 Y125.062 E3.71172
G1 X121.244 Y125.254 E3.7359
G1 X120.572 Y125.519 E3.77194
G1 X119.786 Y125.801 E3.8136
G1 X119.315 Y125.959 E3.83839
G1 X119.241 Y125.982 E3.84225
G1 X118.65 Y126.148 E3.87288
G1 X117.852 Y126.35 E3.91395
G1 X117.401 Y126.455 E3.93705
G1 X116.645 Y126.596 E3.97542
G1 X115.895 Y126.71 E4.01326
G1 X115.548 Y126.758 E4.03074
G1 X115.333 Y126.784 E4.04155
G1 X114.632 Y126.847 E4.07666
G1 X114.075 Y126.88 E4.1045
G1 X113.696 Y126.896 E4.12342
G1 X113.467 Y126.902 E4.13485
G1 X112.793 Y126.9 E4.16848
G1 X112.146 Y126.879 E4.20077
G1 X111.798 Y126.862 E4.21816
G1 X111.607 Y126.85 E4.2277
G1 X110.903 Y126.784 E4.26298
G1 X110.094 Y126.683 E4.30365
G1 X109.668 Y126.622 E4.32512
G1 X109.576 Y126.607 E4.32978
G1 X108.905 Y126.477 E4.36387
G1 X108.113 Y126.299 E4.40437
G1 X107.669 Y126.19 E4.42718
G1 X107.418 Y126.123 E4.44014
G1 X106.904 Y125.973 E4.46686
G1 X106.589 Y125.873 E4.48334
G1 X106.079 Y125.697 E4.51026
G1 X105.506 Y125.485 E4.54074
G1 X104.885 Y125.235 E4.57414
G1 X104.572 Y125.098 E4.59119
G1 X104.141 Y124.899 E4.61487
G1 X103.567 Y124.619 E4.64673
G1 X102.993 Y124.318 E4.67907
G1 X102.775 Y124.196 E4.69153
G1 X102.34 Y123.94 E4.71671
G1 X101.755 Y123.578 E4.75103
G1 X101.174 Y123.194 E4.78578
G1 X100.902 Y123.002 E4.80239
G1 X100.519 Y122.72 E4.82612
G1 X100.002 Y122.322 E4.85867
G1 X99.49 Y121.904 E4.89164
G1 X99.289 Y121.73 E4.90491
G1 X98.932 Y121.407 E4.92893
G1 X98.434 Y120.938 E4.96306
G1 X97.916 Y120.418 E4.99967
G1 X97.716 Y120.204 E5.01429
G1 X97.721 Y120.199 E5.01464
G1 X97.376 Y119.827 E5.03995
G1 X96.94 Y119.319 E5.07335
G1 X96.498 Y118.77 E5.10851
G1 X96.308 Y118.519 E5.12422
G1 X96.038 Y118.148 E5.14711
G1 X95.667 Y117.615 E5.17951
G1 X95.277 Y117.015 E5.21521
G1 X95.113 Y116.745 E5.23097
G1 X94.894 Y116.369 E5.25268
G1 X94.58 Y115.805 E5.28489
G1 X94.269 Y115.206 E5.31856
G1 X94.147 Y114.953 E5.33257
G1 X93.947 Y114.515 E5.35659
G1 X93.761 Y114.084 E5.38001
G1 X93.494 Y113.406 E5.41637
G1 X93.198 Y112.58 E5.46014
G1 X93.029 Y112.073 E5.48681
G1 X93.006 Y111.998 E5.49072
G1 X92.851 Y111.44 E5.51961
G1 X92.662 Y110.691 E5.55815
G1 X92.572 Y110.31 E5.57768
G1 X92.42 Y109.507 E5.61846
G1 X92.296 Y108.695 E5.65944
G1 X92.247 Y108.339 E5.67737
G1 X92.225 Y108.157 E5.68651
G1 X92.162 Y107.457 E5.72158
G1 X92.129 Y106.9 E5.74941
G1 X92.113 Y106.527 E5.76804
G1 X92.107 Y106.302 E5.77927
G1 X92.109 Y105.619 E5.81334
G1 X92.13 Y104.977 E5.84539
G1 X92.148 Y104.608 E5.86382
G1 X92.163 Y104.377 E5.87537
G1 X92.228 Y103.697 E5.90945
G1 X92.323 Y102.936 E5.94771
G1 X92.383 Y102.513 E5.96903
G1 X92.397 Y102.427 E5.97337
G1 X92.528 Y101.753 E6.00763
G1 X92.715 Y100.921 E6.05017
G1 X92.813 Y100.519 E6.07082
G1 X92.874 Y100.287 E6.08278
G1 X93.039 Y99.72 E6.11225
G1 X93.14 Y99.403 E6.12884
G1 X93.31 Y98.908 E6.15496
G1 X93.521 Y98.337 E6.18533
G1 X93.783 Y97.689 E6.2202
G1 X93.923 Y97.371 E6.23753
G1 X94.119 Y96.949 E6.26075
G1 X94.399 Y96.377 E6.29252
G1 X94.694 Y95.815 E6.32418
G1 X94.839 Y95.556 E6.33899
G1 X95.104 Y95.106 E6.36505
G1 X95.45 Y94.549 E6.39776
G1 X95.833 Y93.973 E6.43227
G1 X96.022 Y93.706 E6.44859
G1 X96.3 Y93.329 E6.47196
G1 X96.687 Y92.827 E6.50358
G1 X97.096 Y92.326 E6.53585
G1 X97.294 Y92.097 E6.55095
G1 X97.674 Y91.693 E6.57862
G1 X97.668 Y91.687 E6.57905
G0 F6000 X98.103 Y92.101
G1 F1200 X98.57 Y91.61 E6.61285
G1 X98.963 Y91.217 E6.64058
G1 X99.141 Y91.048 E6.65283
G1 X99.522 Y90.703 E6.67847
G1 X100.042 Y90.254 E6.71275
G1 X100.551 Y89.841 E6.74545
G1 X100.809 Y89.644 E6.76164
G1 X101.196 Y89.362 E6.78553
G1 X101.736 Y88.986 E6.81836
G1 X102.284 Y88.628 E6.85102
G1 X102.551 Y88.465 E6.86662
G1 X102.942 Y88.237 E6.88921
G1 X103.515 Y87.919 E6.9219
G1 X104.089 Y87.623 E6.95412
G1 X104.337 Y87.504 E6.96784
G1 X104.713 Y87.332 E6.98847
G1 X105.137 Y87.148 E7.01153
G1 X105.801 Y86.885 E7.04716
G1 X106.633 Y86.587 E7.09125
G1 X107.112 Y86.428 E7.11643
G1 X107.187 Y86.405 E7.12035
G1 X107.716 Y86.257 E7.14775
G1 X108.465 Y86.068 E7.18629
G1 X108.843 Y85.979 E7.20567
G1 X109.599 Y85.836 E7.24405
G1 X110.377 Y85.717 E7.28332
G1 X110.73 Y85.669 E7.30109
G1 X110.939 Y85.644 E7.31159
G1 X111.601 Y85.585 E7.34475
G1 X112.168 Y85.552 E7.37309
G1 X112.494 Y85.538 E7.38937
G1 X112.707 Y85.532 E7.4
G1 X113.372 Y85.534 E7.43317
G1 X114.011 Y85.555 E7.46507
G1 X114.35 Y85.571 E7.482
G1 X114.584 Y85.586 E7.4937
G1 X115.237 Y85.648 E7.52642
G1 X115.998 Y85.743 E7.56469
G1 X116.485 Y85.815 E7.58925
G1 X117.124 Y85.938 E7.62171
G1 X117.956 Y86.125 E7.66426
G1 X118.358 Y86.224 E7.68491
G1 X118.592 Y86.286 E7.69699
G1 X119.101 Y86.434 E7.72343
G1 X119.422 Y86.536 E7.74024
G1 X119.902 Y86.701 E7.76556
G1 X120.478 Y86.914 E7.7962
G1 X121.089 Y87.161 E7.82908
G1 X121.382 Y87.29 E7.84505
G1 X121.769 Y87.469 E7.86632
G1 X122.343 Y87.749 E7.89819
G1 X122.902 Y88.043 E7.9297
G1 X123.153 Y88.184 E7.94406
G1 X123.547 Y88.416 E7.96687
G1 X124.126 Y88.774 E8.00083
G1 X124.692 Y89.149 E8.03471
G1 X124.942 Y89.326 E8.04999
G1 X125.293 Y89.585 E8.07175
G1 X125.81 Y89.983 E8.1043
G1 X126.348 Y90.425 E8.13904
G1 X126.6 Y90.646 E8.15576
G1 X126.911 Y90.929 E8.17674
G1 X127.37 Y91.364 E8.20829
G1 X127.764 Y91.758 E8.23609
G1 X127.925 Y91.927 E8.24773
G1 X128.184 Y92.208 E8.2668
G1 X128.374 Y92.423 E8.28111
G1 X128.783 Y92.9 E8.31246
G1 X129.163 Y93.37 E8.34262
G1 X129.349 Y93.613 E8.35788
G1 X129.634 Y94.001 E8.3819
G1 X130.017 Y94.55 E8.4153
G1 X130.384 Y95.113 E8.44883
G1 X130.548 Y95.382 E8.46454
G1 X130.763 Y95.751 E8.48585
G1 X131.075 Y96.311 E8.51783
G1 X131.37 Y96.878 E8.54972
G1 X131.495 Y97.137 E8.56407
G1 X131.698 Y97.584 E8.58856
G1 X131.889 Y98.03 E8.61277
G1 X132.125 Y98.628 E8.64484
G1 X132.408 Y99.414 E8.68652
G1 X132.546 Y99.823 E8.70805
G1 X132.742 Y100.507 E8.74355
G1 X132.949 Y101.329 E8.78584
G1 X133.045 Y101.741 E8.80695
G1 X133.176 Y102.444 E8.84262
G1 X133.292 Y103.201 E8.88083
G1 X133.344 Y103.588 E8.90031
G1 X133.367 Y103.785 E8.91021
G1 X133.423 Y104.415 E8.94176
G1 X133.457 Y104.999 E8.97095
G1 X133.47 Y105.319 E8.98693
G1 X133.476 Y105.527 E8.99731
G1 X133.476 Y106.178 E9.02979
G1 X133.456 Y106.824 E9.06203
G1 X133.437 Y107.216 E9.08161
G1 X133.424 Y107.41 E9.09131
G1 X133.364 Y108.031 E9.12244
G1 X133.263 Y108.84 E9.16311
G1 X133.205 Y109.244 E9.18347
G1 X133.19 Y109.336 E9.18812
G1 X133.067 Y109.972 E9.22044
G1 X132.889 Y110.764 E9.26094
G1 X132.79 Y111.167 E9.28164
G1 X132.724 Y111.416 E9.2945
G1 X132.573 Y111.935 E9.32146
G1 X132.47 Y112.258 E9.33838
G1 X132.31 Y112.722 E9.36286
G1 X132.098 Y113.296 E9.39339
G1 X131.847 Y113.916 E9.42676
G1 X131.717 Y114.211 E9.44284
G1 X131.54 Y114.594 E9.46389
G1 X131.26 Y115.168 E9.49576
G1 X130.947 Y115.762 E9.52925
G1 X130.781 Y116.055 E9.54605
G1 X130.566 Y116.417 E9.56706
G1 X130.235 Y116.952 E9.59845
G1 X129.836 Y117.552 E9.6344
G1 X129.646 Y117.818 E9.6507
G1 X129.415 Y118.13 E9.67007
G1 X129.028 Y118.633 E9.70173
G1 X128.584 Y119.173 E9.73661
G1 X128.363 Y119.425 E9.75333
G1 X128.087 Y119.728 E9.77378
G1 X127.651 Y120.189 E9.80544
G1 X127.212 Y120.627 E9.83638
G1 X126.859 Y120.957 E9.86049
G1 X126.575 Y121.208 E9.8794
G1 X126.1 Y121.615 E9.9106
G1 X125.636 Y121.991 E9.9404
G1 X125.401 Y122.171 E9.95517
G1 X125.001 Y122.464 E9.9799
G1 X124.448 Y122.849 E10.01352
G1 X123.911 Y123.199 E10.0455
G1 X123.648 Y123.36 E10.06088
G1 X123.264 Y123.585 E10.08309
G1 X122.706 Y123.896 E10.11496
G1 X122.125 Y124.197 E10.1476
G1 X121.859 Y124.325 E10.16233
G1 X121.451 Y124.511 E10.1847
G1 X121.006 Y124.703 E10.20888
G1 X120.369 Y124.955 E10.24306
G1 X119.583 Y125.237 E10.28472
G1 X119.063 Y125.409 E10.31204
G1 X118.503 Y125.567 E10.34107
G1 X117.705 Y125.769 E10.38214
G1 X117.272 Y125.87 E10.40432
G1 X116.555 Y126.003 E10.44071
G1 X115.805 Y126.117 E10.47855
G1 X115.476 Y126.162 E10.49512
G1 X115.261 Y126.188 E10.50592
G1 X114.597 Y126.248 E10.53919
G1 X114.04 Y126.281 E10.56702
G1 X113.68 Y126.296 E10.585
G1 X113.451 Y126.302 E10.59643
G1 X112.812 Y126.3 E10.62831
G1 X112.165 Y126.279 E10.66061
G1 X111.836 Y126.264 E10.67704
G1 X111.645 Y126.252 E10.68658
G1 X110.978 Y126.189 E10.72001
G1 X110.169 Y126.088 E10.76068
G1 X109.765 Y126.03 E10.78105
G1 X109.673 Y126.015 E10.7857
G1 X109.037 Y125.892 E10.81801
G1 X108.245 Y125.714 E10.85851
G1 X107.824 Y125.61 E10.88015
G1 X107.573 Y125.543 E10.89311
G1 X107.086 Y125.401 E10.91842
G1 X106.771 Y125.301 E10.93491
G1 X106.287 Y125.135 E10.96043
G1 X105.714 Y124.923 E10.99091
G1 X105.125 Y124.685 E11.02261
G1 X104.812 Y124.548 E11.03965
G1 X104.404 Y124.36 E11.06207
G1 X103.83 Y124.08 E11.09393
G1 X103.286 Y123.795 E11.12457
G1 X103.068 Y123.673 E11.13703
G1 X102.655 Y123.43 E11.16094
G1 X102.07 Y123.068 E11.19526
G1 X101.52 Y122.704 E11.22816
G1 X101.248 Y122.512 E11.24477
G1 X100.885 Y122.244 E11.26729
G1 X100.368 Y121.846 E11.29984
G1 X99.883 Y121.45 E11.33107
G1 X99.682 Y121.276 E11.34434
G1 X99.343 Y120.97 E11.36712
G1 X98.845 Y120.501 E11.40125
G1 X98.354 Y120.009 E11.43593
G1 X98.154 Y119.795 E11.45054
G1 X98.16 Y119.789 E11.45097
G1 X97.832 Y119.436 E11.47501
G1 X97.396 Y118.928 E11.5084
G1 X96.976 Y118.408 E11.54175
G1 X96.786 Y118.157 E11.55746
G1 X96.531 Y117.805 E11.57914
G1 X96.16 Y117.272 E11.61154
G1 X95.79 Y116.704 E11.64536
G1 X95.626 Y116.434 E11.66112
G1 X95.418 Y116.077 E11.68174
G1 X95.104 Y115.513 E11.71394
G1 X94.81 Y114.945 E11.74585
G1 X94.688 Y114.692 E11.75986
G1 X94.498 Y114.277 E11.78263
G1 X94.312 Y113.846 E11.80605
G1 X94.059 Y113.204 E11.84048
G1 X93.763 Y112.378 E11.88426
G1 X93.603 Y111.897 E11.90955
G1 X93.58 Y111.822 E11.91346
G1 X93.432 Y111.293 E11.94086
G1 X93.243 Y110.544 E11.9794
G1 X93.157 Y110.178 E11.99816
G1 X93.013 Y109.416 E12.03685
G1 X92.889 Y108.604 E12.07783
G1 X92.843 Y108.267 E12.0948
G1 X92.821 Y108.085 E12.10395
G1 X92.761 Y107.422 E12.13716
G1 X92.728 Y106.865 E12.165
G1 X92.713 Y106.511 E12.18267
G1 X92.707 Y106.286 E12.1939
G1 X92.709 Y105.639 E12.22618
G1 X92.73 Y104.997 E12.25823
G1 X92.747 Y104.647 E12.27571
G1 X92.762 Y104.416 E12.28726
G1 X92.823 Y103.772 E12.31953
G1 X92.918 Y103.011 E12.35779
G1 X92.99 Y102.524 E12.38235
G1 X93.113 Y101.885 E12.41482
G1 X93.3 Y101.053 E12.45736
G1 X93.393 Y100.671 E12.47698
G1 X93.454 Y100.439 E12.48895
G1 X93.61 Y99.902 E12.51684
G1 X93.711 Y99.585 E12.53344
G1 X93.873 Y99.116 E12.5582
G1 X94.084 Y98.545 E12.58857
G1 X94.332 Y97.931 E12.6216
G1 X94.472 Y97.613 E12.63894
G1 X94.658 Y97.213 E12.66095
G1 X94.938 Y96.641 E12.69272
G1 X95.217 Y96.108 E12.72273
G1 X95.362 Y95.849 E12.73754
G1 X95.614 Y95.422 E12.76228
