;FLAVOR:Marlin
;TIME:1380
;Filament used: 1.04384m
;Layer height: 0.2
;MINX:75.955
;MINY:75.617
;MINZ:0.2
;MAXX:141.058
;MAXY:146.821
;MAXZ:6
;Generated with Cura_SteamEngine 4.13.1
M140 S60
M105
M190 S60
M104 S200
M105
M109 S200
M82 ;absolute extrusion mode
; Ender 3 Custom Start G-code
G92 E0 ; Reset Extruder
G28 ; Home all axes
G1 Z2.0 F3000 ; Move Z Axis up little to prevent scratching of Heat Bed
G1 X0.1 Y20 Z0.3 F5000.0 ; Move to start position
G1 X0.1 Y200.0 Z0.3 F1500.0 E15 ; Draw the first line
G1 X0.4 Y200.0 Z0.3 F5000.0 ; Move to side a little
G1 X0.4 Y20 Z0.3 F1500.0 E30 ; Draw the second line
G92 E0 ; Reset Extruder
G1 Z2.0 F3000 ; Move Z Axis up little to prevent scratching of Heat Bed
G1 X5 Y20 Z0.3 F5000.0 ; Move over to prevent blob squish
G92 E0
G92 E0
G1 F1500 E-6.5
;LAYER_COUNT:30
;LAYER:0
M107
G0 F6000 X85.954 Y92.282 Z0.2
;TYPE:SKIRT
G1 F1500 E0
G1 F1200 X86.155 Y92.112 E0.01313
G1 X86.732 Y91.655 E0.04986
G1 X87.336 Y91.208 E0.08734
G1 X88.317 Y90.503 E0.14761
G1 X90.283 Y89.003 E0.27099
G1 X92.23 Y87.429 E0.39589
G1 X94.113 Y85.816 E0.51959
G1 X96.002 Y84.102 E0.64685
G1 X97.796 Y82.382 E0.77084
G1 X99.56 Y80.591 E0.89626
G1 X100.468 Y79.645 E0.96168
G1 X101.326 Y78.838 E1.02044
G1 X101.464 Y78.721 E1.02947
G1 X102.221 Y78.132 E1.07732
G1 X102.721 Y77.795 E1.1074
G1 X103.016 Y77.607 E1.12485
G1 X103.845 Y77.126 E1.17267
G1 X104.718 Y76.713 E1.22085
G1 X104.938 Y76.62 E1.23277
G1 X105.836 Y76.283 E1.28062
G1 X106.719 Y76.033 E1.32641
G1 X107.005 Y75.964 E1.34108
G1 X108.368 Y75.721 E1.41016
G1 X108.582 Y75.696 E1.4209
G1 X109.837 Y75.618 E1.48364
G1 X109.983 Y75.617 E1.49092
G1 X111.378 Y75.693 E1.56062
G1 X111.621 Y75.721 E1.57283
G1 X112.742 Y75.906 E1.62951
G1 X112.825 Y75.924 E1.63375
G1 X113.624 Y76.128 E1.67489
G1 X113.832 Y76.189 E1.6857
G1 X114.74 Y76.497 E1.73354
G1 X115.349 Y76.752 E1.76648
G1 X115.631 Y76.88 E1.78193
G1 X116.487 Y77.313 E1.82979
G1 X116.959 Y77.591 E1.85711
G1 X117.081 Y77.667 E1.86429
G1 X117.671 Y78.06 E1.89965
G1 X120.139 Y79.818 E2.05083
G1 X122.236 Y81.222 E2.17673
G1 X124.329 Y82.54 E2.30013
G1 X126.478 Y83.809 E2.42464
G1 X128.668 Y85.021 E2.54952
G1 X130.904 Y86.177 E2.6751
G1 X132.877 Y87.13 E2.78441
G1 X133.654 Y87.543 E2.82831
G1 X133.876 Y87.672 E2.84112
G1 X134.684 Y88.188 E2.88895
G1 X135.396 Y88.727 E2.9335
G1 X135.519 Y88.828 E2.94144
G1 X136.234 Y89.467 E2.98929
G1 X136.893 Y90.164 E3.03714
G1 X137.674 Y91.167 E3.10056
G1 X137.798 Y91.346 E3.11143
G1 X138.311 Y92.157 E3.1593
G1 X138.92 Y93.377 E3.22733
G1 X139.011 Y93.59 E3.23889
G1 X139.351 Y94.487 E3.28674
G1 X139.615 Y95.409 E3.33459
G1 X139.85 Y96.702 E3.40016
G1 X139.867 Y96.84 E3.40709
G1 X139.944 Y97.796 E3.45494
G1 X139.946 Y98.65 E3.49755
G1 X139.933 Y99.02 E3.51602
G1 X139.884 Y99.745 E3.55227
G1 X139.818 Y100.404 E3.58531
G1 X139.691 Y101.495 E3.64011
G1 X139.474 Y103.942 E3.76267
G1 X139.323 Y106.486 E3.88982
G1 X139.247 Y108.946 E4.01261
G1 X139.238 Y111.478 E4.13893
G1 X139.301 Y113.944 E4.262
G1 X139.437 Y116.49 E4.3892
G1 X139.641 Y118.959 E4.5128
G1 X139.916 Y121.451 E4.63788
G1 X140.261 Y123.93 E4.76275
G1 X140.637 Y126.186 E4.87685
G1 X140.821 Y127.215 E4.929
G1 X140.904 Y127.754 E4.95621
G1 X140.913 Y127.823 E4.95968
G1 X140.98 Y128.48 E4.99263
G1 X141.028 Y129.143 E5.0258
G1 X141.058 Y130.052 E5.07117
G1 X141.057 Y130.197 E5.0784
G1 X141.039 Y130.766 E5.10681
G1 X141.022 Y131.067 E5.12185
G1 X140.939 Y131.943 E5.16575
G1 X140.872 Y132.444 E5.19096
G1 X140.802 Y132.896 E5.21378
G1 X140.757 Y133.154 E5.22685
G1 X140.548 Y134.109 E5.27562
G1 X140.402 Y134.663 E5.30421
G1 X140.144 Y135.51 E5.34838
G1 X140.12 Y135.579 E5.35202
G1 X139.909 Y136.137 E5.38179
G1 X139.668 Y136.729 E5.41367
G1 X139.24 Y137.66 E5.4648
G1 X139.189 Y137.759 E5.47035
G1 X138.859 Y138.355 E5.50434
G1 X138.619 Y138.76 E5.52783
G1 X138.053 Y139.624 E5.57936
G1 X137.758 Y140.033 E5.60452
G1 X137.113 Y140.848 E5.65637
G1 X136.822 Y141.183 E5.67851
G1 X136.146 Y141.897 E5.72756
G1 X135.749 Y142.282 E5.75515
G1 X135.008 Y142.94 E5.80459
G1 X134.635 Y143.244 E5.8286
G1 X133.899 Y143.797 E5.87453
G1 X133.812 Y143.857 E5.8798
G1 X133.394 Y144.132 E5.90476
G1 X132.911 Y144.435 E5.93321
G1 X132.413 Y144.73 E5.96209
G1 X131.528 Y145.181 E6.01164
G1 X131.162 Y145.348 E6.03171
G1 X130.747 Y145.528 E6.05428
G1 X130.454 Y145.648 E6.07008
G1 X130.004 Y145.821 E6.09413
G1 X129.802 Y145.894 E6.10485
G1 X128.848 Y146.193 E6.15472
G1 X128.28 Y146.344 E6.18405
G1 X127.343 Y146.551 E6.23192
G1 X126.769 Y146.639 E6.26089
G1 X126.137 Y146.719 E6.29267
G1 X124.973 Y146.807 E6.35091
G1 X124.48 Y146.819 E6.37552
G1 X124.053 Y146.821 E6.39682
G1 X123.818 Y146.818 E6.40854
G1 X123.226 Y146.795 E6.4381
G1 X122.993 Y146.78 E6.44975
G1 X122.312 Y146.716 E6.48387
G1 X121.758 Y146.636 E6.5118
G1 X121.051 Y146.516 E6.54758
G1 X120.63 Y146.436 E6.56896
G1 X120.306 Y146.367 E6.58548
G1 X119.768 Y146.244 E6.61302
G1 X118.716 Y145.997 E6.66693
G1 X116.211 Y145.478 E6.79456
G1 X113.739 Y145.041 E6.9198
G1 X111.32 Y144.682 E7.04181
G1 X108.797 Y144.381 E7.16857
G1 X106.317 Y144.155 E7.29281
G1 X103.794 Y143.998 E7.41893
G1 X101.326 Y143.913 E7.54213
G1 X98.8 Y143.898 E7.66815
G1 X96.309 Y143.954 E7.79246
G1 X95.097 Y144.013 E7.853
G1 X94.29 Y144.041 E7.89329
G1 X93.6 Y144.044 E7.92771
G1 X93.363 Y144.038 E7.93954
G1 X92.933 Y144.02 E7.96101
G1 X92.266 Y143.967 E7.99439
G1 X92.01 Y143.939 E8.00724
G1 X91.418 Y143.859 E8.03704
G1 X91.153 Y143.816 E8.05044
G1 X90.446 Y143.678 E8.08638
G1 X90.204 Y143.623 E8.09876
G1 X89.731 Y143.505 E8.12308
G1 X89.286 Y143.378 E8.14617
G1 X89.048 Y143.305 E8.15859
G1 X88.63 Y143.169 E8.18052
G1 X88.071 Y142.965 E8.2102
G1 X87.848 Y142.877 E8.22216
G1 X87.373 Y142.677 E8.24788
G1 X87.145 Y142.575 E8.26034
G1 X86.564 Y142.296 E8.29249
G1 X86.169 Y142.092 E8.31467
G1 X85.628 Y141.794 E8.34549
G1 X85.42 Y141.672 E8.35752
G1 X85.093 Y141.472 E8.37664
G1 X84.832 Y141.307 E8.39205
G1 X84.338 Y140.977 E8.42169
G1 X84.041 Y140.767 E8.43983
G1 X83.658 Y140.484 E8.46359
G1 X83.492 Y140.356 E8.47405
G1 X83.025 Y139.976 E8.50409
G1 X82.56 Y139.577 E8.53466
G1 X82.224 Y139.277 E8.55713
G1 X81.762 Y138.848 E8.58858
G1 X81.41 Y138.508 E8.613
G1 X81.116 Y138.205 E8.63406
G1 X80.898 Y137.973 E8.64994
G1 X80.591 Y137.632 E8.67283
G1 X80.271 Y137.263 E8.6972
G1 X79.971 Y136.903 E8.72058
G1 X79.536 Y136.358 E8.75537
G1 X78.984 Y135.606 E8.80191
G1 X78.778 Y135.3 E8.82031
G1 X78.47 Y134.816 E8.84894
G1 X78.347 Y134.612 E8.86082
G1 X78.171 Y134.31 E8.87826
G1 X78.04 Y134.077 E8.89159
G1 X77.762 Y133.551 E8.92128
G1 X77.637 Y133.299 E8.93531
G1 X77.307 Y132.572 E8.97514
G1 X77.058 Y131.968 E9.00774
G1 X76.751 Y131.133 E9.05212
G1 X76.637 Y130.769 E9.07115
G1 X76.567 Y130.532 E9.08348
G1 X76.439 Y130.063 E9.10773
G1 X76.318 Y129.542 E9.13442
G1 X76.262 Y129.273 E9.14813
G1 X76.139 Y128.575 E9.18349
G1 X76.104 Y128.333 E9.19569
G1 X76.035 Y127.752 E9.22488
G1 X76.007 Y127.451 E9.23996
G1 X75.964 Y126.749 E9.27505
G1 X75.958 Y126.559 E9.28453
G1 X75.955 Y125.93 E9.31591
G1 X75.96 Y125.714 E9.32669
G1 X75.977 Y125.305 E9.34711
G1 X75.986 Y125.152 E9.35476
G1 X76.032 Y124.6 E9.38239
G1 X76.057 Y124.367 E9.39409
G1 X76.137 Y123.766 E9.42433
G1 X76.18 Y123.499 E9.43783
G1 X76.306 Y122.842 E9.4712
G1 X76.362 Y122.589 E9.48413
G1 X76.464 Y122.166 E9.50584
G1 X76.487 Y122.078 E9.51038
G1 X76.636 Y121.558 E9.53736
G1 X76.71 Y121.321 E9.54975
G1 X76.805 Y121.03 E9.56502
G1 X76.982 Y120.512 E9.59233
G1 X77.811 Y118.144 E9.7175
G1 X78.561 Y115.795 E9.84052
G1 X79.256 Y113.382 E9.9658
G1 X79.881 Y110.959 E10.09064
G1 X80.451 Y108.464 E10.21833
G1 X80.92 Y106.088 E10.33915
G1 X81.345 Y103.571 E10.4665
G1 X81.694 Y101.09 E10.5915
G1 X81.829 Y100.027 E10.64496
G1 X81.954 Y99.251 E10.68417
G1 X82.009 Y98.972 E10.69836
G1 X82.234 Y98.039 E10.74624
G1 X82.535 Y97.129 E10.79406
G1 X82.911 Y96.247 E10.8419
G1 X83.36 Y95.399 E10.88977
G1 X83.701 Y94.85 E10.92201
G1 X83.789 Y94.717 E10.92997
G1 X84.351 Y93.94 E10.97781
G1 X84.976 Y93.213 E11.02564
G1 X85.954 Y92.282 E11.09301
G0 F6000 X86.341 Y92.741
G1 F1200 X86.542 Y92.571 E11.10614
G1 X87.089 Y92.137 E11.14098
G1 X87.557 Y91.79 E11.17004
G1 X88.644 Y91.008 E11.23685
G1 X90.636 Y89.488 E11.36186
G1 X92.63 Y87.876 E11.48978
G1 X94.519 Y86.258 E11.61387
G1 X96.396 Y84.556 E11.74028
G1 X98.214 Y82.811 E11.866
G1 X99.995 Y81.004 E11.99258
G1 X100.9 Y80.061 E12.05779
G1 X101.714 Y79.296 E12.11352
G1 X101.852 Y79.179 E12.12254
G1 X102.589 Y78.606 E12.16912
G1 X103.043 Y78.301 E12.1964
G1 X103.338 Y78.113 E12.21386
G1 X104.146 Y77.645 E12.26044
G1 X104.952 Y77.265 E12.3049
G1 X105.172 Y77.172 E12.31681
G1 X106.047 Y76.846 E12.3634
G1 X106.86 Y76.616 E12.40555
G1 X107.146 Y76.547 E12.42023
G1 X108.437 Y76.317 E12.48565
G1 X108.651 Y76.292 E12.4964
G1 X109.841 Y76.218 E12.55588
G1 X109.987 Y76.217 E12.56317
G1 X111.31 Y76.289 E12.62927
G1 X111.553 Y76.317 E12.64147
G1 X112.615 Y76.493 E12.69518
G1 X112.698 Y76.511 E12.69942
G1 X113.455 Y76.704 E12.73839
G1 X113.663 Y76.765 E12.74921
G1 X114.547 Y77.065 E12.79578
G1 X115.101 Y77.299 E12.82578
G1 X115.383 Y77.427 E12.84123
G1 X116.216 Y77.849 E12.88782
G1 X116.641 Y78.1 E12.91245
G1 X116.763 Y78.176 E12.91962
G1 X117.323 Y78.549 E12.95319
G1 X119.806 Y80.317 E13.10526
G1 X121.866 Y81.697 E13.22896
G1 X124.029 Y83.059 E13.35649
G1 X126.206 Y84.345 E13.48263
G1 X128.384 Y85.55 E13.60681
G1 X130.651 Y86.722 E13.73414
G1 X132.616 Y87.671 E13.843
G1 X133.352 Y88.062 E13.88458
G1 X133.574 Y88.191 E13.89739
G1 X134.361 Y88.694 E13.94399
G1 X135.015 Y89.191 E13.98497
G1 X135.138 Y89.292 E13.99291
G1 X135.834 Y89.915 E14.03951
G1 X136.473 Y90.595 E14.08607
G1 X137.181 Y91.509 E14.14375
G1 X137.305 Y91.688 E14.15461
G1 X137.803 Y92.478 E14.2012
G1 X138.369 Y93.613 E14.26448
G1 X138.46 Y93.826 E14.27603
G1 X138.789 Y94.699 E14.32258
G1 X139.043 Y95.598 E14.36919
G1 X139.254 Y96.775 E14.42884
G1 X139.271 Y96.913 E14.43578
G1 X139.346 Y97.844 E14.48238
G1 X139.346 Y98.629 E14.52154
G1 X139.333 Y98.999 E14.54001
G1 X139.287 Y99.686 E14.57436
G1 X139.222 Y100.335 E14.6069
G1 X139.096 Y101.412 E14.661
G1 X138.874 Y103.923 E14.78677
G1 X138.725 Y106.431 E14.91211
G1 X138.646 Y108.961 E15.03839
G1 X138.638 Y111.491 E15.16462
G1 X138.702 Y113.991 E15.28938
G1 X138.836 Y116.501 E15.41479
G1 X139.042 Y119.004 E15.54008
G1 X139.321 Y121.525 E15.66662
G1 X139.672 Y124.042 E15.79341
G1 X140.032 Y126.209 E15.90301
G1 X140.231 Y127.321 E15.95937
G1 X140.318 Y127.9 E15.98858
G1 X140.382 Y128.523 E16.01982
G1 X140.43 Y129.186 E16.05299
G1 X140.458 Y130.048 E16.09601
G1 X140.457 Y130.193 E16.10325
G1 X140.44 Y130.733 E16.1302
G1 X140.423 Y131.034 E16.14524
G1 X140.344 Y131.864 E16.18684
G1 X140.277 Y132.365 E16.21206
G1 X140.211 Y132.793 E16.23366
G1 X140.166 Y133.051 E16.24673
G1 X139.968 Y133.956 E16.29295
G1 X139.822 Y134.51 E16.32153
G1 X139.577 Y135.313 E16.36341
G1 X139.553 Y135.382 E16.36706
G1 X139.354 Y135.911 E16.39526
G1 X139.113 Y136.503 E16.42715
G1 X138.707 Y137.385 E16.47559
G1 X138.656 Y137.484 E16.48114
G1 X138.343 Y138.049 E16.51337
G1 X138.103 Y138.454 E16.53685
G1 X137.566 Y139.273 E16.58571
G1 X137.271 Y139.682 E16.61087
G1 X136.66 Y140.454 E16.65999
G1 X136.369 Y140.789 E16.68213
G1 X135.728 Y141.466 E16.72864
G1 X135.331 Y141.851 E16.75623
G1 X134.629 Y142.475 E16.80309
G1 X134.256 Y142.779 E16.8271
G1 X133.558 Y143.303 E16.87064
G1 X133.471 Y143.363 E16.87592
G1 X133.075 Y143.624 E16.89958
G1 X132.592 Y143.927 E16.92802
G1 X132.117 Y144.208 E16.95556
G1 X131.279 Y144.635 E17.00248
G1 X130.913 Y144.802 E17.02255
G1 X130.519 Y144.973 E17.04398
G1 X130.226 Y145.093 E17.05978
G1 X129.8 Y145.257 E17.08255
G1 X129.598 Y145.33 E17.09327
G1 X128.693 Y145.613 E17.14057
G1 X128.125 Y145.764 E17.16989
G1 X127.214 Y145.965 E17.21644
G1 X126.694 Y146.044 E17.24268
G1 X126.062 Y146.124 E17.27446
G1 X124.958 Y146.207 E17.32969
G1 X124.465 Y146.219 E17.3543
G1 X124.061 Y146.221 E17.37445
G1 X123.826 Y146.218 E17.38618
G1 X123.265 Y146.196 E17.41419
G1 X123.032 Y146.181 E17.42584
G1 X122.383 Y146.12 E17.45836
G1 X121.858 Y146.044 E17.48482
G1 X121.151 Y145.924 E17.5206
G1 X120.752 Y145.849 E17.54086
G1 X120.439 Y145.782 E17.55682
G1 X119.905 Y145.66 E17.58415
G1 X118.828 Y145.407 E17.63935
G1 X116.326 Y144.889 E17.76682
G1 X113.862 Y144.453 E17.89166
G1 X111.374 Y144.084 E18.01714
G1 X108.852 Y143.783 E18.14386
G1 X106.371 Y143.557 E18.26815
G1 X103.854 Y143.4 E18.39397
G1 X101.315 Y143.313 E18.52071
G1 X98.791 Y143.298 E18.64664
G1 X96.302 Y143.354 E18.77085
G1 X95.238 Y143.407 E18.82399
G1 X94.269 Y143.441 E18.87237
G1 X93.615 Y143.445 E18.905
G1 X93.378 Y143.439 E18.91682
G1 X92.964 Y143.421 E18.9375
G1 X92.331 Y143.37 E18.96918
G1 X92.075 Y143.342 E18.98203
G1 X91.514 Y143.266 E19.01027
G1 X91.249 Y143.223 E19.02367
G1 X90.579 Y143.093 E19.05772
G1 X90.337 Y143.038 E19.0701
G1 X89.884 Y142.925 E19.09339
G1 X89.462 Y142.805 E19.11528
G1 X89.224 Y142.732 E19.1277
G1 X88.821 Y142.601 E19.14884
G1 X88.291 Y142.407 E19.177
G1 X88.068 Y142.319 E19.18896
G1 X87.618 Y142.13 E19.21331
G1 X87.39 Y142.028 E19.22577
G1 X86.839 Y141.763 E19.25627
G1 X86.444 Y141.559 E19.27845
G1 X85.931 Y141.276 E19.30768
G1 X85.723 Y141.154 E19.31971
G1 X85.413 Y140.965 E19.33783
G1 X85.152 Y140.8 E19.35323
G1 X84.684 Y140.487 E19.38132
G1 X84.387 Y140.277 E19.39947
G1 X84.024 Y140.009 E19.42198
G1 X83.858 Y139.881 E19.43244
G1 X83.416 Y139.521 E19.46088
G1 X82.951 Y139.122 E19.49145
G1 X82.632 Y138.837 E19.51279
G1 X82.17 Y138.408 E19.54424
G1 X81.837 Y138.086 E19.56735
G1 X81.554 Y137.794 E19.58764
G1 X81.336 Y137.562 E19.60352
G1 X81.044 Y137.239 E19.62525
G1 X80.724 Y136.87 E19.64961
G1 X80.44 Y136.529 E19.67175
G1 X80.005 Y135.984 E19.70654
G1 X79.482 Y135.271 E19.75066
G1 X79.276 Y134.965 E19.76906
G1 X78.983 Y134.506 E19.79623
G1 X78.86 Y134.302 E19.80811
G1 X78.694 Y134.016 E19.82461
G1 X78.563 Y133.783 E19.83795
G1 X78.299 Y133.285 E19.86607
G1 X78.174 Y133.033 E19.8801
G1 X77.862 Y132.343 E19.91788
G1 X77.613 Y131.739 E19.95048
G1 X77.322 Y130.948 E19.99252
G1 X77.212 Y130.599 E20.01078
G1 X77.142 Y130.362 E20.02311
G1 X77.002 Y129.842 E20.04998
G1 X76.906 Y129.42 E20.07157
G1 X76.85 Y129.151 E20.08528
G1 X76.733 Y128.489 E20.11882
G1 X76.698 Y128.247 E20.13101
G1 X76.633 Y127.697 E20.15865
G1 X76.605 Y127.396 E20.17373
G1 X76.563 Y126.73 E20.20702
G1 X76.557 Y126.54 E20.2165
G1 X76.555 Y125.944 E20.24624
G1 X76.56 Y125.728 E20.25702
G1 X76.576 Y125.34 E20.27639
G1 X76.585 Y125.187 E20.28404
G1 X76.628 Y124.664 E20.31022
G1 X76.653 Y124.431 E20.32191
G1 X76.73 Y123.861 E20.35061
G1 X76.773 Y123.594 E20.3641
G1 X76.892 Y122.971 E20.39574
G1 X76.948 Y122.718 E20.40867
G1 X77.044 Y122.318 E20.42919
G1 X77.067 Y122.23 E20.43373
G1 X77.208 Y121.737 E20.45931
G1 X77.282 Y121.5 E20.4717
G1 X77.373 Y121.224 E20.4862
G1 X77.548 Y120.711 E20.51324
G1 X78.372 Y118.357 E20.63767
G1 X79.146 Y115.933 E20.76462
G1 X79.829 Y113.56 E20.88781
G1 X80.467 Y111.089 E21.01513
G1 X81.032 Y108.616 E21.14169
G1 X81.517 Y106.158 E21.26669
G1 X81.935 Y103.685 E21.39181
G1 X82.294 Y101.131 E21.52049
G1 X82.424 Y100.103 E21.57218
G1 X82.543 Y99.367 E21.60938
G1 X82.598 Y99.088 E21.62357
G1 X82.817 Y98.18 E21.67017
G1 X83.114 Y97.295 E21.71674
G1 X83.485 Y96.439 E21.76328
G1 X83.928 Y95.617 E21.80987
G1 X84.202 Y95.181 E21.83556
G1 X84.29 Y95.048 E21.84352
G1 X84.838 Y94.293 E21.89006
G1 X85.448 Y93.586 E21.93665
G1 X86.341 Y92.741 E21.99798
G0 F6000 X86.729 Y93.199
G1 F1200 X86.93 Y93.029 E22.01112
G1 X87.446 Y92.619 E22.044
G1 X88.037 Y92.183 E22.08064
G1 X89.009 Y91.484 E22.14037
