;FLAVOR:Marlin
;TIME:6781
;Filament used: 7.10084m
;Layer height: 0.2
;MINX:54.8
;MINY:61.282
;MINZ:0.2
;MAXX:155.137
;MAXY:156.561
;MAXZ:23.2
;Generated with Cura_SteamEngine 4.13.1
M140 S60
M105
M190 S60
M104 S200
M105
M109 S200
M82 ;absolute extrusion mode
; Ender 3 Custom Start G-code
G92 E0 ; Reset Extruder
G28 ; Home all axes
G1 Z2.0 F3000 ; Move Z Axis up little to prevent scratching of Heat Bed
G1 X0.1 Y20 Z0.3 F5000.0 ; Move to start position
G1 X0.1 Y200.0 Z0.3 F1500.0 E15 ; Draw the first line
G1 X0.4 Y200.0 Z0.3 F5000.0 ; Move to side a little
G1 X0.4 Y20 Z0.3 F1500.0 E30 ; Draw the second line
G92 E0 ; Reset Extruder
G1 Z2.0 F3000 ; Move Z Axis up little to prevent scratching of Heat Bed
G1 X5 Y20 Z0.3 F5000.0 ; Move over to prevent blob squish
G92 E0
G92 E0
G1 F1500 E-6.5
;LAYER_COUNT:116
;LAYER:0
M107
G0 F6000 X66.268 Y74.029 Z0.2
;TYPE:SKIRT
G1 F1500 E0
G1 F1200 X66.795 Y73.557 E0.0353
G1 X67.069 Y73.318 E0.05344
G1 X67.263 Y73.155 E0.06608
G1 X67.54 Y72.93 E0.08388
G1 X67.734 Y72.777 E0.09621
G1 X68.12 Y72.485 E0.12035
G1 X68.574 Y72.157 E0.1483
G1 X68.861 Y71.956 E0.16578
G1 X69.053 Y71.826 E0.17735
G1 X69.465 Y71.56 E0.20181
G1 X69.958 Y71.256 E0.23071
G1 X70.375 Y71.01 E0.25486
G1 X70.852 Y70.747 E0.28204
G1 X71.337 Y70.495 E0.30931
G1 X71.609 Y70.358 E0.3245
G1 X71.829 Y70.251 E0.33671
G1 X72.322 Y70.026 E0.36374
G1 X72.52 Y69.941 E0.37449
G1 X72.877 Y69.794 E0.39375
G1 X73.81 Y69.43 E0.44372
G1 X74.296 Y69.253 E0.46952
G1 X74.599 Y69.152 E0.48546
G1 X74.873 Y69.065 E0.4998
G1 X75.362 Y68.922 E0.52522
G1 X75.633 Y68.849 E0.53922
G1 X75.969 Y68.764 E0.55651
G1 X76.795 Y68.568 E0.59887
G1 X77.562 Y68.413 E0.6379
G1 X78.367 Y68.279 E0.67862
G1 X78.729 Y68.225 E0.69688
G1 X78.968 Y68.193 E0.70891
G1 X79.299 Y68.153 E0.72554
G1 X79.72 Y68.109 E0.74666
G1 X80.072 Y68.078 E0.76429
G1 X80.317 Y68.06 E0.77655
G1 X80.65 Y68.04 E0.79319
G1 X81.371 Y68.008 E0.8292
G1 X81.954 Y67.997 E0.85829
G1 X84.348 Y68.013 E0.97773
G1 X85.465 Y68.024 E1.03346
G1 X87.942 Y67.984 E1.15705
G1 X90.504 Y67.87 E1.285
G1 X92.956 Y67.691 E1.40765
G1 X95.454 Y67.437 E1.53292
G1 X97.965 Y67.11 E1.65925
G1 X100.392 Y66.724 E1.78186
G1 X102.87 Y66.258 E1.90765
G1 X105.323 Y65.724 E2.0329
G1 X107.745 Y65.126 E2.15736
G1 X110.145 Y64.459 E2.28164
G1 X112.543 Y63.719 E2.40684
G1 X115.614 Y62.665 E2.56883
G1 X116.42 Y62.372 E2.61161
G1 X116.836 Y62.229 E2.63356
G1 X117.12 Y62.138 E2.64844
G1 X117.582 Y62.001 E2.67248
G1 X118.168 Y61.84 E2.7028
G1 X119.042 Y61.636 E2.74757
G1 X119.359 Y61.575 E2.76368
G1 X119.856 Y61.491 E2.78883
G1 X120.08 Y61.458 E2.80012
G1 X120.64 Y61.389 E2.82827
G1 X121.04 Y61.35 E2.84832
G1 X121.687 Y61.306 E2.88068
G1 X122.226 Y61.284 E2.90759
G1 X123.131 Y61.282 E2.95274
G1 X123.447 Y61.294 E2.96852
G1 X124.079 Y61.336 E3.00012
G1 X124.744 Y61.398 E3.03344
G1 X125.64 Y61.517 E3.07853
G1 X125.94 Y61.569 E3.09372
G1 X126.427 Y61.664 E3.11848
G1 X126.592 Y61.7 E3.1269
G1 X127.161 Y61.84 E3.15614
G1 X127.907 Y62.043 E3.19471
G1 X128.783 Y62.319 E3.24053
G1 X129.244 Y62.485 E3.26497
G1 X129.851 Y62.723 E3.2975
G1 X129.992 Y62.783 E3.30515
G1 X130.302 Y62.921 E3.32208
G1 X130.762 Y63.133 E3.34735
G1 X131.625 Y63.575 E3.39572
G1 X132.24 Y63.924 E3.431
G1 X133.113 Y64.473 E3.48245
G1 X133.533 Y64.764 E3.50794
G1 X133.889 Y65.021 E3.52985
G1 X134.162 Y65.226 E3.54688
G1 X134.52 Y65.506 E3.56955
G1 X134.671 Y65.629 E3.57927
G1 X135.169 Y66.059 E3.6121
G1 X135.368 Y66.241 E3.62555
G1 X135.786 Y66.642 E3.65445
G1 X136.063 Y66.928 E3.67431
G1 X136.389 Y67.274 E3.69803
G1 X136.65 Y67.561 E3.71738
G1 X136.812 Y67.745 E3.72961
G1 X137.012 Y67.977 E3.7449
G1 X137.168 Y68.164 E3.75705
G1 X137.654 Y68.789 E3.79654
G1 X137.908 Y69.14 E3.81816
G1 X138.328 Y69.763 E3.85565
G1 X138.509 Y70.051 E3.87262
G1 X138.712 Y70.387 E3.8922
G1 X138.986 Y70.858 E3.91939
G1 X139.313 Y71.46 E3.95356
G1 X139.368 Y71.569 E3.95966
G1 X139.565 Y71.98 E3.98239
G1 X139.818 Y72.535 E4.01282
G1 X140.041 Y73.057 E4.04114
G1 X140.169 Y73.379 E4.05843
G1 X140.399 Y74.013 E4.09208
G1 X140.496 Y74.306 E4.10748
G1 X140.647 Y74.797 E4.13311
G1 X140.737 Y75.116 E4.14964
G1 X140.857 Y75.578 E4.17346
G1 X140.906 Y75.784 E4.18402
G1 X141.026 Y76.353 E4.21303
G1 X141.105 Y76.78 E4.2347
G1 X141.207 Y77.438 E4.26792
G1 X141.256 Y77.828 E4.28753
G1 X141.337 Y78.806 E4.33649
G1 X141.369 Y79.613 E4.37678
G1 X141.368 Y80.556 E4.42383
G1 X141.354 Y80.886 E4.4403
G1 X141.313 Y81.48 E4.47001
G1 X141.189 Y82.797 E4.53601
G1 X140.978 Y85.408 E4.66669
G1 X140.851 Y87.864 E4.78939
G1 X140.792 Y90.388 E4.91534
G1 X140.803 Y92.888 E5.04007
G1 X140.886 Y95.416 E5.16626
G1 X141.037 Y97.873 E5.28907
G1 X141.264 Y100.403 E5.4158
G1 X141.555 Y102.865 E5.53949
G1 X141.919 Y105.334 E5.664
G1 X142.356 Y107.817 E5.78978
G1 X142.861 Y110.274 E5.91492
G1 X143.421 Y112.663 E6.03734
G1 X144.076 Y115.129 E6.16464
G1 X144.776 Y117.497 E6.28783
G1 X145.57 Y119.928 E6.41542
G1 X146.405 Y122.259 E6.53895
G1 X146.994 Y123.771 E6.6199
G1 X147.214 Y124.354 E6.65099
G1 X147.336 Y124.693 E6.66897
G1 X147.587 Y125.427 E6.70767
G1 X147.764 Y125.989 E6.73706
G1 X147.798 Y126.108 E6.74324
G1 X147.92 Y126.572 E6.76717
G1 X148.026 Y127.025 E6.79038
G1 X148.08 Y127.274 E6.8031
G1 X148.204 Y127.941 E6.83694
G1 X148.271 Y128.371 E6.85865
G1 X148.325 Y128.759 E6.8782
G1 X148.348 Y128.949 E6.88775
G1 X148.405 Y129.562 E6.91846
G1 X148.428 Y129.905 E6.93561
G1 X148.452 Y130.461 E6.96338
G1 X148.456 Y130.677 E6.97415
G1 X148.458 Y130.981 E6.98932
G1 X148.456 Y131.233 E7.00189
G1 X148.425 Y131.99 E7.03969
G1 X148.402 Y132.301 E7.05525
G1 X148.36 Y132.756 E7.07805
G1 X148.29 Y133.325 E7.10665
G1 X148.245 Y133.626 E7.12183
G1 X148.128 Y134.279 E7.15493
G1 X148.022 Y134.786 E7.18077
G1 X147.94 Y135.149 E7.19934
G1 X147.905 Y135.293 E7.20673
G1 X147.743 Y135.889 E7.23754
G1 X147.666 Y136.145 E7.25088
G1 X147.556 Y136.492 E7.26904
G1 X147.456 Y136.79 E7.28472
G1 X147.291 Y137.253 E7.30925
G1 X147.011 Y137.956 E7.347
G1 X146.789 Y138.439 E7.37352
G1 X146.402 Y139.232 E7.41754
G1 X145.935 Y140.093 E7.46641
G1 X145.792 Y140.332 E7.4803
G1 X145.223 Y141.193 E7.53179
G1 X144.734 Y141.865 E7.57326
G1 X144.173 Y142.575 E7.6184
G1 X144.019 Y142.755 E7.63022
G1 X143.549 Y143.272 E7.66508
G1 X143.316 Y143.513 E7.6818
G1 X143.11 Y143.721 E7.69641
G1 X142.934 Y143.894 E7.70872
G1 X142.353 Y144.427 E7.74806
G1 X142.137 Y144.612 E7.76224
G1 X141.909 Y144.802 E7.77705
G1 X141.69 Y144.98 E7.79113
G1 X141.153 Y145.391 E7.82487
G1 X140.875 Y145.591 E7.84195
G1 X140.612 Y145.775 E7.85797
G1 X140.494 Y145.855 E7.86508
G1 X140.046 Y146.144 E7.89168
G1 X139.672 Y146.373 E7.91356
G1 X139.269 Y146.608 E7.93683
G1 X139.122 Y146.69 E7.94523
G1 X138.755 Y146.886 E7.96599
G1 X138.399 Y147.068 E7.98593
G1 X137.771 Y147.366 E8.02061
G1 X137.508 Y147.481 E8.03493
G1 X137.231 Y147.598 E8.04993
G1 X137.012 Y147.687 E8.06173
G1 X136.385 Y147.921 E8.09512
G1 X136.041 Y148.038 E8.11325
G1 X135.724 Y148.14 E8.12986
G1 X135.552 Y148.193 E8.13884
G1 X134.846 Y148.386 E8.17535
G1 X134.337 Y148.508 E8.20147
G1 X133.33 Y148.703 E8.25264
G1 X132.813 Y148.779 E8.27871
G1 X132.379 Y148.834 E8.30053
G1 X132.259 Y148.847 E8.30656
G1 X131.72 Y148.893 E8.33355
G1 X131.343 Y148.916 E8.35239
G1 X130.757 Y148.936 E8.38164
G1 X130.262 Y148.938 E8.40634
G1 X130.069 Y148.935 E8.41597
G1 X129.521 Y148.913 E8.44333
G1 X127.857 Y148.808 E8.52651
G1 X125.304 Y148.682 E8.65404
G1 X122.782 Y148.63 E8.77989
G1 X120.287 Y148.65 E8.90437
G1 X117.746 Y148.741 E9.03122
G1 X115.311 Y148.898 E9.15295
G1 X112.786 Y149.132 E9.27947
G1 X110.298 Y149.434 E9.4045
G1 X107.834 Y149.805 E9.52882
G1 X105.354 Y150.249 E9.65451
G1 X102.937 Y150.752 E9.77768
G1 X100.484 Y151.337 E9.90349
G1 X98.076 Y151.983 E10.02788
G1 X95.639 Y152.712 E10.15478
G1 X93.303 Y153.484 E10.27753
G1 X90.901 Y154.352 E10.40495
G1 X89.078 Y155.06 E10.50252
G1 X88.551 Y155.256 E10.53057
G1 X88.223 Y155.372 E10.54792
G1 X88.004 Y155.446 E10.55946
G1 X87.538 Y155.592 E10.58382
G1 X86.961 Y155.76 E10.6138
G1 X86.488 Y155.887 E10.63824
G1 X86.154 Y155.969 E10.65539
G1 X85.736 Y156.064 E10.67678
G1 X85.203 Y156.174 E10.70393
G1 X84.56 Y156.287 E10.7365
G1 X84.181 Y156.343 E10.75562
G1 X83.887 Y156.383 E10.77042
G1 X83.426 Y156.439 E10.79359
G1 X82.761 Y156.5 E10.8269
G1 X82.316 Y156.528 E10.84915
G1 X81.979 Y156.545 E10.86598
G1 X81.591 Y156.558 E10.88535
G1 X80.949 Y156.561 E10.91738
G1 X80.457 Y156.55 E10.94193
G1 X80.053 Y156.534 E10.96211
G1 X79.636 Y156.51 E10.98294
G1 X79.036 Y156.46 E11.01298
G1 X78.637 Y156.416 E11.03301
G1 X78.32 Y156.376 E11.04895
G1 X77.887 Y156.316 E11.07076
G1 X77.251 Y156.21 E11.10293
G1 X76.828 Y156.127 E11.12443
G1 X76.553 Y156.069 E11.13845
G1 X76.138 Y155.977 E11.15966
G1 X75.608 Y155.847 E11.18689
G1 X75.314 Y155.767 E11.20209
G1 X74.924 Y155.653 E11.22236
G1 X74.402 Y155.491 E11.24963
G1 X74.123 Y155.401 E11.26425
G1 X73.869 Y155.315 E11.27763
G1 X73.359 Y155.128 E11.30473
G1 X73.081 Y155.019 E11.31963
G1 X72.689 Y154.857 E11.34079
G1 X71.77 Y154.457 E11.39079
G1 X71.101 Y154.14 E11.42773
G1 X70.467 Y153.814 E11.4633
G1 X70.175 Y153.658 E11.47981
G1 X69.921 Y153.518 E11.49428
G1 X69.598 Y153.334 E11.51283
G1 X69.189 Y153.091 E11.53656
G1 X68.918 Y152.925 E11.55242
G1 X68.445 Y152.626 E11.58034
G1 X68.173 Y152.448 E11.59655
G1 X67.999 Y152.331 E11.60701
G1 X67.782 Y152.181 E11.62017
G1 X67.159 Y151.741 E11.65823
G1 X66.737 Y151.429 E11.68441
G1 X66.136 Y150.962 E11.72238
G1 X65.699 Y150.604 E11.75057
G1 X64.777 Y149.812 E11.8112
G1 X64.454 Y149.524 E11.83279
G1 X63.732 Y148.855 E11.8819
G1 X63.423 Y148.559 E11.90325
G1 X62.826 Y147.963 E11.94534
G1 X62.556 Y147.684 E11.96471
G1 X61.968 Y147.056 E12.00763
G1 X61.68 Y146.736 E12.02911
G1 X61.126 Y146.098 E12.07126
G1 X60.834 Y145.748 E12.094
G1 X60.073 Y144.798 E12.15473
G1 X59.82 Y144.471 E12.17536
G1 X59.556 Y144.116 E12.19743
G1 X59.247 Y143.679 E12.22413
G1 X58.871 Y143.121 E12.2577
G1 X58.721 Y142.892 E12.27136
G1 X58.531 Y142.595 E12.28895
G1 X58.353 Y142.308 E12.30579
G1 X58.108 Y141.899 E12.32958
G1 X57.944 Y141.617 E12.34586
G1 X57.71 Y141.2 E12.36971
G1 X57.562 Y140.928 E12.38516
G1 X57.432 Y140.681 E12.39909
G1 X57.268 Y140.357 E12.4172
G1 X56.959 Y139.722 E12.45244
G1 X56.737 Y139.236 E12.47909
G1 X56.561 Y138.827 E12.50131
G1 X56.429 Y138.507 E12.51858
G1 X56.304 Y138.187 E12.53572
G1 X56.13 Y137.722 E12.56049
G1 X56.002 Y137.362 E12.57955
G1 X55.902 Y137.065 E12.59518
G1 X55.76 Y136.612 E12.61887
G1 X55.598 Y136.056 E12.64776
G1 X55.49 Y135.659 E12.66829
G1 X55.422 Y135.385 E12.68237
G1 X55.362 Y135.13 E12.69544
G1 X55.293 Y134.819 E12.71133
G1 X55.187 Y134.305 E12.73752
G1 X55.074 Y133.663 E12.77004
G1 X55.018 Y133.284 E12.78915
G1 X54.976 Y132.972 E12.80486
G1 X54.92 Y132.505 E12.82832
G1 X54.861 Y131.868 E12.86024
G1 X54.833 Y131.429 E12.88219
G1 X54.816 Y131.079 E12.89967
G1 X54.803 Y130.688 E12.91919
G1 X54.8 Y130.047 E12.95117
G1 X54.811 Y129.558 E12.97557
G1 X54.827 Y129.164 E12.99524
G1 X54.851 Y128.742 E13.01633
G1 X54.903 Y128.119 E13.04752
G1 X54.947 Y127.725 E13.0673
G1 X54.983 Y127.434 E13.08193
G1 X55.042 Y127.005 E13.10353
G1 X55.151 Y126.352 E13.13656
G1 X55.235 Y125.925 E13.15827
G1 X55.292 Y125.656 E13.17199
G1 X55.384 Y125.241 E13.1932
G1 X55.471 Y124.876 E13.21192
G1 X55.783 Y123.662 E13.27445
G1 X55.994 Y122.876 E13.31505
G1 X56.572 Y120.438 E13.44006
G1 X57.085 Y117.979 E13.56538
G1 X57.523 Y115.504 E13.69078
G1 X57.887 Y113.057 E13.8142
G1 X58.189 Y110.558 E13.93978
G1 X58.417 Y108.074 E14.06423
G1 X58.576 Y105.568 E14.18951
G1 X58.663 Y103.076 E14.31391
G1 X58.68 Y100.545 E14.44018
G1 X58.627 Y98.099 E14.56224
G1 X58.439 Y94.637 E14.73522
G1 X58.337 Y93.259 E14.80416
G1 X58.31 Y92.722 E14.83098
G1 X58.296 Y92.203 E14.85688
G1 X58.292 Y91.893 E14.87235
G1 X58.292 Y91.641 E14.88492
G1 X58.303 Y91.142 E14.90982
G1 X58.326 Y90.612 E14.93629
G1 X58.347 Y90.255 E14.95413
G1 X58.367 Y89.987 E14.96754
G1 X58.411 Y89.527 E14.99059
G1 X58.47 Y89.015 E15.01631
G1 X58.511 Y88.692 E15.03255
G1 X58.548 Y88.435 E15.0455
G1 X58.636 Y87.913 E15.07191
G1 X58.737 Y87.385 E15.09873
G1 X58.799 Y87.082 E15.11416
G1 X58.842 Y86.886 E15.12417
G1 X58.944 Y86.461 E15.14598
G1 X59.1 Y85.86 E15.17696
G1 X59.237 Y85.376 E15.20205
G1 X59.341 Y85.037 E15.21974
G1 X59.447 Y84.71 E15.23689
G1 X59.534 Y84.454 E15.25038
G1 X59.648 Y84.132 E15.26743
G1 X59.9 Y83.457 E15.30337
G1 X60.059 Y83.056 E15.32489
G1 X60.139 Y82.864 E15.33527
G1 X60.26 Y82.583 E15.35053
G1 X60.472 Y82.11 E15.37639
G1 X60.596 Y81.842 E15.39113
G1 X60.736 Y81.55 E15.40728
G1 X60.894 Y81.234 E15.42491
G1 X61.156 Y80.728 E15.45334
G1 X61.335 Y80.396 E15.47215
G1 X61.554 Y80.005 E15.49451
G1 X61.709 Y79.737 E15.50996
G1 X61.892 Y79.43 E15.52779
G1 X62.042 Y79.185 E15.54212
G1 X62.315 Y78.752 E15.56766
G1 X62.48 Y78.498 E15.58277
G1 X62.657 Y78.233 E15.59867
G1 X62.87 Y77.924 E15.61739
G1 X63.092 Y77.614 E15.63641
G1 X63.268 Y77.376 E15.65118
G1 X63.562 Y76.987 E15.67551
G1 X63.741 Y76.756 E15.69009
G1 X63.878 Y76.584 E15.70106
G1 X64.146 Y76.259 E15.72208
G1 X64.582 Y75.751 E15.75547
G1 X65.082 Y75.205 E15.79241
G1 X65.713 Y74.559 E15.83746
G1 X66.268 Y74.029 E15.87575
G0 F6000 X66.668 Y74.475
G1 F1200 X67.195 Y74.003 E15.91105
G1 X67.455 Y73.778 E15.9282
G1 X67.649 Y73.615 E15.94084
G1 X67.911 Y73.401 E15.95772
G1 X68.105 Y73.248 E15.97004
G1 X68.472 Y72.972 E15.99295
G1 X68.926 Y72.644 E16.0209
G1 X69.198 Y72.453 E16.03748
G1 X69.39 Y72.323 E16.04905
G1 X69.78 Y72.071 E16.07221
G1 X70.273 Y71.767 E16.10111
G1 X70.516 Y71.621 E16.11525
G1 X70.676 Y71.528 E16.12449
G1 X71.128 Y71.28 E16.15021
G1 X71.613 Y71.028 E16.17747
G1 X71.872 Y70.898 E16.19193
G1 X72.092 Y70.791 E16.20414
G1 X72.559 Y70.577 E16.22977
G1 X72.757 Y70.492 E16.24052
G1 X73.095 Y70.353 E16.25875
G1 X74.028 Y69.989 E16.30871
G1 X74.494 Y69.82 E16.33344
G1 X74.78 Y69.724 E16.3485
G1 X75.054 Y69.637 E16.36284
G1 X75.518 Y69.501 E16.38696
G1 X75.789 Y69.428 E16.40096
G1 X76.107 Y69.347 E16.41733
G1 X76.933 Y69.151 E16.45969
G1 X77.66 Y69.005 E16.49668
G1 X78.465 Y68.871 E16.5374
G1 X78.808 Y68.819 E16.5547
G1 X79.047 Y68.787 E16.56673
G1 X79.361 Y68.75 E16.58251
G1 X79.782 Y68.706 E16.60363
G1 X80.116 Y68.676 E16.62036
G1 X80.361 Y68.658 E16.63261
G1 X80.677 Y68.64 E16.6484
G1 X81.398 Y68.608 E16.68441
G1 X81.951 Y68.597 E16.71201
G1 X84.342 Y68.613 E16.8313
G1 X85.431 Y68.624 E16.88563
G1 X88.014 Y68.582 E17.01451
G1 X90.504 Y68.471 E17.13886
G1 X93.025 Y68.287 E17.26497
G1 X95.517 Y68.034 E17.38994
G1 X98.032 Y67.707 E17.51647
G1 X100.527 Y67.31 E17.64251
G1 X102.998 Y66.845 E17.76795
G1 X105.456 Y66.31 E17.89345
G1 X107.871 Y65.713 E18.01756
G1 X110.346 Y65.025 E18.14572
G1 X112.725 Y64.291 E18.26993
G1 X115.773 Y63.245 E18.4307
G1 X116.624 Y62.936 E18.47587
G1 X117.019 Y62.801 E18.4967
G1 X117.303 Y62.71 E18.51158
G1 X117.741 Y62.579 E18.53438
G1 X118.327 Y62.418 E18.5647
G1 X119.155 Y62.225 E18.60712
G1 X119.472 Y62.164 E18.62323
G1 X119.943 Y62.084 E18.64706
G1 X120.167 Y62.051 E18.65836
G1 X120.698 Y61.986 E18.68505
G1 X121.098 Y61.947 E18.7051
G1 X121.711 Y61.905 E18.73575
G1 X122.25 Y61.883 E18.76266
G1 X123.109 Y61.882 E18.80552
G1 X123.425 Y61.894 E18.8213
G1 X124.023 Y61.933 E18.85119
G1 X124.688 Y61.995 E18.88451
G1 X125.538 Y62.108 E18.92729
G1 X125.838 Y62.16 E18.94248
G1 X126.3 Y62.251 E18.96598
G1 X126.465 Y62.287 E18.9744
G1 X127.003 Y62.418 E19.00203
G1 X127.749 Y62.621 E19.0406
G1 X128.58 Y62.884 E19.08408
G1 X129.041 Y63.05 E19.10853
G1 X129.616 Y63.275 E19.13933
G1 X129.757 Y63.335 E19.14698
G1 X130.051 Y63.466 E19.16304
