;FLAVOR:Marlin
;TIME:2630
;Filament used: 2.31363m
;Layer height: 0.2
;MINX:67.247
;MINY:71.89
;MINZ:0.2
;MAXX:145.337
;MAXY:146.994
;MAXZ:11.6
;Generated with Cura_SteamEngine 4.13.1
M140 S60
M105
M190 S60
M104 S200
M105
M109 S200
M82 ;absolute extrusion mode
; Ender 3 Custom Start G-code
G92 E0 ; Reset Extruder
G28 ; Home all axes
G1 Z2.0 F3000 ; Move Z Axis up little to prevent scratching of Heat Bed
G1 X0.1 Y20 Z0.3 F5000.0 ; Move to start position
G1 X0.1 Y200.0 Z0.3 F1500.0 E15 ; Draw the first line
G1 X0.4 Y200.0 Z0.3 F5000.0 ; Move to side a little
G1 X0.4 Y20 Z0.3 F1500.0 E30 ; Draw the second line
G92 E0 ; Reset Extruder
G1 Z2.0 F3000 ; Move Z Axis up little to prevent scratching of Heat Bed
G1 X5 Y20 Z0.3 F5000.0 ; Move over to prevent blob squish
G92 E0
G92 E0
G1 F1500 E-6.5
;LAYER_COUNT:58
;LAYER:0
M107
G0 F6000 X75.174 Y77.968 Z0.2
;TYPE:SKIRT
G1 F1500 E0
G1 F1200 X75.766 Y77.436 E0.03971
G1 X76.054 Y77.187 E0.0587
G1 X76.217 Y77.05 E0.06933
G1 X76.483 Y76.833 E0.08645
G1 X76.679 Y76.678 E0.09892
G1 X77.085 Y76.371 E0.12431
G1 X77.537 Y76.045 E0.15212
G1 X77.804 Y75.858 E0.16838
G1 X77.994 Y75.729 E0.17984
G1 X78.42 Y75.453 E0.20516
G1 X78.897 Y75.159 E0.23312
G1 X79.203 Y74.977 E0.25088
G1 X79.391 Y74.869 E0.2617
G1 X79.813 Y74.638 E0.2857
G1 X80.288 Y74.391 E0.31241
G1 X80.544 Y74.262 E0.32671
G1 X80.767 Y74.153 E0.33909
G1 X81.267 Y73.923 E0.36655
G1 X81.773 Y73.705 E0.39404
G1 X82.06 Y73.586 E0.40954
G1 X82.293 Y73.493 E0.42205
G1 X82.791 Y73.308 E0.44856
G1 X82.993 Y73.238 E0.45922
G1 X83.353 Y73.12 E0.47813
G1 X84.195 Y72.859 E0.5221
G1 X84.945 Y72.654 E0.56089
G1 X85.809 Y72.449 E0.6052
G1 X86.586 Y72.292 E0.64474
G1 X87.299 Y72.174 E0.6808
G1 X87.595 Y72.129 E0.69574
G1 X87.775 Y72.104 E0.7048
G1 X88.183 Y72.055 E0.72531
G1 X88.758 Y71.996 E0.75414
G1 X89.078 Y71.968 E0.77017
G1 X89.333 Y71.949 E0.78293
G1 X89.685 Y71.928 E0.80052
G1 X90.234 Y71.904 E0.82793
G1 X90.562 Y71.894 E0.84431
G1 X90.925 Y71.89 E0.86242
G1 X91.897 Y71.896 E0.91091
G1 X92.318 Y71.907 E0.93192
G1 X92.846 Y71.932 E0.95829
G1 X93.207 Y71.956 E0.97634
G1 X93.549 Y71.984 E0.99346
G1 X93.87 Y72.015 E1.00955
G1 X94.202 Y72.052 E1.02622
G1 X94.758 Y72.122 E1.05418
G1 X95.101 Y72.171 E1.07146
G1 X95.267 Y72.197 E1.07985
G1 X95.616 Y72.257 E1.09751
G1 X96.354 Y72.396 E1.13498
G1 X96.741 Y72.476 E1.1547
G1 X97.082 Y72.553 E1.17214
G1 X98.518 Y72.892 E1.24575
G1 X99.047 Y73.024 E1.27295
G1 X101.501 Y73.562 E1.39829
G1 X103.961 Y74.023 E1.52315
G1 X106.411 Y74.414 E1.64693
G1 X108.902 Y74.74 E1.77227
G1 X111.4 Y74.995 E1.89754
G1 X113.906 Y75.18 E2.02291
G1 X116.397 Y75.293 E2.14731
G1 X118.889 Y75.335 E2.27165
G1 X121.365 Y75.306 E2.39519
G1 X123.66 Y75.213 E2.50978
G1 X123.983 Y75.205 E2.5259
G1 X124.461 Y75.199 E2.54975
G1 X125.028 Y75.206 E2.57804
G1 X125.3 Y75.216 E2.59162
G1 X125.802 Y75.245 E2.61671
G1 X126.087 Y75.268 E2.63097
G1 X126.622 Y75.324 E2.65781
G1 X126.911 Y75.361 E2.67235
G1 X128.02 Y75.559 E2.72855
G1 X128.836 Y75.746 E2.77031
G1 X129.649 Y75.964 E2.81231
G1 X129.909 Y76.044 E2.82588
G1 X130.687 Y76.314 E2.86696
G1 X131.138 Y76.489 E2.8911
G1 X131.797 Y76.768 E2.9268
G1 X132.291 Y76.996 E2.95395
G1 X133.205 Y77.469 E3.00529
G1 X133.558 Y77.672 E3.02561
G1 X134.156 Y78.041 E3.06066
G1 X134.526 Y78.285 E3.08278
G1 X135.29 Y78.835 E3.12974
G1 X135.651 Y79.118 E3.15263
G1 X135.991 Y79.394 E3.17447
G1 X136.24 Y79.605 E3.19076
G1 X136.917 Y80.227 E3.23662
G1 X137.121 Y80.43 E3.25098
G1 X137.413 Y80.732 E3.27194
G1 X137.597 Y80.929 E3.28539
G1 X137.996 Y81.379 E3.31539
G1 X138.149 Y81.561 E3.32726
G1 X138.549 Y82.065 E3.35936
G1 X138.8 Y82.4 E3.38024
G1 X139.295 Y83.115 E3.42363
G1 X139.585 Y83.57 E3.45055
G1 X139.849 Y84.006 E3.47597
G1 X139.928 Y84.143 E3.48386
G1 X140.136 Y84.519 E3.5053
G1 X140.42 Y85.057 E3.53565
G1 X140.87 Y86.014 E3.58841
G1 X140.988 Y86.298 E3.60376
G1 X141.207 Y86.867 E3.63417
G1 X141.296 Y87.118 E3.64746
G1 X141.422 Y87.494 E3.66724
G1 X141.551 Y87.902 E3.68859
G1 X141.818 Y88.899 E3.74009
G1 X141.946 Y89.481 E3.76982
G1 X142.113 Y90.431 E3.81794
G1 X142.181 Y91.045 E3.84876
G1 X142.245 Y91.804 E3.88676
G1 X142.286 Y92.722 E3.9326
G1 X142.287 Y92.962 E3.94458
G1 X142.279 Y93.445 E3.96868
G1 X142.274 Y93.577 E3.97527
G1 X142.234 Y94.193 E4.00607
G1 X142.095 Y95.707 E4.08192
G1 X141.903 Y98.19 E4.20616
G1 X141.778 Y100.717 E4.33239
G1 X141.726 Y103.183 E4.45545
G1 X141.745 Y105.708 E4.58142
G1 X141.835 Y108.237 E4.70768
G1 X141.993 Y110.705 E4.83106
G1 X142.221 Y113.175 E4.95481
G1 X142.528 Y115.709 E5.08216
G1 X142.896 Y118.166 E5.2061
G1 X143.335 Y120.62 E5.33048
G1 X143.843 Y123.059 E5.45477
G1 X144.426 Y125.511 E5.58051
G1 X144.851 Y127.12 E5.66354
G1 X145.085 Y128.222 E5.71974
G1 X145.187 Y128.853 E5.75163
G1 X145.3 Y129.805 E5.79946
G1 X145.331 Y130.444 E5.83138
G1 X145.337 Y130.727 E5.8455
G1 X145.325 Y131.566 E5.88736
G1 X145.318 Y131.701 E5.89411
G1 X145.251 Y132.476 E5.93292
G1 X145.206 Y132.851 E5.95176
G1 X145.011 Y133.99 E6.00941
G1 X144.954 Y134.245 E6.02245
G1 X144.742 Y135.052 E6.06407
G1 X144.664 Y135.311 E6.07757
G1 X144.563 Y135.632 E6.09436
G1 X144.52 Y135.761 E6.10114
G1 X144.17 Y136.677 E6.15006
G1 X144.073 Y136.902 E6.16229
G1 X143.893 Y137.299 E6.18404
G1 X143.831 Y137.429 E6.19122
G1 X143.343 Y138.343 E6.24291
G1 X143.145 Y138.677 E6.26228
G1 X142.55 Y139.582 E6.31632
G1 X142.4 Y139.788 E6.32903
G1 X141.729 Y140.625 E6.38255
G1 X141.468 Y140.921 E6.40224
G1 X140.791 Y141.625 E6.45097
G1 X140.745 Y141.669 E6.45414
G1 X139.995 Y142.327 E6.50392
G1 X139.559 Y142.677 E6.53182
G1 X138.787 Y143.246 E6.57966
G1 X138.026 Y143.716 E6.62429
G1 X137.505 Y144.011 E6.65416
G1 X136.272 Y144.615 E6.72265
G1 X136.035 Y144.714 E6.73547
G1 X135.194 Y145.028 E6.78026
G1 X134.975 Y145.1 E6.79176
G1 X134.136 Y145.341 E6.83531
G1 X133.848 Y145.412 E6.85011
G1 X132.779 Y145.622 E6.90446
G1 X132.448 Y145.671 E6.92115
G1 X131.383 Y145.778 E6.97455
G1 X131.086 Y145.794 E6.98939
G1 X130.095 Y145.805 E7.03883
G1 X129.848 Y145.797 E7.05116
G1 X128.843 Y145.72 E7.10145
G1 X127.403 Y145.546 E7.17382
G1 X127.073 Y145.514 E7.19036
G1 X125.777 Y145.354 E7.2555
G1 X123.267 Y145.119 E7.38128
G1 X120.799 Y144.957 E7.50467
G1 X118.305 Y144.865 E7.62918
G1 X115.779 Y144.842 E7.75521
G1 X113.279 Y144.892 E7.87996
G1 X110.774 Y145.012 E8.00508
G1 X108.275 Y145.201 E8.13011
G1 X105.805 Y145.46 E8.25401
G1 X103.3 Y145.794 E8.3801
G1 X100.865 Y146.19 E8.50317
G1 X98.199 Y146.7 E8.63859
G1 X97.762 Y146.775 E8.66071
G1 X97.472 Y146.819 E8.67535
G1 X97.112 Y146.868 E8.69347
G1 X96.928 Y146.89 E8.70272
G1 X96.28 Y146.949 E8.73518
G1 X95.96 Y146.969 E8.75118
G1 X95.525 Y146.988 E8.7729
G1 X95.28 Y146.994 E8.78513
G1 X94.74 Y146.994 E8.81207
G1 X94.562 Y146.99 E8.82095
G1 X94.231 Y146.978 E8.83747
G1 X93.997 Y146.966 E8.84916
G1 X93.345 Y146.914 E8.8818
G1 X93.004 Y146.877 E8.89891
G1 X92.626 Y146.829 E8.91792
G1 X92.415 Y146.799 E8.92855
G1 X91.826 Y146.7 E8.95835
G1 X91.642 Y146.664 E8.9677
G1 X91.333 Y146.599 E8.98346
G1 X91.07 Y146.54 E8.9969
G1 X90.577 Y146.418 E9.02224
G1 X90.4 Y146.37 E9.03139
G1 X89.994 Y146.252 E9.05248
G1 X89.679 Y146.154 E9.06894
G1 X89.274 Y146.021 E9.09021
G1 X88.377 Y145.675 E9.13818
G1 X87.668 Y145.367 E9.17674
G1 X86.998 Y145.05 E9.21372
G1 X86.585 Y144.838 E9.23688
G1 X86.207 Y144.635 E9.25829
G1 X85.89 Y144.454 E9.2765
G1 X85.676 Y144.327 E9.28891
G1 X85.397 Y144.156 E9.30524
G1 X85.065 Y143.946 E9.32484
G1 X84.569 Y143.614 E9.35462
G1 X84.172 Y143.333 E9.37888
G1 X83.774 Y143.038 E9.4036
G1 X83.499 Y142.825 E9.42095
G1 X83.042 Y142.452 E9.45038
G1 X82.363 Y141.868 E9.49506
G1 X82.074 Y141.611 E9.51436
G1 X81.76 Y141.322 E9.53565
G1 X81.405 Y140.98 E9.56024
G1 X81.055 Y140.629 E9.58497
G1 X80.814 Y140.38 E9.60226
G1 X80.43 Y139.971 E9.63025
G1 X80.125 Y139.633 E9.65296
G1 X79.721 Y139.167 E9.68373
G1 X79.519 Y138.927 E9.69938
G1 X79.341 Y138.71 E9.71338
G1 X78.998 Y138.272 E9.74114
G1 X78.707 Y137.88 E9.7655
G1 X78.396 Y137.439 E9.79242
G1 X78.035 Y136.899 E9.82482
G1 X77.978 Y136.811 E9.83005
G1 X77.763 Y136.466 E9.85034
G1 X77.575 Y136.152 E9.86859
G1 X77.417 Y135.88 E9.88429
G1 X77.313 Y135.695 E9.89488
G1 X77.063 Y135.224 E9.92148
G1 X76.871 Y134.842 E9.94281
G1 X76.508 Y134.048 E9.98637
G1 X76.218 Y133.342 E10.02444
G1 X75.946 Y132.609 E10.06345
G1 X75.894 Y132.453 E10.07165
G1 X75.764 Y132.036 E10.09345
G1 X75.666 Y131.7 E10.11091
G1 X75.549 Y131.269 E10.13319
G1 X75.512 Y131.121 E10.1408
G1 X75.4 Y130.625 E10.16617
G1 X75.329 Y130.276 E10.18394
G1 X75.22 Y129.653 E10.21549
G1 X75.154 Y129.181 E10.23927
G1 X74.94 Y127.402 E10.32866
G1 X74.92 Y127.218 E10.3379
G1 X74.585 Y124.754 E10.46196
G1 X74.176 Y122.271 E10.5875
G1 X73.705 Y119.844 E10.71084
G1 X73.151 Y117.366 E10.83752
G1 X72.544 Y114.98 E10.96035
G1 X71.86 Y112.562 E11.08572
G1 X71.098 Y110.139 E11.21244
G1 X70.287 Y107.797 E11.33609
G1 X69.391 Y105.427 E11.4625
G1 X69.089 Y104.682 E11.50261
G1 X68.791 Y103.911 E11.54385
G1 X68.667 Y103.574 E11.56176
G1 X68.449 Y102.953 E11.5946
G1 X68.226 Y102.246 E11.63158
G1 X68.005 Y101.457 E11.67246
G1 X67.825 Y100.721 E11.71026
G1 X67.644 Y99.86 E11.75416
G1 X67.58 Y99.531 E11.77088
G1 X67.553 Y99.381 E11.77848
G1 X67.465 Y98.813 E11.80716
G1 X67.414 Y98.417 E11.82708
G1 X67.379 Y98.11 E11.84249
G1 X67.34 Y97.726 E11.86175
G1 X67.309 Y97.371 E11.87953
G1 X67.291 Y97.115 E11.89233
G1 X67.268 Y96.649 E11.91561
G1 X67.252 Y96.109 E11.94256
G1 X67.247 Y95.768 E11.95957
G1 X67.247 Y95.541 E11.9709
G1 X67.258 Y95.049 E11.99545
G1 X67.281 Y94.512 E12.02227
G1 X67.301 Y94.156 E12.04006
G1 X67.32 Y93.899 E12.05291
G1 X67.366 Y93.417 E12.07707
G1 X67.427 Y92.893 E12.10339
G1 X67.47 Y92.565 E12.11989
G1 X67.507 Y92.311 E12.1327
G1 X67.589 Y91.823 E12.15739
G1 X67.623 Y91.644 E12.16648
G1 X67.707 Y91.243 E12.18692
G1 X67.918 Y90.314 E12.23444
G1 X68.118 Y89.554 E12.27365
G1 X68.351 Y88.778 E12.31407
G1 X68.589 Y88.069 E12.35139
G1 X68.864 Y87.331 E12.39068
G1 X68.997 Y86.99 E12.40894
G1 X69.058 Y86.841 E12.41697
G1 X69.207 Y86.495 E12.43577
G1 X69.436 Y85.984 E12.4637
G1 X69.58 Y85.674 E12.48076
G1 X69.735 Y85.354 E12.49849
G1 X69.877 Y85.071 E12.51429
G1 X70.098 Y84.645 E12.53823
G1 X70.263 Y84.339 E12.55558
G1 X70.49 Y83.932 E12.57883
G1 X70.641 Y83.67 E12.59392
G1 X70.839 Y83.336 E12.61329
G1 X71.014 Y83.049 E12.63006
G1 X71.29 Y82.613 E12.6558
G1 X71.456 Y82.359 E12.67094
G1 X71.625 Y82.107 E12.68608
G1 X71.825 Y81.818 E12.70361
G1 X72.019 Y81.547 E12.72024
G1 X72.198 Y81.304 E12.7353
G1 X72.53 Y80.865 E12.76276
G1 X72.726 Y80.613 E12.77868
G1 X72.891 Y80.407 E12.79185
G1 X73.148 Y80.097 E12.81194
G1 X73.529 Y79.654 E12.84109
G1 X73.754 Y79.4 E12.85802
G1 X74.071 Y79.063 E12.8811
G1 X74.638 Y78.483 E12.92157
G1 X75.174 Y77.968 E12.95865
G0 F6000 X75.575 Y78.415
G1 F1200 X76.167 Y77.883 E12.99836
G1 X76.44 Y77.646 E13.0164
G1 X76.603 Y77.509 E13.02702
G1 X76.855 Y77.303 E13.04326
G1 X77.051 Y77.148 E13.05573
G1 X77.436 Y76.857 E13.0798
G1 X77.888 Y76.531 E13.10761
G1 X78.141 Y76.354 E13.12301
G1 X78.331 Y76.225 E13.13447
G1 X78.735 Y75.964 E13.15847
G1 X79.212 Y75.67 E13.18642
G1 X79.501 Y75.498 E13.2032
G1 X79.689 Y75.39 E13.21402
G1 X80.09 Y75.17 E13.23683
G1 X80.565 Y74.923 E13.26355
G1 X80.807 Y74.801 E13.27707
G1 X81.03 Y74.692 E13.28945
G1 X81.504 Y74.475 E13.31546
G1 X82.01 Y74.257 E13.34295
G1 X82.282 Y74.144 E13.35764
G1 X82.515 Y74.051 E13.37016
G1 X82.987 Y73.875 E13.39529
G1 X83.189 Y73.805 E13.40595
G1 X83.531 Y73.693 E13.42391
G1 X84.373 Y73.432 E13.46789
G1 X85.084 Y73.237 E13.50467
G1 X85.948 Y73.032 E13.54897
G1 X86.684 Y72.884 E13.58643
G1 X87.397 Y72.766 E13.62248
G1 X87.858 Y72.699 E13.64572
G1 X88.244 Y72.652 E13.66512
G1 X88.819 Y72.593 E13.69396
G1 X89.122 Y72.566 E13.70914
G1 X89.377 Y72.547 E13.72189
G1 X89.711 Y72.527 E13.73859
G1 X90.26 Y72.503 E13.766
G1 X90.577 Y72.494 E13.78182
G1 X90.921 Y72.49 E13.79899
G1 X91.893 Y72.496 E13.84748
G1 X92.292 Y72.506 E13.86739
G1 X92.549 Y72.517 E13.88023
G1 X92.806 Y72.531 E13.89307
G1 X93.167 Y72.555 E13.91112
G1 X93.492 Y72.581 E13.92738
G1 X93.813 Y72.612 E13.94347
G1 X94.127 Y72.647 E13.95924
G1 X94.683 Y72.717 E13.98719
G1 X95.008 Y72.763 E14.00357
G1 X95.174 Y72.789 E14.01195
G1 X95.505 Y72.846 E14.02871
G1 X96.243 Y72.985 E14.06618
G1 X96.61 Y73.061 E14.08487
G1 X96.945 Y73.137 E14.10201
G1 X98.373 Y73.474 E14.17521
G1 X98.918 Y73.61 E14.20324
G1 X101.391 Y74.152 E14.32954
G1 X103.83 Y74.61 E14.45335
G1 X106.338 Y75.01 E14.58006
G1 X108.835 Y75.337 E14.7057
G1 X111.369 Y75.595 E14.83277
G1 X113.835 Y75.777 E14.95614
G1 X116.395 Y75.893 E15.08399
G1 X118.886 Y75.935 E15.20828
G1 X121.397 Y75.906 E15.33356
G1 X123.685 Y75.813 E15.44781
G1 X123.99 Y75.805 E15.46303
G1 X124.468 Y75.799 E15.48688
G1 X125.005 Y75.805 E15.51367
G1 X125.277 Y75.815 E15.52725
G1 X125.754 Y75.843 E15.55109
G1 X126.039 Y75.866 E15.56535
G1 X126.546 Y75.919 E15.59079
G1 X126.835 Y75.956 E15.60532
G1 X127.886 Y76.143 E15.65858
G1 X128.702 Y76.33 E15.70035
G1 X129.473 Y76.537 E15.74017
G1 X129.733 Y76.617 E15.75374
G1 X130.47 Y76.873 E15.79267
G1 X130.921 Y77.048 E15.8168
G1 X131.546 Y77.313 E15.85067
G1 X132.04 Y77.541 E15.87782
G1 X132.906 Y77.989 E15.92646
G1 X133.259 Y78.192 E15.94678
G1 X133.826 Y78.541 E15.97999
G1 X134.196 Y78.785 E16.0021
G1 X134.92 Y79.307 E16.04663
G1 X135.281 Y79.59 E16.06952
G1 X135.603 Y79.852 E16.09023
G1 X135.852 Y80.063 E16.10651
G1 X136.494 Y80.653 E16.15001
G1 X136.698 Y80.856 E16.16437
G1 X136.975 Y81.142 E16.18424
G1 X137.159 Y81.339 E16.19768
G1 X137.536 Y81.765 E16.22607
G1 X137.689 Y81.947 E16.23793
G1 X138.069 Y82.425 E16.26839
G1 X138.32 Y82.76 E16.28928
G1 X138.789 Y83.438 E16.33041
G1 X139.079 Y83.893 E16.35732
G1 X139.33 Y84.306 E16.38144
G1 X139.409 Y84.443 E16.38933
G1 X139.605 Y84.8 E16.40964
G1 X139.889 Y85.338 E16.44
G1 X140.316 Y86.244 E16.48997
G1 X140.434 Y86.528 E16.50531
G1 X140.641 Y87.067 E16.53411
G1 X140.73 Y87.318 E16.5474
G1 X140.85 Y87.675 E16.56619
G1 X140.979 Y88.083 E16.58754
G1 X141.232 Y89.028 E16.63635
G1 X141.36 Y89.61 E16.66608
G1 X141.518 Y90.51 E16.71166
G1 X141.583 Y91.095 E16.74103
G1 X141.647 Y91.854 E16.77903
G1 X141.686 Y92.725 E16.82253
G1 X141.687 Y92.965 E16.8345
G1 X141.679 Y93.423 E16.85735
G1 X141.674 Y93.555 E16.86394
G1 X141.636 Y94.139 E16.89314
G1 X141.507 Y95.541 E16.96338
G1 X141.304 Y98.151 E17.09399
G1 X141.18 Y100.674 E17.22002
G1 X141.126 Y103.209 E17.34652
G1 X141.145 Y105.734 E17.47249
G1 X141.234 Y108.224 E17.5968
G1 X141.397 Y110.763 E17.72373
G1 X141.628 Y113.266 E17.84914
G1 X141.93 Y115.765 E17.97472
G1 X142.304 Y118.257 E18.10044
G1 X142.747 Y120.738 E18.22617
G1 X143.264 Y123.216 E18.35246
G1 X143.839 Y125.639 E18.4767
G1 X144.271 Y127.273 E18.56103
G1 X144.492 Y128.318 E18.61431
G1 X144.594 Y128.949 E18.6462
G1 X144.704 Y129.876 E18.69278
G1 X144.732 Y130.457 E18.7218
G1 X144.738 Y130.74 E18.73592
G1 X144.725 Y131.535 E18.77559
G1 X144.718 Y131.67 E18.78233
G1 X144.655 Y132.405 E18.81913
G1 X144.61 Y132.78 E18.83798
G1 X144.425 Y133.859 E18.89259
G1 X144.368 Y134.114 E18.90563
G1 X144.168 Y134.879 E18.94508
G1 X144.09 Y135.138 E18.95857
G1 X143.994 Y135.442 E18.97448
G1 X143.951 Y135.571 E18.98126
G1 X143.619 Y136.439 E19.02763
G1 X143.522 Y136.664 E19.03985
G1 X143.351 Y137.041 E19.0605
G1 X143.289 Y137.171 E19.06769
G1 X142.827 Y138.037 E19.11666
G1 X142.629 Y138.371 E19.13603
G1 X142.065 Y139.229 E19.18725
G1 X141.915 Y139.435 E19.19997
G1 X141.279 Y140.228 E19.25068
G1 X141.018 Y140.524 E19.27037
G1 X140.376 Y141.192 E19.31659
G1 X140.33 Y141.236 E19.31977
G1 X139.619 Y141.859 E19.36693
