;FLAVOR:Marlin
;TIME:6154
;Filament used: 1.0158m
;Layer height: 0.2
;MINX:74.552
;MINY:91.421
;MINZ:0.2
;MAXX:155.964
;MAXY:126.932
;MAXZ:57.2
;Generated with Cura_SteamEngine 4.13.1
M140 S60
M105
M190 S60
M104 S200
M105
M109 S200
M82 ;absolute extrusion mode
; Ender 3 Custom Start G-code
G92 E0 ; Reset Extruder
G28 ; Home all axes
G1 Z2.0 F3000 ; Move Z Axis up little to prevent scratching of Heat Bed
G1 X0.1 Y20 Z0.3 F5000.0 ; Move to start position
G1 X0.1 Y200.0 Z0.3 F1500.0 E15 ; Draw the first line
G1 X0.4 Y200.0 Z0.3 F5000.0 ; Move to side a little
G1 X0.4 Y20 Z0.3 F1500.0 E30 ; Draw the second line
G92 E0 ; Reset Extruder
G1 Z2.0 F3000 ; Move Z Axis up little to prevent scratching of Heat Bed
G1 X5 Y20 Z0.3 F5000.0 ; Move over to prevent blob squish
G92 E0
G92 E0
G1 F1500 E-6.5
;LAYER_COUNT:286
;LAYER:0
M107
G0 F6000 X79.863 Y103.469 Z0.2
;TYPE:SKIRT
G1 F1500 E0
G1 F1200 X80.632 Y102.933 E0.03118
G1 X81.445 Y102.464 E0.06239
G1 X82.294 Y102.066 E0.09358
G1 X83.174 Y101.742 E0.12477
G1 X84.039 Y101.503 E0.15462
G1 X85.432 Y101.18 E0.20218
G1 X85.775 Y101.105 E0.21386
G1 X88.192 Y100.501 E0.29672
G1 X90.614 Y99.824 E0.38036
G1 X93.02 Y99.077 E0.46415
G1 X95.407 Y98.261 E0.54806
G1 X97.769 Y97.379 E0.63192
G1 X100.108 Y96.429 E0.71588
G1 X102.415 Y95.415 E0.7997
G1 X103.263 Y95.019 E0.83083
G1 X103.863 Y94.749 E0.85271
G1 X104.18 Y94.612 E0.8642
G1 X104.518 Y94.475 E0.87633
G1 X104.741 Y94.389 E0.88428
G1 X105.12 Y94.25 E0.8977
G1 X105.613 Y94.087 E0.91497
G1 X105.922 Y93.993 E0.92572
G1 X106.571 Y93.817 E0.94808
G1 X106.701 Y93.786 E0.95253
G1 X107.069 Y93.705 E0.96506
G1 X107.301 Y93.658 E0.97293
G1 X107.582 Y93.605 E0.98244
G1 X108.066 Y93.52 E0.99879
G1 X109.235 Y93.379 E1.03795
G1 X109.564 Y93.357 E1.04892
G1 X110.593 Y93.336 E1.08315
G1 X111.19 Y93.352 E1.10301
G1 X111.844 Y93.389 E1.1248
G1 X112.545 Y93.451 E1.14821
G1 X113.736 Y93.575 E1.18803
G1 X116.183 Y93.761 E1.26966
G1 X118.739 Y93.882 E1.35476
G1 X121.232 Y93.931 E1.4377
G1 X123.787 Y93.907 E1.52268
G1 X126.283 Y93.814 E1.60576
G1 X128.764 Y93.651 E1.68845
G1 X131.301 Y93.412 E1.77321
G1 X133.793 Y93.106 E1.85671
G1 X136.278 Y92.729 E1.94031
G1 X138.788 Y92.276 E2.02514
G1 X140.953 Y91.824 E2.0987
G1 X141.635 Y91.673 E2.12194
G1 X142.559 Y91.51 E2.15314
G1 X143.493 Y91.425 E2.18434
G1 X144.431 Y91.421 E2.21553
G1 X145.366 Y91.496 E2.24673
G1 X146.291 Y91.651 E2.27793
G1 X147.199 Y91.884 E2.30911
G1 X148.084 Y92.193 E2.34028
G1 X148.94 Y92.577 E2.37149
G1 X149.76 Y93.033 E2.40269
G1 X150.538 Y93.556 E2.43387
G1 X151.269 Y94.144 E2.46508
G1 X151.712 Y94.554 E2.48515
G1 X152.246 Y95.077 E2.51001
G1 X152.517 Y95.352 E2.52285
G1 X152.932 Y95.788 E2.54287
G1 X153.549 Y96.494 E2.57406
G1 X154.103 Y97.251 E2.60526
G1 X154.592 Y98.051 E2.63645
G1 X155.01 Y98.891 E2.66765
G1 X155.355 Y99.763 E2.69884
G1 X155.625 Y100.661 E2.73003
G1 X155.817 Y101.579 E2.76122
G1 X155.93 Y102.51 E2.79242
G1 X155.964 Y103.447 E2.8236
G1 X155.917 Y104.384 E2.85481
G1 X155.791 Y105.313 E2.88599
G1 X155.587 Y106.229 E2.9172
G1 X155.305 Y107.123 E2.94838
G1 X154.947 Y107.99 E2.97958
G1 X154.518 Y108.824 E3.01077
G1 X154.019 Y109.618 E3.04196
G1 X153.454 Y110.367 E3.07317
G1 X152.889 Y111.001 E3.10141
G1 X152.76 Y111.135 E3.1076
G1 X152.561 Y111.336 E3.11701
G1 X152.251 Y111.641 E3.13147
G1 X151.817 Y112.06 E3.15153
G1 X150.783 Y113.024 E3.19855
G1 X148.913 Y114.812 E3.28461
G1 X147.159 Y116.589 E3.36765
G1 X144.686 Y119.266 E3.48887
G1 X143.947 Y120.099 E3.5259
G1 X143.305 Y120.799 E3.55749
G1 X142.934 Y121.195 E3.57554
G1 X142.36 Y121.789 E3.60302
G1 X142.072 Y122.078 E3.61659
G1 X141.407 Y122.723 E3.6474
G1 X141.179 Y122.937 E3.6578
G1 X140.956 Y123.14 E3.66783
G1 X140.643 Y123.418 E3.68175
G1 X139.916 Y124.011 E3.71296
G1 X139.141 Y124.539 E3.74415
G1 X138.324 Y124.999 E3.77533
G1 X137.47 Y125.388 E3.80654
G1 X136.587 Y125.703 E3.83773
G1 X135.68 Y125.942 E3.86892
G1 X134.756 Y126.102 E3.90011
G1 X133.821 Y126.183 E3.93133
G1 X132.946 Y126.187 E3.96043
G1 X131.759 Y126.145 E3.99993
G1 X129.22 Y126.09 E4.0844
G1 X126.66 Y126.107 E4.16955
G1 X124.151 Y126.195 E4.25305
G1 X122.734 Y126.281 E4.30027
G1 X122.269 Y126.302 E4.31575
G1 X121.034 Y126.288 E4.35683
G1 X120.274 Y126.236 E4.38216
G1 X118.788 Y126.113 E4.43176
G1 X116.294 Y125.98 E4.51483
G1 X113.799 Y125.916 E4.59784
G1 X111.274 Y125.924 E4.68182
G1 X108.75 Y126.003 E4.76581
G1 X106.234 Y126.153 E4.84964
G1 X103.723 Y126.374 E4.93348
G1 X101.22 Y126.666 E5.01729
G1 X100.652 Y126.746 E5.03637
G1 X99.816 Y126.853 E5.0644
G1 X98.881 Y126.932 E5.09561
G1 X97.943 Y126.932 E5.12681
G1 X96.697 Y126.806 E5.16846
G1 X96.043 Y126.702 E5.19049
G1 X94.39 Y126.418 E5.24627
G1 X91.95 Y126.069 E5.32826
G1 X89.423 Y125.78 E5.41285
G1 X86.16 Y125.511 E5.52175
G1 X85.23 Y125.394 E5.55292
G1 X84.312 Y125.199 E5.58414
G1 X83.331 Y124.896 E5.61829
G1 X83.087 Y124.808 E5.62691
G1 X82.219 Y124.452 E5.65812
G1 X81.385 Y124.024 E5.6893
G1 X80.59 Y123.526 E5.7205
G1 X79.84 Y122.963 E5.75169
G1 X79.196 Y122.39 E5.78036
G1 X78.818 Y122.023 E5.79788
G1 X78.538 Y121.74 E5.81112
G1 X77.988 Y121.169 E5.83749
G1 X77.77 Y120.936 E5.8481
G1 X77.42 Y120.551 E5.86541
G1 X76.744 Y119.732 E5.90073
G1 X76.214 Y118.958 E5.93193
G1 X75.751 Y118.142 E5.96314
G1 X75.36 Y117.29 E5.99432
G1 X75.043 Y116.407 E6.02552
G1 X74.802 Y115.501 E6.0567
G1 X74.639 Y114.577 E6.08791
G1 X74.556 Y113.643 E6.1191
G1 X74.552 Y112.705 E6.15029
G1 X74.629 Y111.771 E6.18146
G1 X74.784 Y110.846 E6.21266
G1 X75.018 Y109.938 E6.24385
G1 X75.328 Y109.052 E6.27507
G1 X75.713 Y108.197 E6.30625
G1 X76.169 Y107.378 E6.33743
G1 X76.693 Y106.6 E6.36863
G1 X77.282 Y105.87 E6.39983
G1 X77.805 Y105.315 E6.42519
G1 X78.153 Y104.973 E6.44142
G1 X78.392 Y104.747 E6.45236
G1 X78.747 Y104.423 E6.46835
G1 X79.142 Y104.069 E6.48599
G1 X79.863 Y103.469 E6.51718
G0 F6000 X80.119 Y103.777
G1 F1200 X80.875 Y103.252 E6.5478
G1 X81.675 Y102.795 E6.57844
G1 X82.511 Y102.409 E6.60907
G1 X83.377 Y102.098 E6.63967
G1 X84.13 Y101.893 E6.66563
G1 X85.517 Y101.571 E6.71299
G1 X85.86 Y101.496 E6.72466
G1 X88.282 Y100.891 E6.8077
G1 X90.744 Y100.202 E6.89273
G1 X93.131 Y99.461 E6.97586
G1 X95.56 Y98.631 E7.06123
G1 X97.892 Y97.76 E7.14403
G1 X100.271 Y96.795 E7.22942
G1 X102.584 Y95.778 E7.31346
G1 X103.427 Y95.384 E7.34441
G1 X104.027 Y95.114 E7.36629
G1 X104.336 Y94.98 E7.37749
G1 X104.662 Y94.848 E7.38919
G1 X104.885 Y94.762 E7.39714
G1 X105.254 Y94.627 E7.41021
G1 X105.729 Y94.47 E7.42685
G1 X106.038 Y94.376 E7.43759
G1 X106.664 Y94.206 E7.45916
G1 X106.794 Y94.175 E7.46361
G1 X107.148 Y94.097 E7.47567
G1 X107.38 Y94.05 E7.48354
G1 X107.651 Y93.999 E7.49271
G1 X108.135 Y93.914 E7.50905
G1 X109.262 Y93.778 E7.54681
G1 X109.591 Y93.756 E7.55778
G1 X110.582 Y93.736 E7.59074
G1 X111.179 Y93.752 E7.61061
G1 X111.81 Y93.788 E7.63163
G1 X112.503 Y93.849 E7.65477
G1 X113.662 Y93.97 E7.69353
G1 X116.205 Y94.163 E7.77835
G1 X118.712 Y94.282 E7.86183
G1 X121.228 Y94.331 E7.94553
G1 X123.77 Y94.307 E8.03008
G1 X126.323 Y94.212 E8.11505
G1 X128.826 Y94.048 E8.19848
G1 X131.316 Y93.813 E8.28166
G1 X133.87 Y93.499 E8.36725
G1 X136.338 Y93.125 E8.45027
G1 X138.834 Y92.674 E8.53463
G1 X141.12 Y92.197 E8.6123
G1 X141.722 Y92.064 E8.63281
G1 X142.629 Y91.904 E8.66344
G1 X143.546 Y91.823 E8.69406
G1 X144.466 Y91.823 E8.72466
G1 X145.384 Y91.902 E8.7553
G1 X146.291 Y92.06 E8.78593
G1 X147.18 Y92.297 E8.81653
G1 X148.046 Y92.609 E8.84714
G1 X148.882 Y92.996 E8.87778
G1 X149.68 Y93.454 E8.90839
G1 X150.436 Y93.979 E8.939
G1 X151.432 Y94.84 E8.98279
G1 X151.966 Y95.363 E9.00765
G1 X152.227 Y95.628 E9.02002
G1 X152.642 Y96.064 E9.04004
G1 X153.247 Y96.758 E9.07066
G1 X153.79 Y97.501 E9.10127
G1 X154.266 Y98.289 E9.13189
G1 X154.672 Y99.116 E9.16253
G1 X155.005 Y99.974 E9.19314
G1 X155.262 Y100.858 E9.22376
G1 X155.441 Y101.761 E9.25438
G1 X155.541 Y102.676 E9.28499
G1 X155.562 Y103.597 E9.31563
G1 X155.502 Y104.515 E9.34623
G1 X155.363 Y105.426 E9.37688
G1 X155.146 Y106.32 E9.40748
G1 X154.852 Y107.193 E9.43812
G1 X154.483 Y108.036 E9.46873
G1 X154.042 Y108.844 E9.49934
G1 X153.533 Y109.612 E9.52999
G1 X152.959 Y110.332 E9.56061
G1 X152.6 Y110.724 E9.57829
G1 X152.28 Y111.052 E9.59353
G1 X151.973 Y111.353 E9.60783
G1 X151.4 Y111.904 E9.63427
G1 X150.518 Y112.725 E9.67435
G1 X148.617 Y114.542 E9.76182
G1 X146.877 Y116.304 E9.84418
G1 X144.378 Y119.011 E9.96671
G1 X143.519 Y119.976 E10.00968
G1 X142.954 Y120.589 E10.03741
G1 X142.645 Y120.918 E10.05242
G1 X142.203 Y121.377 E10.07362
G1 X141.788 Y121.795 E10.09321
G1 X141.661 Y121.921 E10.09916
G1 X141.133 Y122.431 E10.12357
G1 X140.905 Y122.645 E10.13397
G1 X140.69 Y122.841 E10.14365
G1 X140.377 Y123.119 E10.15757
G1 X139.663 Y123.7 E10.18819
G1 X138.901 Y124.217 E10.21882
G1 X138.097 Y124.666 E10.24945
G1 X137.257 Y125.043 E10.28007
G1 X136.388 Y125.346 E10.31068
G1 X135.495 Y125.572 E10.34132
G1 X134.587 Y125.72 E10.37192
G1 X133.669 Y125.789 E10.40254
G1 X132.96 Y125.787 E10.42612
G1 X131.853 Y125.748 E10.46296
G1 X129.19 Y125.69 E10.55155
G1 X126.679 Y125.707 E10.63507
G1 X124.111 Y125.797 E10.72053
G1 X122.716 Y125.881 E10.76702
G1 X122.251 Y125.902 E10.7825
G1 X121.061 Y125.889 E10.82208
G1 X120.307 Y125.837 E10.84722
G1 X118.843 Y125.716 E10.89608
G1 X116.325 Y125.582 E10.97994
G1 X113.773 Y125.517 E11.06485
G1 X111.261 Y125.525 E11.1484
G1 X108.713 Y125.604 E11.23319
G1 X106.212 Y125.753 E11.31652
G1 X103.674 Y125.976 E11.40126
G1 X101.194 Y126.266 E11.48431
G1 X100.601 Y126.349 E11.50422
G1 X99.765 Y126.456 E11.53225
G1 X98.847 Y126.533 E11.56289
G1 X97.927 Y126.531 E11.59349
G1 X96.759 Y126.411 E11.63255
G1 X96.111 Y126.308 E11.65437
G1 X94.444 Y126.021 E11.71063
G1 X91.981 Y125.669 E11.79338
G1 X89.472 Y125.382 E11.87738
G1 X86.193 Y125.112 E11.9868
G1 X85.28 Y124.997 E12.01741
G1 X84.38 Y124.803 E12.04803
G1 X83.467 Y124.519 E12.07983
G1 X83.223 Y124.431 E12.08846
G1 X82.371 Y124.082 E12.11908
G1 X81.553 Y123.659 E12.14971
G1 X80.775 Y123.168 E12.18031
G1 X80.042 Y122.61 E12.21095
G1 X79.473 Y122.102 E12.23632
G1 X79.292 Y121.928 E12.24467
G1 X79.103 Y121.741 E12.25352
G1 X78.725 Y121.358 E12.27141
G1 X78.276 Y120.892 E12.29294
G1 X78.066 Y120.667 E12.30317
G1 X77.716 Y120.282 E12.32048
G1 X77.064 Y119.492 E12.35455
G1 X76.544 Y118.732 E12.38518
G1 X76.092 Y117.93 E12.4158
G1 X75.711 Y117.092 E12.44641
G1 X75.405 Y116.224 E12.47702
G1 X75.175 Y115.332 E12.50766
G1 X75.023 Y114.424 E12.53828
G1 X74.951 Y113.506 E12.56891
G1 X74.958 Y112.586 E12.59951
G1 X75.045 Y111.669 E12.63015
G1 X75.212 Y110.764 E12.66075
G1 X75.456 Y109.876 E12.69138
G1 X75.777 Y109.013 E12.72201
G1 X76.171 Y108.181 E12.75263
G1 X76.636 Y107.387 E12.78323
G1 X77.168 Y106.635 E12.81387
G1 X77.764 Y105.933 E12.8445
G1 X78.086 Y105.599 E12.85993
G1 X78.288 Y105.399 E12.86938
G1 X78.663 Y105.041 E12.88663
G1 X79.012 Y104.722 E12.90235
G1 X79.246 Y104.515 E12.91274
G1 X79.411 Y104.365 E12.92016
G1 X80.119 Y103.777 E12.95077
G0 F6000 X80.375 Y104.085
G1 F1200 X81.118 Y103.572 E12.9808
G1 X81.904 Y103.127 E13.01084
G1 X82.726 Y102.754 E13.04087
G1 X83.578 Y102.454 E13.07091
G1 X84.221 Y102.282 E13.09305
G1 X85.603 Y101.962 E13.14023
G1 X85.938 Y101.889 E13.15163
G1 X88.382 Y101.279 E13.23541
G1 X90.856 Y100.586 E13.32087
G1 X93.274 Y99.836 E13.40507
G1 X95.692 Y99.009 E13.49007
G1 X98.034 Y98.135 E13.57321
G1 X100.416 Y97.168 E13.65871
G1 X102.752 Y96.141 E13.74359
G1 X103.591 Y95.748 E13.7744
G1 X104.191 Y95.478 E13.79629
G1 X104.492 Y95.348 E13.80719
G1 X104.806 Y95.221 E13.81846
G1 X105.029 Y95.135 E13.82641
G1 X105.389 Y95.003 E13.83916
G1 X105.845 Y94.853 E13.85513
G1 X106.154 Y94.759 E13.86587
G1 X106.757 Y94.595 E13.88665
G1 X106.887 Y94.564 E13.8911
G1 X107.228 Y94.489 E13.90271
G1 X107.46 Y94.442 E13.91058
G1 X107.721 Y94.393 E13.91942
G1 X108.205 Y94.308 E13.93576
G1 X109.288 Y94.177 E13.97204
G1 X109.617 Y94.155 E13.98301
G1 X110.571 Y94.136 E14.01475
G1 X111.168 Y94.152 E14.03461
G1 X111.775 Y94.186 E14.05483
G1 X112.462 Y94.247 E14.07777
G1 X113.627 Y94.369 E14.11673
G1 X116.157 Y94.561 E14.20112
G1 X118.721 Y94.682 E14.28649
G1 X121.223 Y94.731 E14.36973
G1 X123.789 Y94.707 E14.45508
G1 X126.331 Y94.612 E14.53968
G1 X128.854 Y94.446 E14.62378
G1 X131.366 Y94.21 E14.7077
G1 X133.907 Y93.898 E14.79285
G1 X136.432 Y93.515 E14.87779
G1 X138.915 Y93.066 E14.96171
G1 X141.194 Y92.591 E15.03914
G1 X141.808 Y92.455 E15.06006
G1 X142.698 Y92.298 E15.09012
G1 X143.598 Y92.222 E15.12016
G1 X144.501 Y92.225 E15.15019
G1 X145.4 Y92.307 E15.18022
G1 X146.289 Y92.47 E15.21028
G1 X147.159 Y92.71 E15.24029
G1 X148.005 Y93.026 E15.27033
G1 X148.82 Y93.416 E15.30038
G1 X149.597 Y93.876 E15.33041
G1 X150.33 Y94.403 E15.36044
G1 X151.152 Y95.126 E15.39685
G1 X151.686 Y95.649 E15.42171
G1 X151.937 Y95.904 E15.43361
G1 X152.352 Y96.34 E15.45363
G1 X152.945 Y97.021 E15.48367
G1 X153.476 Y97.752 E15.51372
G1 X153.94 Y98.526 E15.54373
G1 X154.333 Y99.339 E15.57377
G1 X154.653 Y100.184 E15.60382
G1 X154.897 Y101.053 E15.63384
G1 X155.063 Y101.941 E15.66389
G1 X155.15 Y102.84 E15.69393
G1 X155.157 Y103.743 E15.72396
G1 X155.084 Y104.643 E15.75399
G1 X154.932 Y105.533 E15.78402
G1 X154.702 Y106.407 E15.81408
G1 X154.395 Y107.256 E15.84411
G1 X154.015 Y108.075 E15.87414
G1 X153.563 Y108.857 E15.90418
G1 X153.045 Y109.597 E15.93422
G1 X152.312 Y110.446 E15.97153
G1 X151.999 Y110.767 E15.98644
G1 X151.696 Y111.065 E16.00058
G1 X151.262 Y111.484 E16.02064
G1 X150.252 Y112.425 E16.06656
G1 X148.338 Y114.255 E16.15463
G1 X146.582 Y116.034 E16.23777
G1 X144.115 Y118.705 E16.3587
G1 X143.349 Y119.568 E16.39708
G1 X142.662 Y120.316 E16.43086
G1 X142.357 Y120.64 E16.44566
G1 X141.793 Y121.224 E16.47267
G1 X141.382 Y121.634 E16.49197
G1 X140.86 Y122.139 E16.51613
G1 X140.632 Y122.353 E16.52653
G1 X140.424 Y122.542 E16.53588
G1 X140.111 Y122.82 E16.5498
G1 X139.41 Y123.39 E16.57985
G1 X138.662 Y123.895 E16.60987
G1 X137.871 Y124.331 E16.63991
G1 X137.045 Y124.696 E16.66995
G1 X136.19 Y124.987 E16.69999
G1 X135.313 Y125.201 E16.73001
G1 X134.42 Y125.336 E16.76005
G1 X133.518 Y125.392 E16.79011
G1 X132.975 Y125.388 E16.80817
G1 X131.806 Y125.346 E16.84708
G1 X129.196 Y125.29 E16.9339
G1 X126.662 Y125.307 E17.01819
G1 X124.112 Y125.396 E17.10305
G1 X122.698 Y125.482 E17.15017
G1 X122.233 Y125.503 E17.16565
G1 X121.088 Y125.49 E17.20374
G1 X120.34 Y125.438 E17.22867
G1 X118.864 Y125.316 E17.27793
G1 X116.356 Y125.182 E17.36147
G1 X113.781 Y125.116 E17.44714
G1 X111.247 Y125.125 E17.53142
G1 X108.714 Y125.203 E17.61571
G1 X106.187 Y125.354 E17.69991
G1 X103.629 Y125.579 E17.78532
G1 X101.132 Y125.87 E17.86893
G1 X100.703 Y125.932 E17.88335
G1 X99.714 Y126.059 E17.91651
G1 X98.814 Y126.134 E17.94655
G1 X97.911 Y126.129 E17.97658
G1 X96.822 Y126.016 E18.013
G1 X96.179 Y125.913 E18.03466
G1 X94.531 Y125.63 E18.09027
G1 X92.051 Y125.275 E18.1736
G1 X89.516 Y124.985 E18.25846
G1 X86.226 Y124.714 E18.36826
G1 X85.33 Y124.6 E18.3983
G1 X84.448 Y124.407 E18.42833
G1 X83.602 Y124.143 E18.45781
G1 X83.358 Y124.055 E18.46643
G1 X82.523 Y123.711 E18.49647
G1 X81.722 Y123.295 E18.52649
G1 X80.96 Y122.81 E18.55653
G1 X80.245 Y122.259 E18.58656
G1 X79.75 Y121.813 E18.60872
G1 X79.569 Y121.639 E18.61707
G1 X79.387 Y121.46 E18.62556
G1 X79.013 Y121.08 E18.64329
G1 X78.564 Y120.614 E18.66481
G1 X78.362 Y120.398 E18.67465
G1 X78.012 Y120.013 E18.69196
G1 X77.384 Y119.252 E18.72477
G1 X76.875 Y118.506 E18.75481
G1 X76.433 Y117.718 E18.78486
G1 X76.063 Y116.894 E18.8149
G1 X75.768 Y116.041 E18.84492
G1 X75.549 Y115.165 E18.87496
G1 X75.408 Y114.273 E18.90499
G1 X75.347 Y113.372 E18.93503
G1 X75.366 Y112.469 E18.96507
G1 X75.464 Y111.571 E18.99511
G1 X75.642 Y110.686 E19.02514
G1 X75.897 Y109.819 E19.0552
G1 X76.228 Y108.979 E19.08523
G1 X76.632 Y108.171 E19.11527
G1 X77.105 Y107.402 E19.1453
G1 X77.645 Y106.679 E19.17531
G1 X78.367 Y105.884 E19.21103
G1 X78.705 Y105.552 E19.22679
G1 X78.935 Y105.335 E19.23731
G1 X79.277 Y105.022 E19.25273
G1 X79.679 Y104.662 E19.27068
G1 X80.375 Y104.085 E19.30075
G1 F1500 E12.80075
;MESH:fish1.stl
G0 F6000 X97.454 Y114.119
G0 X98.145 Y114.945
G0 X98.505 Y115.104
;TYPE:WALL-INNER
G1 F1500 E19.30075
