;FLAVOR:Marlin
;TIME:3557
;Filament used: 4.43383m
;Layer height: 0.2
;MINX:61.606
;MINY:61.606
;MINZ:0.2
;MAXX:158.394
;MAXY:158.403
;MAXZ:41.6
;Generated with Cura_SteamEngine 4.13.1
M140 S60
M105
M190 S60
M104 S200
M105
M109 S200
M82 ;absolute extrusion mode
; Ender 3 Custom Start G-code
G92 E0 ; Reset Extruder
G28 ; Home all axes
G1 Z2.0 F3000 ; Move Z Axis up little to prevent scratching of Heat Bed
G1 X0.1 Y20 Z0.3 F5000.0 ; Move to start position
G1 X0.1 Y200.0 Z0.3 F1500.0 E15 ; Draw the first line
G1 X0.4 Y200.0 Z0.3 F5000.0 ; Move to side a little
G1 X0.4 Y20 Z0.3 F1500.0 E30 ; Draw the second line
G92 E0 ; Reset Extruder
G1 Z2.0 F3000 ; Move Z Axis up little to prevent scratching of Heat Bed
G1 X5 Y20 Z0.3 F5000.0 ; Move over to prevent blob squish
G92 E0
G92 E0
G1 F1500 E-6.5
;LAYER_COUNT:210
;LAYER:0
M107
G0 F6000 X75.566 Y75.986 Z0.2
;TYPE:SKIRT
G1 F1500 E0
G1 F1200 X76.119 Y75.433 E0.03902
G1 X76.325 Y75.232 E0.05338
G1 X76.833 Y74.75 E0.08831
G1 X77.317 Y74.3 E0.12128
G1 X77.92 Y73.755 E0.16183
G1 X78.143 Y73.559 E0.17665
G1 X78.673 Y73.105 E0.21146
G1 X79.192 Y72.673 E0.24515
G1 X79.908 Y72.09 E0.29122
G1 X80.124 Y71.918 E0.30499
G1 X80.52 Y71.613 E0.32993
G1 X81.146 Y71.141 E0.36904
G1 X81.811 Y70.652 E0.41023
G1 X82.081 Y70.459 E0.42678
G1 X82.444 Y70.209 E0.44877
G1 X83.179 Y69.71 E0.4931
G1 X83.809 Y69.295 E0.53073
G1 X84.07 Y69.129 E0.54616
G1 X84.553 Y68.829 E0.57453
G1 X85.239 Y68.414 E0.61453
G1 X86.002 Y67.966 E0.65867
G1 X86.231 Y67.835 E0.67184
G1 X86.647 Y67.605 E0.69555
G1 X87.279 Y67.264 E0.73138
G1 X88.084 Y66.843 E0.7767
G1 X88.352 Y66.708 E0.79167
G1 X88.806 Y66.486 E0.81689
G1 X89.437 Y66.185 E0.85176
G1 X90.274 Y65.799 E0.89775
G1 X90.547 Y65.677 E0.91267
G1 X90.937 Y65.51 E0.93383
G1 X91.597 Y65.235 E0.9695
G1 X92.518 Y64.865 E1.01902
G1 X92.847 Y64.739 E1.0366
G1 X93.814 Y64.386 E1.08796
G1 X94.718 Y64.073 E1.13568
G1 X94.97 Y63.989 E1.14894
G1 X95.353 Y63.867 E1.16899
G1 X96.087 Y63.642 E1.20729
G1 X96.992 Y63.378 E1.25432
G1 X97.269 Y63.301 E1.26867
G1 X97.7 Y63.187 E1.29091
G1 X98.221 Y63.055 E1.31772
G1 X99.262 Y62.803 E1.37116
G1 X99.613 Y62.724 E1.38911
G1 X100.525 Y62.535 E1.43558
G1 X101.393 Y62.369 E1.47967
G1 X101.646 Y62.323 E1.4925
G1 X102.12 Y62.244 E1.51647
G1 X102.708 Y62.152 E1.54616
G1 X103.774 Y62 E1.59988
G1 X104.052 Y61.964 E1.61387
G1 X104.448 Y61.917 E1.63376
G1 X105.17 Y61.84 E1.66999
G1 X106.077 Y61.755 E1.71544
G1 X106.341 Y61.733 E1.72865
G1 X106.697 Y61.709 E1.74645
G1 X107.44 Y61.666 E1.78359
G1 X108.485 Y61.618 E1.83578
G1 X109.064 Y61.606 E1.86467
G1 X111.112 Y61.615 E1.96684
G1 X111.49 Y61.623 E1.98571
G1 X112.454 Y61.659 E2.03383
G1 X112.767 Y61.675 E2.04947
G1 X113.169 Y61.701 E2.06957
G1 X113.946 Y61.76 E2.10844
G1 X114.912 Y61.846 E2.15683
G1 X115.265 Y61.883 E2.17454
G1 X116.158 Y61.992 E2.21942
G1 X117.128 Y62.124 E2.26826
G1 X117.49 Y62.179 E2.28653
G1 X118.403 Y62.334 E2.33273
G1 X119.317 Y62.502 E2.37909
G1 X119.603 Y62.559 E2.39364
G1 X120.102 Y62.664 E2.41908
G1 X120.734 Y62.805 E2.45139
G1 X121.632 Y63.015 E2.4974
G1 X121.954 Y63.095 E2.51395
G1 X122.394 Y63.212 E2.53666
G1 X123.021 Y63.385 E2.56911
G1 X123.997 Y63.665 E2.61977
G1 X124.37 Y63.779 E2.63923
G1 X125.357 Y64.1 E2.69101
G1 X126.133 Y64.365 E2.73192
G1 X126.405 Y64.462 E2.74633
G1 X126.917 Y64.652 E2.77357
G1 X127.61 Y64.917 E2.81059
G1 X128.421 Y65.24 E2.85414
G1 X128.661 Y65.339 E2.86709
G1 X129.177 Y65.559 E2.89508
G1 X129.883 Y65.872 E2.93361
G1 X130.67 Y66.233 E2.97681
G1 X130.911 Y66.347 E2.99011
G1 X131.381 Y66.577 E3.01621
G1 X132.106 Y66.942 E3.05671
G1 X132.828 Y67.318 E3.09732
G1 X133.081 Y67.454 E3.11165
G1 X133.575 Y67.728 E3.13983
G1 X134.084 Y68.016 E3.16901
G1 X134.999 Y68.553 E3.22194
G1 X135.2 Y68.674 E3.23365
G1 X135.628 Y68.94 E3.25879
G1 X136.291 Y69.363 E3.29802
G1 X137.025 Y69.844 E3.3418
G1 X137.293 Y70.025 E3.35794
G1 X137.695 Y70.306 E3.38241
G1 X138.364 Y70.782 E3.42337
G1 X139.074 Y71.302 E3.46728
G1 X139.297 Y71.469 E3.48118
G1 X139.704 Y71.784 E3.50685
G1 X140.276 Y72.238 E3.54329
G1 X140.99 Y72.819 E3.58921
G1 X141.205 Y72.998 E3.60317
G1 X141.568 Y73.309 E3.62702
G1 X142.189 Y73.854 E3.66824
G1 X142.826 Y74.429 E3.71105
G1 X143.298 Y74.871 E3.74331
G1 X143.899 Y75.453 E3.78505
G1 X144.567 Y76.119 E3.83211
G1 X144.767 Y76.324 E3.8464
G1 X145.217 Y76.798 E3.87901
G1 X145.698 Y77.316 E3.91427
G1 X146.244 Y77.92 E3.95489
G1 X146.433 Y78.134 E3.96914
G1 X146.884 Y78.661 E4.00374
G1 X147.291 Y79.148 E4.03541
G1 X147.901 Y79.895 E4.08352
G1 X148.087 Y80.129 E4.09844
G1 X148.394 Y80.526 E4.12347
G1 X148.832 Y81.11 E4.15989
G1 X149.35 Y81.815 E4.20354
G1 X149.541 Y82.081 E4.21988
G1 X149.796 Y82.452 E4.24234
G1 X150.285 Y83.173 E4.2858
G1 X150.7 Y83.802 E4.3234
G1 X150.871 Y84.07 E4.33926
G1 X151.171 Y84.553 E4.36762
G1 X151.586 Y85.239 E4.40762
G1 X152.034 Y86.002 E4.45177
G1 X152.165 Y86.231 E4.46493
G1 X152.392 Y86.642 E4.48835
G1 X152.717 Y87.244 E4.52249
G1 X153.155 Y88.081 E4.56962
G1 X153.292 Y88.352 E4.58477
G1 X153.514 Y88.806 E4.60998
G1 X153.813 Y89.432 E4.64459
G1 X154.211 Y90.294 E4.69196
G1 X154.366 Y90.645 E4.7111
G1 X154.728 Y91.503 E4.75756
G1 X155.095 Y92.413 E4.80651
G1 X155.193 Y92.663 E4.81991
G1 X155.41 Y93.246 E4.85095
G1 X155.612 Y93.807 E4.88069
G1 X155.926 Y94.713 E4.92853
G1 X156.087 Y95.206 E4.95441
G1 X156.311 Y95.93 E4.99221
G1 X156.617 Y96.975 E5.04654
G1 X156.693 Y97.248 E5.06068
G1 X156.813 Y97.699 E5.08396
G1 X156.948 Y98.23 E5.1113
G1 X157.199 Y99.271 E5.16472
G1 X157.275 Y99.612 E5.18215
G1 X157.463 Y100.516 E5.22821
G1 X157.63 Y101.386 E5.27241
G1 X157.676 Y101.642 E5.28539
G1 X157.756 Y102.12 E5.30957
G1 X157.848 Y102.708 E5.33926
G1 X158 Y103.774 E5.39298
G1 X158.036 Y104.044 E5.40657
G1 X158.08 Y104.42 E5.42546
G1 X158.16 Y105.17 E5.46309
G1 X158.245 Y106.077 E5.50854
G1 X158.267 Y106.341 E5.52175
G1 X158.291 Y106.693 E5.53935
G1 X158.332 Y107.399 E5.57464
G1 X158.382 Y108.478 E5.62853
G1 X158.394 Y109.06 E5.65757
G1 X158.385 Y111.111 E5.75989
G1 X158.377 Y111.49 E5.77881
G1 X158.341 Y112.454 E5.82693
G1 X158.325 Y112.767 E5.84257
G1 X158.298 Y113.175 E5.86297
G1 X158.242 Y113.907 E5.8996
G1 X158.154 Y114.903 E5.94948
G1 X158.117 Y115.262 E5.96749
G1 X158.008 Y116.158 E6.01252
G1 X157.876 Y117.128 E6.06136
G1 X157.821 Y117.49 E6.07962
G1 X157.666 Y118.401 E6.12573
G1 X157.498 Y119.316 E6.17214
G1 X157.44 Y119.61 E6.18709
G1 X157.336 Y120.102 E6.21218
G1 X157.195 Y120.734 E6.24448
G1 X156.985 Y121.632 E6.29049
G1 X156.905 Y121.952 E6.30695
G1 X156.813 Y122.298 E6.32481
G1 X156.616 Y123.018 E6.36205
G1 X156.336 Y123.995 E6.41276
G1 X156.22 Y124.375 E6.43258
G1 X155.9 Y125.357 E6.48411
G1 X155.635 Y126.133 E6.52502
G1 X155.542 Y126.396 E6.53894
G1 X155.35 Y126.915 E6.56654
G1 X155.094 Y127.583 E6.60223
G1 X154.754 Y128.436 E6.64805
G1 X154.551 Y128.921 E6.67428
G1 X154.477 Y129.094 E6.68366
G1 X154.115 Y129.911 E6.72825
G1 X153.788 Y130.627 E6.76752
G1 X153.668 Y130.881 E6.78153
G1 X153.42 Y131.389 E6.80974
G1 X153.085 Y132.053 E6.84684
G1 X152.688 Y132.816 E6.88975
G1 X152.552 Y133.069 E6.90408
G1 X152.269 Y133.58 E6.93322
G1 X151.883 Y134.257 E6.9721
G1 X151.449 Y134.995 E7.01482
G1 X151.102 Y135.562 E7.04798
G1 X150.652 Y136.268 E7.08975
G1 X150.152 Y137.03 E7.13522
G1 X149.989 Y137.272 E7.14978
G1 X149.696 Y137.693 E7.17537
G1 X149.246 Y138.325 E7.21407
G1 X148.7 Y139.071 E7.2602
G1 X148.531 Y139.297 E7.27427
G1 X148.216 Y139.704 E7.29995
G1 X147.762 Y140.276 E7.33638
G1 X147.181 Y140.99 E7.38231
G1 X147.002 Y141.205 E7.39627
G1 X146.69 Y141.568 E7.42015
G1 X146.171 Y142.16 E7.45942
G1 X145.575 Y142.821 E7.50383
G1 X145.405 Y143.005 E7.51633
G1 X145.003 Y143.43 E7.54551
G1 X144.434 Y144.014 E7.58619
G1 X143.881 Y144.567 E7.62521
G1 X143.678 Y144.764 E7.63932
G1 X143.201 Y145.218 E7.67217
G1 X142.708 Y145.676 E7.70575
G1 X142.086 Y146.239 E7.7476
G1 X141.857 Y146.441 E7.76284
G1 X141.327 Y146.895 E7.79765
G1 X140.808 Y147.327 E7.83134
G1 X140.092 Y147.91 E7.87741
G1 X139.876 Y148.082 E7.89118
G1 X139.48 Y148.387 E7.91612
G1 X138.854 Y148.859 E7.95523
G1 X138.189 Y149.348 E7.99642
G1 X137.919 Y149.541 E8.01297
G1 X137.556 Y149.791 E8.03496
G1 X136.821 Y150.29 E8.07928
G1 X136.191 Y150.705 E8.11692
G1 X135.93 Y150.871 E8.13235
G1 X135.447 Y151.171 E8.16072
G1 X134.761 Y151.586 E8.20072
G1 X133.998 Y152.034 E8.24486
G1 X133.769 Y152.165 E8.25803
G1 X133.353 Y152.395 E8.28174
G1 X132.721 Y152.736 E8.31757
G1 X131.916 Y153.157 E8.36289
G1 X131.648 Y153.292 E8.37786
G1 X131.194 Y153.514 E8.40307
G1 X130.563 Y153.815 E8.43795
G1 X129.7 Y154.213 E8.48537
G1 X129.432 Y154.333 E8.50002
G1 X129.118 Y154.467 E8.51705
G1 X128.318 Y154.801 E8.5603
G1 X127.587 Y155.095 E8.59961
G1 X127.337 Y155.193 E8.61301
G1 X126.753 Y155.411 E8.64411
G1 X126.173 Y155.619 E8.67485
G1 X125.274 Y155.93 E8.72231
G1 X124.805 Y156.084 E8.74693
G1 X123.918 Y156.356 E8.79322
G1 X123.015 Y156.62 E8.84016
G1 X122.739 Y156.697 E8.85445
G1 X122.301 Y156.813 E8.87706
G1 X121.77 Y156.948 E8.90439
G1 X120.729 Y157.199 E8.95782
G1 X120.388 Y157.275 E8.97525
G1 X119.484 Y157.463 E9.02131
G1 X118.614 Y157.63 E9.06551
G1 X118.353 Y157.677 E9.07874
G1 X117.882 Y157.755 E9.10256
G1 X117.133 Y157.871 E9.14037
G1 X116.226 Y158 E9.18608
G1 X115.944 Y158.037 E9.20027
G1 X115.551 Y158.083 E9.22001
G1 X114.83 Y158.16 E9.25618
G1 X113.924 Y158.245 E9.30158
G1 X113.659 Y158.267 E9.31485
G1 X113.281 Y158.292 E9.33375
G1 X112.795 Y158.318 E9.35803
G1 X110.911 Y158.392 E9.45209
G1 X110.488 Y158.401 E9.4732
G1 X109.66 Y158.403 E9.51451
G1 X109.341 Y158.399 E9.53043
G1 X108.387 Y158.374 E9.57804
G1 X107.531 Y158.34 E9.62078
G1 X107.247 Y158.325 E9.63497
G1 X106.84 Y158.299 E9.65531
G1 X106.053 Y158.24 E9.69469
G1 X105.088 Y158.154 E9.74302
G1 X104.736 Y158.117 E9.76068
G1 X104.021 Y158.031 E9.79661
G1 X102.874 Y157.876 E9.85435
G1 X102.513 Y157.821 E9.87257
G1 X101.594 Y157.665 E9.91908
G1 X100.681 Y157.497 E9.96539
G1 X100.397 Y157.441 E9.97983
G1 X99.898 Y157.336 E10.00527
G1 X99.257 Y157.193 E10.03804
G1 X98.358 Y156.982 E10.08411
G1 X98.045 Y156.904 E10.1002
G1 X97.62 Y156.791 E10.12214
G1 X96.979 Y156.615 E10.15531
G1 X96.003 Y156.335 E10.20596
G1 X95.63 Y156.221 E10.22542
G1 X94.647 Y155.901 E10.277
G1 X93.867 Y155.635 E10.31811
G1 X93.58 Y155.533 E10.33331
G1 X93.083 Y155.348 E10.35976
G1 X92.387 Y155.082 E10.39694
G1 X91.564 Y154.754 E10.44114
G1 X91.327 Y154.656 E10.45393
G1 X90.846 Y154.451 E10.48002
G1 X90.089 Y154.115 E10.52134
G1 X89.371 Y153.787 E10.56072
G1 X89.095 Y153.657 E10.57594
G1 X88.617 Y153.423 E10.60249
G1 X87.903 Y153.063 E10.64239
G1 X87.151 Y152.671 E10.6847
G1 X86.901 Y152.536 E10.69887
G1 X86.427 Y152.273 E10.72591
G1 X85.74 Y151.882 E10.76535
G1 X85.004 Y151.449 E10.80795
G1 X84.521 Y151.154 E10.83619
G1 X83.709 Y150.637 E10.88422
G1 X82.975 Y150.156 E10.928
G1 X82.707 Y149.975 E10.94413
G1 X82.305 Y149.694 E10.9686
G1 X81.636 Y149.218 E11.00956
G1 X80.926 Y148.698 E11.05347
G1 X80.703 Y148.531 E11.06737
G1 X80.296 Y148.216 E11.09305
G1 X79.724 Y147.762 E11.12948
G1 X79.01 Y147.181 E11.1754
G1 X78.792 Y146.999 E11.18957
G1 X78.432 Y146.691 E11.21321
G1 X77.811 Y146.146 E11.25443
G1 X77.174 Y145.571 E11.29724
G1 X76.7 Y145.127 E11.32965
G1 X75.986 Y144.434 E11.37929
G1 X75.395 Y143.843 E11.42098
G1 X75.197 Y143.64 E11.43513
G1 X74.866 Y143.291 E11.45913
G1 X74.274 Y142.655 E11.50248
G1 X73.754 Y142.08 E11.54116
G1 X73.559 Y141.858 E11.5559
G1 X73.149 Y141.379 E11.58735
G1 X72.626 Y140.751 E11.62813
G1 X72.115 Y140.123 E11.66852
G1 X71.942 Y139.906 E11.68237
G1 X71.587 Y139.446 E11.71135
G1 X71.148 Y138.863 E11.74776
G1 X70.658 Y138.198 E11.78897
G1 X70.454 Y137.912 E11.8065
G1 X70.206 Y137.553 E11.82827
G1 X69.714 Y136.827 E11.87202
G1 X69.299 Y136.198 E11.90962
G1 X69.128 Y135.93 E11.92548
G1 X68.825 Y135.442 E11.95414
G1 X68.411 Y134.756 E11.99411
G1 X67.963 Y133.992 E12.0383
G1 X67.82 Y133.742 E12.05267
G1 X67.604 Y133.349 E12.07504
G1 X67.266 Y132.722 E12.11058
G1 X66.847 Y131.922 E12.15563
G1 X66.708 Y131.647 E12.171
G1 X66.494 Y131.211 E12.19524
G1 X66.261 Y130.726 E12.22208
G1 X65.787 Y129.7 E12.27847
G1 X65.638 Y129.363 E12.29685
G1 X65.274 Y128.502 E12.34349
G1 X65.19 Y128.298 E12.35449
G1 X64.899 Y127.571 E12.39356
G1 X64.813 Y127.351 E12.40534
G1 X64.588 Y126.75 E12.43736
G1 X64.379 Y126.168 E12.46821
G1 X64.07 Y125.275 E12.51536
G1 X63.904 Y124.765 E12.54211
G1 X63.689 Y124.07 E12.57841
G1 X63.379 Y123.012 E12.63341
G1 X63.303 Y122.739 E12.64755
G1 X63.191 Y122.314 E12.66948
G1 X63.04 Y121.723 E12.69991
G1 X62.794 Y120.699 E12.75245
G1 X62.72 Y120.368 E12.76937
G1 X62.529 Y119.449 E12.8162
G1 X62.367 Y118.599 E12.85937
G1 X62.322 Y118.346 E12.87219
G1 X62.234 Y117.815 E12.89904
G1 X62.129 Y117.132 E12.93352
G1 X62 Y116.225 E12.97923
G1 X61.964 Y115.952 E12.99296
G1 X61.917 Y115.552 E13.01306
G1 X61.84 Y114.83 E13.04928
G1 X61.755 Y113.923 E13.09473
G1 X61.733 Y113.659 E13.10795
G1 X61.709 Y113.303 E13.12575
G1 X61.666 Y112.561 E13.16283
G1 X61.618 Y111.519 E13.21487
G1 X61.606 Y110.94 E13.24376
G1 X61.615 Y108.889 E13.34609
G1 X61.623 Y108.499 E13.36555
G1 X61.661 Y107.506 E13.41513
G1 X61.694 Y106.945 E13.44316
G1 X61.746 Y106.224 E13.47923
G1 X61.846 Y105.088 E13.53612
G1 X61.883 Y104.738 E13.55368
G1 X61.992 Y103.842 E13.59871
G1 X62.124 Y102.872 E13.64755
G1 X62.179 Y102.51 E13.66582
G1 X62.334 Y101.599 E13.71192
G1 X62.502 Y100.684 E13.75833
G1 X62.56 Y100.39 E13.77329
G1 X62.664 Y99.898 E13.79837
G1 X62.805 Y99.266 E13.83068
G1 X63.015 Y98.368 E13.87669
G1 X63.111 Y97.989 E13.89619
G1 X63.384 Y96.982 E13.94825
G1 X63.664 Y96.005 E13.99895
G1 X63.78 Y95.625 E14.01877
G1 X64.098 Y94.648 E14.07003
G1 X64.366 Y93.862 E14.11146
G1 X64.468 Y93.577 E14.12657
G1 X64.654 Y93.075 E14.15328
G1 X64.918 Y92.387 E14.19004
G1 X65.246 Y91.564 E14.23424
G1 X65.344 Y91.327 E14.24704
G1 X65.553 Y90.838 E14.27357
G1 X65.885 Y90.089 E14.31444
G1 X66.212 Y89.373 E14.35371
G1 X66.332 Y89.119 E14.36773
G1 X66.579 Y88.613 E14.39582
G1 X66.94 Y87.898 E14.43578
G1 X67.332 Y87.147 E14.47804
G1 X67.464 Y86.902 E14.49193
G1 X67.719 Y86.442 E14.51817
G1 X68.125 Y85.727 E14.55919
G1 X68.56 Y84.99 E14.60188
G1 X68.84 Y84.532 E14.62867
G1 X69.363 Y83.71 E14.67727
G1 X69.844 Y82.976 E14.72105
G1 X70.029 Y82.702 E14.73755
G1 X70.305 Y82.308 E14.76155
G1 X70.782 Y81.637 E14.80262
G1 X71.302 Y80.927 E14.84653
G1 X71.458 Y80.719 E14.8595
G1 X71.792 Y80.286 E14.88678
G1 X72.238 Y79.725 E14.92254
G1 X72.819 Y79.011 E14.96846
G1 X73.001 Y78.793 E14.98263
G1 X73.302 Y78.442 E15.0057
G1 X73.854 Y77.811 E15.04753
G1 X74.429 Y77.174 E15.09034
G1 X74.873 Y76.7 E15.12274
G1 X75.566 Y75.986 E15.17238
G0 F6000 X75.991 Y76.411
G1 F1200 X76.544 Y75.858 E15.2114
G1 X76.739 Y75.667 E15.22502
G1 X77.242 Y75.189 E15.25963
G1 X77.719 Y74.745 E15.29215
G1 X78.322 Y74.2 E15.3327
G1 X78.534 Y74.014 E15.34677
G1 X79.058 Y73.566 E15.38116
G1 X79.571 Y73.139 E15.41446
G1 X80.287 Y72.556 E15.46053
G1 X80.492 Y72.392 E15.47362
G1 X80.882 Y72.092 E15.49817
G1 X81.502 Y71.625 E15.5369
G1 X82.167 Y71.136 E15.57808
G1 X82.423 Y70.953 E15.59378
G1 X82.782 Y70.705 E15.61555
G1 X83.509 Y70.211 E15.6594
G1 X84.139 Y69.796 E15.69704
G1 X84.386 Y69.638 E15.71166
G1 X84.864 Y69.342 E15.73971
G1 X85.543 Y68.931 E15.77931
G1 X86.306 Y68.483 E15.82345
G1 X86.523 Y68.359 E15.83592
G1 X86.932 Y68.133 E15.85924
G1 X87.557 Y67.796 E15.89466
G1 X88.362 Y67.375 E15.93998
G1 X88.616 Y67.246 E15.9542
G1 X89.064 Y67.027 E15.97907
G1 X89.688 Y66.73 E16.01355
G1 X90.525 Y66.344 E16.05954
G1 X90.784 Y66.229 E16.07368
G1 X91.169 Y66.063 E16.09459
