;FLAVOR:Marlin
;TIME:1949
;Filament used: 2.34728m
;Layer height: 0.2
;MINX:70.145
;MINY:70.136
;MINZ:0.2
;MAXX:149.855
;MAXY:149.866
;MAXZ:34.6
;Generated with Cura_SteamEngine 4.13.1
M140 S60
M105
M190 S60
M104 S200
M105
M109 S200
M82 ;absolute extrusion mode
; Ender 3 Custom Start G-code
G92 E0 ; Reset Extruder
G28 ; Home all axes
G1 Z2.0 F3000 ; Move Z Axis up little to prevent scratching of Heat Bed
G1 X0.1 Y20 Z0.3 F5000.0 ; Move to start position
G1 X0.1 Y200.0 Z0.3 F1500.0 E15 ; Draw the first line
G1 X0.4 Y200.0 Z0.3 F5000.0 ; Move to side a little
G1 X0.4 Y20 Z0.3 F1500.0 E30 ; Draw the second line
G92 E0 ; Reset Extruder
G1 Z2.0 F3000 ; Move Z Axis up little to prevent scratching of Heat Bed
G1 X5 Y20 Z0.3 F5000.0 ; Move over to prevent blob squish
G92 E0
G92 E0
G1 F1500 E-6.5
;LAYER_COUNT:175
;LAYER:0
M107
G0 F6000 X81.525 Y82.102 Z0.2
;TYPE:SKIRT
G1 F1500 E0
G1 F1200 X82.106 Y81.521 E0.04099
G1 X82.321 Y81.312 E0.05595
G1 X82.754 Y80.901 E0.08574
G1 X82.957 Y80.713 E0.09954
G1 X83.575 Y80.154 E0.14111
G1 X83.787 Y79.967 E0.15522
G1 X84.189 Y79.621 E0.18168
G1 X84.409 Y79.436 E0.19602
G1 X85.201 Y78.788 E0.24707
G1 X85.45 Y78.59 E0.26294
G1 X85.745 Y78.362 E0.28155
G1 X85.963 Y78.198 E0.29516
G1 X86.788 Y77.591 E0.34626
G1 X87.046 Y77.406 E0.36209
G1 X87.489 Y77.1 E0.38896
G1 X87.757 Y76.921 E0.40503
G1 X88.424 Y76.481 E0.4449
G1 X88.674 Y76.32 E0.45973
G1 X89.196 Y75.996 E0.49039
G1 X89.486 Y75.821 E0.50728
G1 X90.251 Y75.372 E0.55154
G1 X90.484 Y75.239 E0.56492
G1 X90.916 Y75 E0.58955
G1 X91.201 Y74.848 E0.60567
G1 X91.952 Y74.455 E0.64796
G1 X92.265 Y74.297 E0.66545
G1 X92.768 Y74.053 E0.69334
G1 X92.976 Y73.955 E0.70481
G1 X93.751 Y73.598 E0.74738
G1 X94.042 Y73.469 E0.76326
G1 X94.552 Y73.251 E0.79093
G1 X94.78 Y73.156 E0.80326
G1 X95.553 Y72.845 E0.84483
G1 X95.845 Y72.732 E0.86045
G1 X96.279 Y72.571 E0.88354
G1 X96.509 Y72.489 E0.89572
G1 X97.408 Y72.177 E0.9432
G1 X97.725 Y72.072 E0.95986
G1 X98.424 Y71.854 E0.99639
G1 X99.387 Y71.573 E1.04644
G1 X99.758 Y71.472 E1.06562
G1 X100.21 Y71.357 E1.08889
G1 X101.117 Y71.138 E1.13544
G1 X101.399 Y71.074 E1.14987
G1 X101.799 Y70.988 E1.17028
G1 X102.05 Y70.937 E1.18306
G1 X102.952 Y70.764 E1.22888
G1 X103.206 Y70.718 E1.24176
G1 X103.622 Y70.649 E1.26279
G1 X103.973 Y70.596 E1.2805
G1 X104.926 Y70.461 E1.32852
G1 X105.406 Y70.4 E1.35266
G1 X105.78 Y70.359 E1.37143
G1 X106.752 Y70.268 E1.42014
G1 X107.196 Y70.233 E1.44236
G1 X107.589 Y70.211 E1.462
G1 X109.253 Y70.146 E1.54508
G1 X109.685 Y70.137 E1.56663
G1 X110.36 Y70.136 E1.60031
G1 X110.673 Y70.14 E1.61593
G1 X111.147 Y70.153 E1.63958
G1 X112.123 Y70.192 E1.68832
G1 X112.468 Y70.211 E1.70555
G1 X113.156 Y70.261 E1.73997
G1 X114.042 Y70.34 E1.78435
G1 X114.361 Y70.373 E1.80035
G1 X114.949 Y70.444 E1.8299
G1 X115.866 Y70.569 E1.87607
G1 X116.178 Y70.616 E1.89181
G1 X116.543 Y70.676 E1.91026
G1 X117.712 Y70.89 E1.96955
G1 X118.022 Y70.951 E1.98532
G1 X118.487 Y71.05 E2.00904
G1 X118.725 Y71.103 E2.0212
G1 X119.618 Y71.313 E2.06697
G1 X119.967 Y71.401 E2.08492
G1 X120.656 Y71.588 E2.12054
G1 X121.531 Y71.84 E2.16597
G1 X121.853 Y71.938 E2.18276
G1 X122.515 Y72.152 E2.21747
G1 X123.288 Y72.416 E2.25823
G1 X123.561 Y72.513 E2.27268
G1 X124.099 Y72.712 E2.3013
G1 X124.357 Y72.811 E2.31508
G1 X125.147 Y73.125 E2.3575
G1 X125.46 Y73.255 E2.37441
G1 X125.997 Y73.487 E2.40359
G1 X126.22 Y73.586 E2.41576
G1 X126.972 Y73.93 E2.45702
G1 X127.233 Y74.053 E2.47141
G1 X127.696 Y74.279 E2.49712
G1 X128.148 Y74.509 E2.52242
G1 X128.89 Y74.896 E2.56417
G1 X129.201 Y75.064 E2.58181
G1 X129.666 Y75.325 E2.60841
G1 X129.861 Y75.437 E2.61963
G1 X130.554 Y75.844 E2.65972
G1 X130.816 Y76.003 E2.67501
G1 X131.329 Y76.323 E2.70518
G1 X131.544 Y76.46 E2.7179
G1 X132.225 Y76.906 E2.75851
G1 X132.518 Y77.104 E2.77615
G1 X133.041 Y77.47 E2.808
G1 X133.233 Y77.608 E2.8198
G1 X133.969 Y78.146 E2.86528
G1 X134.268 Y78.371 E2.88395
G1 X134.681 Y78.694 E2.91011
G1 X134.862 Y78.839 E2.92168
G1 X135.511 Y79.368 E2.96345
G1 X135.711 Y79.535 E2.97645
G1 X136.132 Y79.895 E3.00409
G1 X136.393 Y80.126 E3.02147
G1 X137.041 Y80.711 E3.06503
G1 X137.222 Y80.878 E3.07731
G1 X137.671 Y81.304 E3.10819
G1 X137.892 Y81.52 E3.12361
G1 X138.473 Y82.1 E3.16457
G1 X138.689 Y82.322 E3.18002
G1 X139.1 Y82.755 E3.20981
G1 X139.288 Y82.958 E3.22361
G1 X139.847 Y83.576 E3.26518
G1 X140.034 Y83.788 E3.27929
G1 X140.38 Y84.19 E3.30575
G1 X140.565 Y84.41 E3.32009
G1 X141.213 Y85.202 E3.37114
G1 X141.411 Y85.451 E3.38701
G1 X141.74 Y85.879 E3.41395
G1 X141.906 Y86.101 E3.42778
G1 X142.431 Y86.818 E3.47211
G1 X142.61 Y87.07 E3.48753
G1 X142.933 Y87.537 E3.51586
G1 X143.081 Y87.756 E3.52905
G1 X143.524 Y88.429 E3.56925
G1 X143.674 Y88.664 E3.58315
G1 X143.986 Y89.165 E3.6126
G1 X144.194 Y89.51 E3.6327
G1 X144.622 Y90.24 E3.67492
G1 X144.929 Y90.786 E3.70617
G1 X145.082 Y91.066 E3.72209
G1 X145.564 Y91.987 E3.77395
G1 X145.718 Y92.293 E3.79104
G1 X145.954 Y92.78 E3.81804
G1 X146.051 Y92.985 E3.82935
G1 X146.395 Y93.732 E3.87038
G1 X146.523 Y94.02 E3.8861
G1 X146.718 Y94.476 E3.91085
G1 X146.813 Y94.706 E3.92326
G1 X147.171 Y95.596 E3.97112
G1 X147.27 Y95.85 E3.98472
G1 X147.381 Y96.146 E4.00049
G1 X147.475 Y96.406 E4.01429
G1 X147.82 Y97.398 E4.06669
G1 X147.927 Y97.72 E4.08361
G1 X148.082 Y98.212 E4.10935
G1 X148.151 Y98.441 E4.12128
G1 X148.401 Y99.296 E4.16572
G1 X148.484 Y99.593 E4.18111
G1 X148.582 Y99.965 E4.2003
G1 X148.877 Y101.183 E4.26283
G1 X148.939 Y101.449 E4.27645
G1 X149.033 Y101.897 E4.29929
G1 X149.236 Y102.946 E4.3526
G1 X149.314 Y103.389 E4.37504
G1 X149.375 Y103.769 E4.39424
G1 X149.539 Y104.916 E4.45204
G1 X149.58 Y105.24 E4.46834
G1 X149.628 Y105.665 E4.48967
G1 X149.651 Y105.89 E4.50096
G1 X149.735 Y106.792 E4.54615
G1 X149.758 Y107.071 E4.56012
G1 X149.784 Y107.45 E4.57907
G1 X149.799 Y107.711 E4.59212
G1 X149.843 Y108.672 E4.64011
G1 X149.855 Y109.251 E4.669
G1 X149.847 Y110.972 E4.75487
G1 X149.838 Y111.367 E4.77458
G1 X149.81 Y112.086 E4.81048
G1 X149.792 Y112.423 E4.82731
G1 X149.744 Y113.1 E4.86117
G1 X149.662 Y114.031 E4.9078
G1 X149.628 Y114.362 E4.9244
G1 X149.557 Y114.95 E4.95395
G1 X149.432 Y115.867 E5.00012
G1 X149.386 Y116.174 E5.01561
G1 X149.326 Y116.54 E5.03411
G1 X149.286 Y116.768 E5.04566
G1 X149.111 Y117.716 E5.09376
G1 X149.056 Y117.995 E5.10794
G1 X148.958 Y118.461 E5.1317
G1 X148.892 Y118.753 E5.14664
G1 X148.68 Y119.645 E5.19238
G1 X148.62 Y119.886 E5.20477
G1 X148.497 Y120.355 E5.22896
G1 X148.412 Y120.66 E5.24476
G1 X148.16 Y121.534 E5.29014
G1 X148.065 Y121.846 E5.30641
G1 X147.921 Y122.297 E5.33003
G1 X147.848 Y122.517 E5.34159
G1 X147.575 Y123.316 E5.38372
G1 X147.484 Y123.572 E5.39727
G1 X147.306 Y124.052 E5.42281
G1 X147.183 Y124.372 E5.43992
G1 X146.862 Y125.178 E5.4832
G1 X146.74 Y125.473 E5.49912
G1 X146.519 Y125.986 E5.52699
G1 X146.417 Y126.215 E5.5395
G1 X146.083 Y126.946 E5.5796
G1 X145.958 Y127.21 E5.59417
G1 X145.651 Y127.838 E5.62904
G1 X145.506 Y128.122 E5.64495
G1 X145.099 Y128.902 E5.68885
G1 X144.936 Y129.204 E5.70597
G1 X144.681 Y129.659 E5.73199
G1 X144.563 Y129.865 E5.74383
G1 X144.155 Y130.559 E5.784
G1 X143.998 Y130.817 E5.79906
G1 X143.541 Y131.546 E5.84199
G1 X143.108 Y132.207 E5.88141
G1 X142.917 Y132.489 E5.8984
G1 X142.556 Y133.006 E5.92986
G1 X142.406 Y133.215 E5.9427
G1 X141.846 Y133.98 E5.99
G1 X141.636 Y134.259 E6.00742
G1 X141.335 Y134.645 E6.03184
G1 X140.658 Y135.483 E6.08559
G1 X140.422 Y135.766 E6.10397
G1 X140.04 Y136.208 E6.13312
G1 X139.875 Y136.394 E6.14552
G1 X139.29 Y137.042 E6.18908
G1 X139.104 Y137.244 E6.20277
G1 X138.726 Y137.642 E6.23016
G1 X138.481 Y137.893 E6.24766
G1 X137.901 Y138.474 E6.28862
G1 X137.679 Y138.69 E6.30407
G1 X137.246 Y139.101 E6.33385
G1 X137.046 Y139.286 E6.34745
G1 X136.424 Y139.849 E6.3893
G1 X136.199 Y140.048 E6.40429
G1 X135.688 Y140.485 E6.43783
G1 X135.454 Y140.679 E6.453
G1 X134.756 Y141.247 E6.49789
G1 X134.537 Y141.42 E6.51182
G1 X134.183 Y141.693 E6.53412
G1 X133.873 Y141.926 E6.55347
G1 X133.211 Y142.411 E6.59441
G1 X132.94 Y142.603 E6.61098
G1 X132.246 Y143.079 E6.65296
G1 X131.575 Y143.522 E6.69308
G1 X131.325 Y143.683 E6.70791
G1 X130.945 Y143.92 E6.73026
G1 X130.693 Y144.072 E6.74494
G1 X129.74 Y144.633 E6.80011
G1 X129.467 Y144.789 E6.8158
G1 X129.038 Y145.026 E6.84025
G1 X128.805 Y145.151 E6.85344
G1 X128.08 Y145.53 E6.89426
G1 X127.795 Y145.674 E6.91019
G1 X127.256 Y145.937 E6.94011
G1 X127.03 Y146.044 E6.95258
G1 X126.267 Y146.396 E6.9945
G1 X125.96 Y146.533 E7.01128
G1 X125.512 Y146.724 E7.03557
G1 X125.291 Y146.815 E7.0475
G1 X124.378 Y147.182 E7.09659
G1 X124.1 Y147.29 E7.11147
G1 X123.705 Y147.437 E7.1325
G1 X123.446 Y147.53 E7.14623
G1 X122.568 Y147.833 E7.19256
G1 X122.331 Y147.912 E7.20503
G1 X121.92 Y148.043 E7.22655
G1 X121.549 Y148.155 E7.24588
G1 X120.671 Y148.411 E7.29151
G1 X120.24 Y148.53 E7.31382
G1 X119.958 Y148.602 E7.32834
G1 X118.868 Y148.867 E7.3843
G1 X118.523 Y148.946 E7.40196
G1 X117.941 Y149.067 E7.43162
G1 X117.055 Y149.238 E7.47664
G1 X116.783 Y149.287 E7.49042
G1 X116.433 Y149.345 E7.50812
G1 X116.023 Y149.408 E7.52882
G1 X115.295 Y149.513 E7.56552
G1 X114.975 Y149.555 E7.58162
G1 X114.353 Y149.627 E7.61286
G1 X114.07 Y149.656 E7.62705
G1 X113.045 Y149.749 E7.6784
G1 X112.456 Y149.787 E7.70784
G1 X110.721 Y149.855 E7.79447
G1 X110.307 Y149.864 E7.81513
G1 X109.676 Y149.866 E7.84661
G1 X109.327 Y149.862 E7.86402
G1 X108.855 Y149.848 E7.88758
G1 X107.918 Y149.811 E7.93436
G1 X107.601 Y149.794 E7.9502
G1 X107.095 Y149.76 E7.9755
G1 X106.846 Y149.741 E7.98796
G1 X105.959 Y149.662 E8.03239
G1 X105.639 Y149.629 E8.04844
G1 X105.264 Y149.585 E8.06728
G1 X104.133 Y149.432 E8.12422
G1 X103.833 Y149.387 E8.13935
G1 X103.233 Y149.287 E8.1697
G1 X102.285 Y149.112 E8.21779
G1 X101.978 Y149.051 E8.23341
G1 X101.513 Y148.952 E8.25713
G1 X101.264 Y148.896 E8.26986
G1 X100.371 Y148.685 E8.31564
G1 X100.055 Y148.605 E8.3319
G1 X99.344 Y148.414 E8.36863
G1 X98.469 Y148.162 E8.41406
G1 X98.147 Y148.064 E8.43085
G1 X97.697 Y147.92 E8.45442
G1 X96.685 Y147.576 E8.50775
G1 X96.429 Y147.485 E8.5213
G1 X95.949 Y147.307 E8.54685
G1 X95.634 Y147.186 E8.56368
G1 X94.827 Y146.865 E8.60701
G1 X94.52 Y146.737 E8.6236
G1 X93.779 Y146.415 E8.66391
G1 X93.023 Y146.069 E8.70539
G1 X92.762 Y145.946 E8.71979
G1 X92.163 Y145.652 E8.75308
G1 X91.879 Y145.507 E8.76899
G1 X91.099 Y145.1 E8.81288
G1 X90.784 Y144.93 E8.83074
G1 X90.144 Y144.568 E8.86742
G1 X89.448 Y144.16 E8.90767
G1 X89.199 Y144.009 E8.9222
G1 X88.722 Y143.712 E8.95023
G1 X88.453 Y143.54 E8.96616
G1 X87.754 Y143.082 E9.00785
G1 X87.454 Y142.878 E9.02595
G1 X86.935 Y142.514 E9.05758
G1 X86.746 Y142.379 E9.06917
G1 X86.086 Y141.896 E9.10997
G1 X85.857 Y141.724 E9.12426
G1 X85.473 Y141.428 E9.14845
G1 X85.252 Y141.253 E9.16251
G1 X84.507 Y140.649 E9.21036
G1 X84.239 Y140.425 E9.22779
G1 X83.796 Y140.043 E9.25697
G1 X83.604 Y139.874 E9.26973
G1 X82.982 Y139.313 E9.31152
G1 X82.786 Y139.132 E9.32483
G1 X82.324 Y138.693 E9.35663
G1 X82.1 Y138.475 E9.37222
G1 X81.52 Y137.895 E9.41314
G1 X81.312 Y137.681 E9.42803
G1 X80.9 Y137.247 E9.45789
G1 X80.71 Y137.042 E9.47183
G1 X80.153 Y136.426 E9.51326
G1 X79.968 Y136.217 E9.52719
G1 X79.621 Y135.814 E9.55372
G1 X79.422 Y135.576 E9.5692
G1 X78.796 Y134.808 E9.61863
G1 X78.6 Y134.56 E9.6344
G1 X78.268 Y134.129 E9.66154
G1 X78.114 Y133.925 E9.6743
G1 X77.58 Y133.199 E9.71926
G1 X77.392 Y132.936 E9.73539
G1 X77.101 Y132.515 E9.76092
G1 X76.916 Y132.24 E9.77746
G1 X76.483 Y131.584 E9.81667
G1 X76.32 Y131.329 E9.83177
G1 X75.985 Y130.79 E9.86343
G1 X75.806 Y130.492 E9.88077
G1 X75.378 Y129.762 E9.92299
G1 X75.222 Y129.487 E9.93877
G1 X74.92 Y128.935 E9.97016
G1 X74.444 Y128.029 E10.02122
G1 X74.283 Y127.709 E10.03909
G1 X74.028 Y127.183 E10.06825
G1 X73.93 Y126.975 E10.07972
G1 X73.605 Y126.269 E10.1185
G1 X73.492 Y126.016 E10.13232
G1 X73.341 Y125.666 E10.15134
G1 X73.235 Y125.412 E10.16507
G1 X72.824 Y124.393 E10.21989
G1 X72.699 Y124.069 E10.23721
G1 X72.476 Y123.458 E10.26966
G1 X72.172 Y122.58 E10.31602
G1 X72.093 Y122.344 E10.32843
G1 X71.964 Y121.94 E10.34959
G1 X71.843 Y121.544 E10.37025
G1 X71.588 Y120.668 E10.41577
G1 X71.504 Y120.363 E10.43155
G1 X71.413 Y120.015 E10.4495
G1 X71.127 Y118.836 E10.51002
G1 X71.056 Y118.527 E10.52584
G1 X70.976 Y118.15 E10.54507
G1 X70.77 Y117.086 E10.59914
G1 X70.713 Y116.767 E10.6153
G1 X70.627 Y116.24 E10.64194
G1 X70.591 Y116.002 E10.65395
G1 X70.459 Y115.071 E10.70087
G1 X70.419 Y114.755 E10.71676
G1 X70.349 Y114.122 E10.74853
G1 X70.262 Y113.183 E10.79558
G1 X70.238 Y112.885 E10.81049
G1 X70.211 Y112.479 E10.83079
G1 X70.198 Y112.241 E10.84268
G1 X70.157 Y111.344 E10.88748
G1 X70.145 Y110.766 E10.91633
G1 X70.153 Y109.03 E11.00294
G1 X70.162 Y108.632 E11.0228
G1 X70.19 Y107.919 E11.0584
G1 X70.207 Y107.592 E11.07473
G1 X70.238 Y107.135 E11.09759
G1 X70.257 Y106.892 E11.10975
G1 X70.341 Y105.95 E11.15693
G1 X70.371 Y105.663 E11.17132
G1 X70.413 Y105.296 E11.18975
G1 X70.444 Y105.048 E11.20222
G1 X70.571 Y104.118 E11.24905
G1 X70.617 Y103.807 E11.26474
G1 X70.68 Y103.424 E11.2841
G1 X70.893 Y102.264 E11.34294
G1 X70.941 Y102.019 E11.3554
G1 X71.007 Y101.701 E11.3716
G1 X71.116 Y101.21 E11.39669
G1 X71.321 Y100.347 E11.44095
G1 X71.382 Y100.102 E11.45354
G1 X71.5 Y99.657 E11.47651
G1 X71.589 Y99.339 E11.49299
G1 X71.842 Y98.462 E11.53852
G1 X71.972 Y98.037 E11.5607
G1 X72.122 Y97.572 E11.58507
G1 X72.424 Y96.685 E11.63182
G1 X72.515 Y96.429 E11.64537
G1 X72.7 Y95.93 E11.67193
G1 X72.81 Y95.646 E11.68712
G1 X73.143 Y94.81 E11.73202
G1 X73.266 Y94.515 E11.74796
G1 X73.472 Y94.037 E11.77393
G1 X73.578 Y93.799 E11.78693
G1 X73.971 Y92.941 E11.83401
G1 X74.096 Y92.676 E11.84863
G1 X74.327 Y92.206 E11.87475
G1 X74.459 Y91.947 E11.88926
G1 X74.853 Y91.189 E11.93188
G1 X74.981 Y90.951 E11.94536
G1 X75.179 Y90.591 E11.96586
G1 X75.33 Y90.325 E11.98112
G1 X75.859 Y89.421 E12.03337
G1 X76.001 Y89.184 E12.04716
G1 X76.265 Y88.759 E12.07212
G1 X76.463 Y88.451 E12.09039
G1 X76.909 Y87.771 E12.13096
G1 X77.095 Y87.497 E12.14748
G1 X77.46 Y86.974 E12.1793
G1 X77.612 Y86.76 E12.19239
G1 X78.151 Y86.024 E12.23791
G1 X78.37 Y85.734 E12.25604
G1 X78.693 Y85.321 E12.28219
G1 X79.362 Y84.497 E12.33515
G1 X79.534 Y84.29 E12.34857
G1 X79.894 Y83.869 E12.37621
G1 X80.125 Y83.608 E12.3936
G1 X80.71 Y82.96 E12.43715
G1 X80.914 Y82.739 E12.45216
G1 X81.325 Y82.307 E12.48191
G1 X81.525 Y82.102 E12.49619
G0 F6000 X81.95 Y82.527
G1 F1200 X82.531 Y81.946 E12.53719
G1 X82.734 Y81.747 E12.55137
G1 X83.167 Y81.336 E12.58115
G1 X83.359 Y81.158 E12.59422
G1 X83.977 Y80.599 E12.63579
G1 X84.178 Y80.422 E12.64915
G1 X84.58 Y80.076 E12.67561
G1 X84.789 Y79.901 E12.68921
G1 X85.581 Y79.253 E12.74027
G1 X85.817 Y79.065 E12.75532
G1 X86.112 Y78.837 E12.77392
G1 X86.318 Y78.681 E12.78681
G1 X87.143 Y78.074 E12.83791
G1 X87.388 Y77.899 E12.85293
G1 X87.825 Y77.598 E12.87941
G1 X88.087 Y77.421 E12.89518
G1 X88.754 Y76.981 E12.93505
G1 X88.991 Y76.829 E12.94909
G1 X89.507 Y76.509 E12.97938
G1 X89.79 Y76.339 E12.99586
G1 X90.555 Y75.89 E13.04011
G1 X90.776 Y75.763 E13.05283
G1 X91.2 Y75.529 E13.07699
G1 X91.479 Y75.379 E13.09279
G1 X92.23 Y74.986 E13.13508
G1 X92.527 Y74.837 E13.15166
G1 X93.03 Y74.593 E13.17955
G1 X93.227 Y74.5 E13.19042
G1 X94.002 Y74.143 E13.23299
G1 X94.278 Y74.02 E13.24806
G1 X94.788 Y73.802 E13.27573
G1 X95.004 Y73.713 E13.28739
G1 X95.777 Y73.402 E13.32896
G1 X96.054 Y73.295 E13.34377
G1 X96.488 Y73.134 E13.36687
G1 X96.705 Y73.056 E13.37837
G1 X97.604 Y72.744 E13.42585
G1 X97.905 Y72.644 E13.44167
G1 X98.372 Y72.497 E13.4661
G1 X98.592 Y72.43 E13.47757
