;FLAVOR:Marlin
;TIME:6402
;Filament used: 5.99033m
;Layer height: 0.2
;MINX:66.008
;MINY:66.006
;MINZ:0.2
;MAXX:153.991
;MAXY:153.995
;MAXZ:44.6
;Generated with Cura_SteamEngine 4.13.1
M140 S60
M105
M190 S60
M104 S200
M105
M109 S200
M82 ;absolute extrusion mode
; Ender 3 Custom Start G-code
G92 E0 ; Reset Extruder
G28 ; Home all axes
G1 Z2.0 F3000 ; Move Z Axis up little to prevent scratching of Heat Bed
G1 X0.1 Y20 Z0.3 F5000.0 ; Move to start position
G1 X0.1 Y200.0 Z0.3 F1500.0 E15 ; Draw the first line
G1 X0.4 Y200.0 Z0.3 F5000.0 ; Move to side a little
G1 X0.4 Y20 Z0.3 F1500.0 E30 ; Draw the second line
G92 E0 ; Reset Extruder
G1 Z2.0 F3000 ; Move Z Axis up little to prevent scratching of Heat Bed
G1 X5 Y20 Z0.3 F5000.0 ; Move over to prevent blob squish
G92 E0
G92 E0
G1 F1500 E-6.5
;LAYER_COUNT:225
;LAYER:0
M107
G0 F6000 X79.217 Y78.575 Z0.2
;TYPE:SKIRT
G1 F1500 E0
G1 F1200 X79.436 Y78.362 E0.01524
G1 X79.866 Y77.953 E0.04485
G1 X80.222 Y77.622 E0.0691
G1 X80.887 Y77.02 E0.11385
G1 X81.121 Y76.815 E0.12937
G1 X81.797 Y76.237 E0.17375
G1 X82.373 Y75.761 E0.21103
G1 X82.629 Y75.556 E0.22739
G1 X83.281 Y75.049 E0.26859
G1 X83.815 Y74.647 E0.30194
G1 X84.032 Y74.488 E0.31536
G1 X84.703 Y74.007 E0.35655
G1 X84.914 Y73.859 E0.36941
G1 X85.451 Y73.492 E0.40186
G1 X86.201 Y72.997 E0.44669
G1 X86.58 Y72.757 E0.46907
G1 X87.333 Y72.295 E0.51315
G1 X87.543 Y72.169 E0.52536
G1 X87.979 Y71.915 E0.55054
G1 X88.564 Y71.583 E0.5841
G1 X88.931 Y71.379 E0.60505
G1 X89.182 Y71.244 E0.61926
G1 X89.917 Y70.859 E0.66066
G1 X90.136 Y70.747 E0.67293
G1 X90.78 Y70.427 E0.70881
G1 X91.03 Y70.307 E0.72264
G1 X91.721 Y69.985 E0.76068
G1 X92.398 Y69.68 E0.79772
G1 X92.694 Y69.552 E0.81381
G1 X93.521 Y69.207 E0.85852
G1 X93.803 Y69.093 E0.87369
G1 X94.455 Y68.841 E0.90857
G1 X94.726 Y68.741 E0.92298
G1 X95.486 Y68.469 E0.96325
G1 X95.713 Y68.39 E0.97524
G1 X96.302 Y68.193 E1.00623
G1 X96.614 Y68.094 E1.02256
G1 X96.868 Y68.017 E1.0358
G1 X97.277 Y67.901 E1.05701
G1 X97.401 Y67.868 E1.06341
G1 X99.076 Y67.397 E1.15022
G1 X99.406 Y67.309 E1.16725
G1 X100.103 Y67.135 E1.2031
G1 X100.46 Y67.052 E1.22138
G1 X101.446 Y66.839 E1.27171
G1 X101.779 Y66.772 E1.28865
G1 X102.308 Y66.674 E1.3155
G1 X102.575 Y66.628 E1.32901
G1 X102.898 Y66.576 E1.34533
G1 X103.132 Y66.541 E1.35714
G1 X104.118 Y66.403 E1.40681
G1 X104.393 Y66.368 E1.42064
G1 X105.285 Y66.265 E1.46544
G1 X105.528 Y66.239 E1.47763
G1 X106.411 Y66.156 E1.52188
G1 X106.673 Y66.135 E1.53499
G1 X107.251 Y66.094 E1.5639
G1 X107.531 Y66.077 E1.57789
G1 X108.478 Y66.033 E1.62519
G1 X108.733 Y66.024 E1.63792
G1 X109.35 Y66.009 E1.66871
G1 X109.629 Y66.006 E1.68263
G1 X110.408 Y66.006 E1.7215
G1 X110.697 Y66.01 E1.73592
G1 X111.414 Y66.028 E1.7717
G1 X111.686 Y66.038 E1.78528
G1 X112.464 Y66.076 E1.82414
G1 X112.71 Y66.09 E1.83643
G1 X113.392 Y66.138 E1.87054
G1 X113.636 Y66.158 E1.88276
G1 X114.453 Y66.233 E1.92369
G1 X114.721 Y66.261 E1.93713
G1 X115.405 Y66.34 E1.97148
G1 X115.66 Y66.372 E1.9843
G1 X116.449 Y66.481 E2.02404
G1 X116.725 Y66.523 E2.03797
G1 X117.601 Y66.667 E2.08226
G1 X118.252 Y66.786 E2.11528
G1 X118.701 Y66.875 E2.13811
G1 X119.422 Y67.027 E2.17488
G1 X119.905 Y67.14 E2.19962
G1 X120.542 Y67.303 E2.23243
G1 X120.735 Y67.35 E2.24234
G1 X121.06 Y67.425 E2.25898
G1 X121.629 Y67.571 E2.28828
G1 X122.446 Y67.803 E2.33066
G1 X122.697 Y67.878 E2.34373
G1 X123.306 Y68.066 E2.37552
G1 X123.551 Y68.144 E2.38835
G1 X124.139 Y68.34 E2.41927
G1 X125.002 Y68.643 E2.46491
G1 X125.307 Y68.754 E2.4811
G1 X126.116 Y69.065 E2.52434
G1 X126.318 Y69.145 E2.53518
G1 X126.95 Y69.404 E2.56925
G1 X127.276 Y69.539 E2.58686
G1 X128.071 Y69.888 E2.63017
G1 X128.329 Y70.005 E2.64431
G1 X128.984 Y70.312 E2.6804
G1 X129.215 Y70.424 E2.6932
G1 X129.882 Y70.755 E2.73035
G1 X130.414 Y71.036 E2.76037
G1 X130.767 Y71.232 E2.78051
G1 X131.316 Y71.521 E2.81147
G1 X131.55 Y71.647 E2.82473
G1 X131.701 Y71.731 E2.83335
G1 X131.944 Y71.871 E2.84734
G1 X132.671 Y72.299 E2.88943
G1 X132.893 Y72.433 E2.90236
G1 X133.595 Y72.87 E2.94362
G1 X134.046 Y73.161 E2.9704
G1 X134.841 Y73.69 E3.01804
G1 X135.055 Y73.836 E3.03096
G1 X135.265 Y73.983 E3.04375
G1 X135.929 Y74.458 E3.08448
G1 X136.162 Y74.629 E3.0989
G1 X136.837 Y75.138 E3.14108
G1 X137.063 Y75.313 E3.15534
G1 X137.719 Y75.836 E3.19719
G1 X138.215 Y76.245 E3.22927
G1 X138.466 Y76.458 E3.24569
G1 X139.196 Y77.097 E3.29409
G1 X139.788 Y77.629 E3.3338
G1 X140.009 Y77.834 E3.34884
G1 X140.492 Y78.293 E3.38208
G1 X140.832 Y78.626 E3.40583
G1 X141.433 Y79.226 E3.44819
G1 X141.636 Y79.434 E3.46269
G1 X142.023 Y79.841 E3.49071
G1 X142.381 Y80.227 E3.51698
G1 X142.967 Y80.875 E3.56057
G1 X143.149 Y81.081 E3.57428
G1 X143.51 Y81.502 E3.60195
G1 X143.859 Y81.919 E3.62908
G1 X144.398 Y82.579 E3.67159
G1 X144.575 Y82.801 E3.68576
G1 X144.963 Y83.302 E3.71737
G1 X145.251 Y83.686 E3.74132
G1 X145.75 Y84.365 E3.78336
G1 X145.931 Y84.618 E3.79888
G1 X146.264 Y85.1 E3.8281
G1 X146.549 Y85.523 E3.85355
G1 X146.992 Y86.194 E3.89367
G1 X147.153 Y86.444 E3.9085
G1 X147.472 Y86.958 E3.93868
G1 X147.726 Y87.378 E3.96317
G1 X148.181 Y88.152 E4.00796
G1 X148.32 Y88.395 E4.02193
G1 X148.568 Y88.843 E4.04748
G1 X148.834 Y89.338 E4.07551
G1 X149.221 Y90.08 E4.11726
G1 X149.337 Y90.308 E4.13002
G1 X149.545 Y90.731 E4.15354
G1 X149.779 Y91.22 E4.18059
G1 X150.155 Y92.033 E4.22528
G1 X150.277 Y92.307 E4.24024
G1 X150.474 Y92.766 E4.26516
G1 X150.667 Y93.231 E4.29028
G1 X151.007 Y94.075 E4.33567
G1 X151.108 Y94.334 E4.34954
G1 X151.251 Y94.717 E4.36994
G1 X151.432 Y95.217 E4.39647
G1 X151.737 Y96.096 E4.44289
G1 X151.829 Y96.373 E4.45745
G1 X151.959 Y96.784 E4.47895
G1 X152.11 Y97.277 E4.50468
G1 X152.358 Y98.123 E4.54866
G1 X152.445 Y98.439 E4.56501
G1 X152.604 Y99.045 E4.59627
G1 X152.661 Y99.27 E4.60785
G1 X152.894 Y100.237 E4.65747
G1 X152.977 Y100.602 E4.67615
G1 X153.124 Y101.315 E4.71247
G1 X153.293 Y102.192 E4.75703
G1 X153.354 Y102.533 E4.77431
G1 X153.461 Y103.195 E4.80777
G1 X153.618 Y104.29 E4.86295
G1 X153.65 Y104.526 E4.87484
G1 X153.701 Y104.955 E4.89639
G1 X153.758 Y105.492 E4.92333
G1 X153.847 Y106.433 E4.97049
G1 X153.872 Y106.745 E4.9861
G1 X153.889 Y106.998 E4.99875
G1 X153.906 Y107.32 E5.01484
G1 X153.98 Y109.212 E5.10931
G1 X153.989 Y109.628 E5.13006
G1 X153.991 Y110.321 E5.16464
G1 X153.987 Y110.639 E5.1805
G1 X153.968 Y111.366 E5.21679
G1 X153.936 Y112.188 E5.25783
G1 X153.923 Y112.444 E5.27062
G1 X153.889 Y112.999 E5.29836
G1 X153.858 Y113.393 E5.31807
G1 X153.768 Y114.423 E5.36966
G1 X153.733 Y114.769 E5.38701
G1 X153.662 Y115.371 E5.41725
G1 X153.519 Y116.433 E5.47071
G1 X153.482 Y116.687 E5.48352
G1 X153.428 Y117.025 E5.50059
G1 X153.339 Y117.536 E5.52647
G1 X153.16 Y118.507 E5.57573
G1 X153.102 Y118.804 E5.59083
G1 X152.976 Y119.399 E5.62117
G1 X152.917 Y119.661 E5.63457
G1 X152.694 Y120.605 E5.68296
G1 X152.628 Y120.871 E5.69664
G1 X152.533 Y121.23 E5.71516
G1 X152.38 Y121.79 E5.74413
G1 X152.137 Y122.635 E5.78799
G1 X152.066 Y122.873 E5.80038
G1 X151.925 Y123.325 E5.824
G1 X151.744 Y123.876 E5.85294
G1 X151.483 Y124.641 E5.89327
G1 X151.394 Y124.893 E5.9066
G1 X151.192 Y125.441 E5.93574
G1 X150.991 Y125.964 E5.96369
G1 X150.679 Y126.746 E6.00569
G1 X150.585 Y126.975 E6.01804
G1 X150.385 Y127.443 E6.04344
G1 X150.15 Y127.976 E6.0725
G1 X149.801 Y128.738 E6.11431
G1 X149.484 Y129.394 E6.15066
G1 X149.239 Y129.884 E6.17799
G1 X148.77 Y130.787 E6.22876
G1 X148.635 Y131.039 E6.24302
G1 X148.409 Y131.445 E6.2662
G1 X148.121 Y131.951 E6.29525
G1 X147.692 Y132.683 E6.33758
G1 X147.541 Y132.932 E6.35211
G1 X147.257 Y133.389 E6.37895
G1 X146.979 Y133.826 E6.40479
G1 X146.499 Y134.559 E6.4485
G1 X146.324 Y134.819 E6.46414
G1 X146.033 Y135.237 E6.48955
G1 X145.71 Y135.69 E6.51731
G1 X145.229 Y136.348 E6.55797
G1 X145.047 Y136.59 E6.57308
G1 X144.656 Y137.095 E6.60494
G1 X144.367 Y137.459 E6.62813
G1 X143.8 Y138.157 E6.67299
G1 X143.61 Y138.385 E6.6878
G1 X143.31 Y138.734 E6.71076
G1 X142.91 Y139.189 E6.74098
G1 X142.362 Y139.797 E6.78182
G1 X142.168 Y140.007 E6.79608
G1 X141.773 Y140.424 E6.82474
G1 X141.389 Y140.819 E6.85222
G1 X140.775 Y141.434 E6.89558
G1 X140.569 Y141.635 E6.90994
G1 X140.155 Y142.029 E6.93845
G1 X139.773 Y142.383 E6.96444
G1 X139.105 Y142.987 E7.00937
G1 X138.752 Y143.295 E7.03274
G1 X138.547 Y143.468 E7.04612
G1 X138.004 Y143.914 E7.08118
G1 X137.605 Y144.25 E7.1072
G1 X137.343 Y144.465 E7.12411
G1 X136.962 Y144.767 E7.14837
G1 X136.716 Y144.957 E7.16387
G1 X136.085 Y145.43 E7.20322
G1 X135.838 Y145.61 E7.21846
G1 X135.12 Y146.119 E7.26237
G1 X134.896 Y146.274 E7.27596
G1 X134.344 Y146.646 E7.30917
G1 X134.133 Y146.784 E7.32175
G1 X133.417 Y147.244 E7.36421
G1 X133.163 Y147.403 E7.37916
G1 X132.584 Y147.754 E7.41294
G1 X132.402 Y147.862 E7.4235
G1 X131.757 Y148.237 E7.46072
G1 X131.501 Y148.381 E7.47537
G1 X130.672 Y148.835 E7.52253
G1 X130.415 Y148.972 E7.53706
G1 X129.788 Y149.295 E7.57225
G1 X129.518 Y149.429 E7.58729
G1 X128.566 Y149.887 E7.63999
G1 X128.18 Y150.065 E7.6612
G1 X127.581 Y150.329 E7.69386
G1 X126.863 Y150.634 E7.73277
G1 X126.68 Y150.71 E7.74266
G1 X126.046 Y150.965 E7.77675
G1 X125.63 Y151.125 E7.79899
G1 X124.856 Y151.411 E7.84016
G1 X124.613 Y151.498 E7.85303
G1 X123.942 Y151.729 E7.88844
G1 X123.654 Y151.824 E7.90357
G1 X122.892 Y152.064 E7.94343
G1 X122.351 Y152.22 E7.97152
G1 X122.035 Y152.303 E7.98782
G1 X121.809 Y152.365 E7.99951
G1 X121.318 Y152.509 E8.02504
G1 X120.903 Y152.622 E8.04649
G1 X120.398 Y152.743 E8.0724
G1 X119.734 Y152.888 E8.10631
G1 X119.209 Y153.015 E8.13326
G1 X118.815 Y153.103 E8.1534
G1 X118.606 Y153.146 E8.16404
G1 X118.243 Y153.215 E8.18248
G1 X117.834 Y153.286 E8.20319
G1 X117.526 Y153.344 E8.21882
G1 X117.213 Y153.399 E8.23468
G1 X116.637 Y153.492 E8.26379
G1 X116.378 Y153.531 E8.27686
G1 X115.618 Y153.636 E8.31513
G1 X115.326 Y153.672 E8.32981
G1 X114.577 Y153.756 E8.36741
G1 X114.328 Y153.782 E8.3799
G1 X113.574 Y153.85 E8.41767
G1 X113.279 Y153.872 E8.43243
G1 X112.455 Y153.925 E8.47363
G1 X112.038 Y153.945 E8.49445
G1 X111.115 Y153.971 E8.54052
G1 X110.681 Y153.987 E8.56219
G1 X110.189 Y153.995 E8.58674
G1 X109.267 Y153.99 E8.63274
G1 X108.988 Y153.985 E8.64666
G1 X108.28 Y153.964 E8.682
G1 X107.958 Y153.95 E8.69808
G1 X107.161 Y153.904 E8.7379
G1 X106.848 Y153.882 E8.75356
G1 X105.803 Y153.793 E8.80588
G1 X105.521 Y153.765 E8.82002
G1 X104.858 Y153.691 E8.8533
G1 X104.315 Y153.623 E8.88061
G1 X103.469 Y153.506 E8.92321
G1 X103.073 Y153.444 E8.94321
G1 X102.073 Y153.27 E8.99385
G1 X101.435 Y153.155 E9.02619
G1 X101.13 Y153.097 E9.04168
G1 X100.491 Y152.967 E9.07422
G1 X99.927 Y152.837 E9.10309
G1 X98.734 Y152.531 E9.16454
G1 X98.394 Y152.439 E9.18211
G1 X97.513 Y152.184 E9.22787
G1 X97.252 Y152.105 E9.24147
G1 X96.324 Y151.811 E9.29004
G1 X95.925 Y151.678 E9.31102
G1 X95.112 Y151.398 E9.35392
G1 X94.755 Y151.268 E9.37288
G1 X93.807 Y150.906 E9.4235
G1 X93.537 Y150.8 E9.43797
G1 X92.846 Y150.516 E9.47525
G1 X92.553 Y150.39 E9.49116
G1 X91.735 Y150.027 E9.53581
G1 X91.453 Y149.897 E9.5513
G1 X90.813 Y149.592 E9.58667
G1 X90.587 Y149.482 E9.59921
G1 X89.904 Y149.138 E9.63736
G1 X89.285 Y148.814 E9.67222
G1 X88.9 Y148.605 E9.69407
G1 X88.053 Y148.129 E9.74255
G1 X87.823 Y147.997 E9.75578
G1 X87.211 Y147.634 E9.79128
G1 X86.965 Y147.484 E9.80565
G1 X86.326 Y147.083 E9.84329
G1 X86.114 Y146.946 E9.85588
G1 X85.411 Y146.483 E9.89788
G1 X85.148 Y146.305 E9.91372
G1 X84.457 Y145.822 E9.95578
G1 X84.232 Y145.66 E9.96961
G1 X83.699 Y145.268 E10.00262
G1 X83.483 Y145.106 E10.01609
G1 X82.776 Y144.56 E10.06066
G1 X82.539 Y144.372 E10.07575
G1 X81.955 Y143.896 E10.11334
G1 X81.77 Y143.742 E10.12535
G1 X81.134 Y143.201 E10.16701
G1 X80.913 Y143.007 E10.18168
G1 X80.338 Y142.492 E10.22019
G1 X80.089 Y142.263 E10.23707
G1 X79.55 Y141.75 E10.27419
G1 X79.142 Y141.352 E10.30262
G1 X78.569 Y140.779 E10.34305
G1 X78.375 Y140.58 E10.35692
G1 X77.962 Y140.145 E10.38684
G1 X77.618 Y139.774 E10.41209
G1 X77.033 Y139.127 E10.4556
G1 X76.84 Y138.908 E10.47017
G1 X76.46 Y138.465 E10.49928
G1 X76.141 Y138.083 E10.52411
G1 X75.602 Y137.423 E10.56663
G1 X75.425 Y137.201 E10.58079
G1 X75.032 Y136.693 E10.61283
G1 X74.732 Y136.292 E10.63782
G1 X74.25 Y135.636 E10.67843
G1 X74.069 Y135.384 E10.69391
G1 X73.739 Y134.907 E10.72285
G1 X73.441 Y134.465 E10.74944
G1 X73.005 Y133.804 E10.78895
G1 X72.843 Y133.551 E10.80394
G1 X72.488 Y132.979 E10.83752
G1 X72.242 Y132.57 E10.86134
G1 X71.813 Y131.839 E10.90362
G1 X71.674 Y131.596 E10.91759
G1 X71.426 Y131.148 E10.94314
G1 X71.255 Y130.833 E10.96102
G1 X70.779 Y129.922 E11.0123
G1 X70.656 Y129.68 E11.02584
G1 X70.419 Y129.198 E11.05264
G1 X70.197 Y128.73 E11.07848
G1 X69.835 Y127.945 E11.12161
G1 X69.723 Y127.693 E11.13537
G1 X69.517 Y127.214 E11.16138
G1 X69.332 Y126.769 E11.18542
G1 X68.987 Y125.912 E11.23151
G1 X68.863 Y125.59 E11.24873
G1 X68.641 Y124.987 E11.28079
G1 X68.567 Y124.78 E11.29175
G1 X68.262 Y123.9 E11.33822
G1 X68.173 Y123.631 E11.35235
G1 X68.02 Y123.15 E11.37754
G1 X67.874 Y122.672 E11.40247
G1 X67.64 Y121.872 E11.44406
G1 X67.553 Y121.558 E11.46031
G1 X67.394 Y120.951 E11.49162
G1 X67.107 Y119.767 E11.5524
G1 X67.048 Y119.512 E11.56545
G1 X66.979 Y119.192 E11.58179
G1 X66.866 Y118.639 E11.60995
G1 X66.706 Y117.808 E11.65217
G1 X66.646 Y117.469 E11.66934
G1 X66.539 Y116.807 E11.7028
G1 X66.507 Y116.595 E11.71349
G1 X66.38 Y115.704 E11.7584
G1 X66.343 Y115.419 E11.77273
G1 X66.291 Y114.967 E11.79543
G1 X66.239 Y114.478 E11.81997
G1 X66.153 Y113.566 E11.86567
G1 X66.127 Y113.251 E11.88144
G1 X66.11 Y112.996 E11.89419
G1 X66.094 Y112.681 E11.90992
G1 X66.02 Y110.791 E12.00429
G1 X66.011 Y110.393 E12.02415
G1 X66.008 Y109.725 E12.05748
G1 X66.011 Y109.39 E12.07419
G1 X66.032 Y108.606 E12.11332
G1 X66.064 Y107.803 E12.15341
G1 X66.077 Y107.55 E12.16605
G1 X66.114 Y106.971 E12.195
G1 X66.147 Y106.54 E12.21656
G1 X66.228 Y105.61 E12.26314
G1 X66.262 Y105.276 E12.27988
G1 X66.326 Y104.727 E12.30746
G1 X66.485 Y103.546 E12.36691
G1 X66.523 Y103.286 E12.38002
G1 X66.586 Y102.898 E12.39963
G1 X66.666 Y102.43 E12.42332
G1 X66.842 Y101.48 E12.47152
G1 X66.896 Y101.209 E12.48531
G1 X66.991 Y100.76 E12.5082
G1 X67.082 Y100.351 E12.52911
G1 X67.298 Y99.426 E12.5765
G1 X67.391 Y99.056 E12.59553
G1 X67.619 Y98.214 E12.63905
G1 X67.869 Y97.344 E12.68421
G1 X67.968 Y97.018 E12.70121
G1 X68.255 Y96.126 E12.74796
G1 X68.517 Y95.357 E12.78849
G1 X68.615 Y95.083 E12.80301
G1 X68.817 Y94.537 E12.83205
G1 X69.009 Y94.038 E12.85873
G1 X69.321 Y93.256 E12.90073
G1 X69.423 Y93.008 E12.91411
G1 X69.645 Y92.491 E12.94218
G1 X69.866 Y91.991 E12.96945
G1 X70.199 Y91.263 E13.00939
G1 X70.326 Y90.994 E13.02423
G1 X70.614 Y90.409 E13.05677
G1 X70.848 Y89.948 E13.08256
G1 X71.227 Y89.22 E13.12351
G1 X71.397 Y88.904 E13.14141
G1 X71.882 Y88.043 E13.19071
G1 X72.307 Y87.319 E13.23259
G1 X72.689 Y86.697 E13.26901
G1 X72.947 Y86.289 E13.29309
G1 X73.509 Y85.432 E13.34422
G1 X73.666 Y85.2 E13.3582
G1 X73.986 Y84.739 E13.3862
G1 X74.295 Y84.306 E13.41273
G1 X74.788 Y83.632 E13.4544
G1 X74.969 Y83.391 E13.46943
G1 X75.333 Y82.921 E13.49909
G1 X75.638 Y82.537 E13.52356
G1 X76.202 Y81.843 E13.56817
G1 X76.393 Y81.615 E13.58301
G1 X76.704 Y81.253 E13.60682
G1 X77.113 Y80.787 E13.63775
G1 X77.63 Y80.212 E13.67633
G1 X77.834 Y79.992 E13.6913
G1 X78.298 Y79.503 E13.72493
G1 X78.633 Y79.161 E13.74882
G1 X79.217 Y78.575 E13.79009
G0 F6000 X79.642 Y78.999
G1 F1200 X79.849 Y78.797 E13.80452
G1 X80.275 Y78.392 E13.83385
G1 X80.625 Y78.067 E13.85767
G1 X81.29 Y77.465 E13.90243
G1 X81.511 Y77.27 E13.91713
G1 X82.029 Y76.826 E13.95117
G1 X82.755 Y76.224 E13.99822
