;FLAVOR:Marlin
;TIME:7893
;Filament used: 7.09m
;Layer height: 0.2
;MINX:81.223
;MINY:86.036
;MINZ:0.2
;MAXX:139.595
;MAXY:135.982
;MAXZ:75
;Generated with Cura_SteamEngine 4.13.1
M140 S60
M105
M190 S60
M104 S200
M105
M109 S200
M82 ;absolute extrusion mode
; Ender 3 Custom Start G-code
G92 E0 ; Reset Extruder
G28 ; Home all axes
G1 Z2.0 F3000 ; Move Z Axis up little to prevent scratching of Heat Bed
G1 X0.1 Y20 Z0.3 F5000.0 ; Move to start position
G1 X0.1 Y200.0 Z0.3 F1500.0 E15 ; Draw the first line
G1 X0.4 Y200.0 Z0.3 F5000.0 ; Move to side a little
G1 X0.4 Y20 Z0.3 F1500.0 E30 ; Draw the second line
G92 E0 ; Reset Extruder
G1 Z2.0 F3000 ; Move Z Axis up little to prevent scratching of Heat Bed
G1 X5 Y20 Z0.3 F5000.0 ; Move over to prevent blob squish
G92 E0
G92 E0
G1 F1500 E-6.5
;LAYER_COUNT:375
;LAYER:0
M107
G0 F6000 X91.453 Y96.674 Z0.2
;TYPE:SKIRT
G1 F1500 E0
G1 F1200 X91.803 Y96.347 E0.01593
G1 X92.019 Y96.153 E0.02559
G1 X92.58 Y95.662 E0.05038
G1 X92.945 Y95.354 E0.06627
G1 X93.182 Y95.161 E0.07643
G1 X93.831 Y94.65 E0.10391
G1 X94.054 Y94.479 E0.11325
G1 X94.421 Y94.209 E0.12841
G1 X95.066 Y93.751 E0.15472
G1 X95.449 Y93.489 E0.17015
G1 X95.684 Y93.335 E0.1795
G1 X96.452 Y92.845 E0.2098
G1 X96.893 Y92.578 E0.22695
G1 X97.684 Y92.124 E0.25728
G1 X98.019 Y91.938 E0.27002
G1 X98.315 Y91.781 E0.28117
G1 X99.178 Y91.34 E0.3134
G1 X99.573 Y91.147 E0.32802
G1 X100.054 Y90.925 E0.34564
G1 X100.299 Y90.816 E0.35456
G1 X100.794 Y90.602 E0.3725
G1 X101.044 Y90.498 E0.3815
G1 X101.882 Y90.16 E0.41156
G1 X102.337 Y89.988 E0.42774
G1 X103.258 Y89.663 E0.46022
G1 X103.718 Y89.512 E0.47632
G1 X104.573 Y89.252 E0.50605
G1 X105.105 Y89.104 E0.52441
G1 X106.333 Y88.797 E0.56651
G1 X106.766 Y88.698 E0.58129
G1 X107.913 Y88.46 E0.62025
G1 X108.276 Y88.391 E0.63254
G1 X108.884 Y88.286 E0.65306
G1 X109.305 Y88.222 E0.66722
G1 X109.989 Y88.131 E0.69017
G1 X110.251 Y88.099 E0.69895
G1 X110.711 Y88.049 E0.71434
G1 X110.993 Y88.022 E0.72377
G1 X111.887 Y87.948 E0.7536
G1 X112.383 Y87.919 E0.77013
G1 X113.373 Y87.882 E0.80308
G1 X113.841 Y87.874 E0.81865
G1 X114.805 Y87.879 E0.85071
G1 X115.304 Y87.893 E0.86731
G1 X116.292 Y87.943 E0.90021
G1 X116.517 Y87.957 E0.90771
G1 X116.863 Y87.985 E0.91926
G1 X117.664 Y88.063 E0.94603
G1 X117.979 Y88.098 E0.95657
G1 X118.457 Y88.161 E0.9726
G1 X119.239 Y88.277 E0.9989
G1 X119.507 Y88.32 E1.00792
G1 X119.697 Y88.353 E1.01434
G1 X119.972 Y88.405 E1.02365
G1 X120.642 Y88.539 E1.04637
G1 X120.915 Y88.597 E1.05566
G1 X121.33 Y88.691 E1.06981
G1 X121.667 Y88.773 E1.08134
G1 X122.121 Y88.891 E1.09695
G1 X122.42 Y88.973 E1.10726
G1 X122.961 Y89.13 E1.12599
G1 X123.23 Y89.212 E1.13535
G1 X123.494 Y89.296 E1.14456
G1 X123.86 Y89.419 E1.1574
G1 X124.708 Y89.722 E1.18735
G1 X125.059 Y89.854 E1.19983
G1 X125.475 Y90.025 E1.21479
G1 X126.332 Y90.397 E1.24586
G1 X126.652 Y90.542 E1.25755
G1 X126.944 Y90.68 E1.26829
G1 X127.223 Y90.816 E1.27861
G1 X127.487 Y90.95 E1.28846
G1 X127.915 Y91.18 E1.30462
G1 X128.528 Y91.526 E1.32803
G1 X128.939 Y91.769 E1.34391
G1 X129.215 Y91.941 E1.35473
G1 X129.532 Y92.146 E1.36728
G1 X130.044 Y92.49 E1.3878
G1 X130.488 Y92.805 E1.40591
G1 X130.827 Y93.058 E1.41997
G1 X131.111 Y93.277 E1.4319
G1 X131.468 Y93.562 E1.4471
G1 X131.965 Y93.984 E1.46878
G1 X132.416 Y94.39 E1.48896
G1 X132.651 Y94.608 E1.49963
G1 X132.937 Y94.881 E1.51278
G1 X133.392 Y95.342 E1.53432
G1 X133.879 Y95.865 E1.55809
G1 X134.152 Y96.169 E1.57168
G1 X134.222 Y96.25 E1.57524
G1 X134.565 Y96.667 E1.5932
G1 X135.142 Y97.405 E1.62436
G1 X135.379 Y97.72 E1.63747
G1 X135.498 Y97.884 E1.64421
G1 X135.87 Y98.43 E1.66618
G1 X136.25 Y99.026 E1.68969
G1 X136.43 Y99.318 E1.7011
G1 X136.609 Y99.619 E1.71275
G1 X136.913 Y100.165 E1.73353
G1 X137.197 Y100.711 E1.754
G1 X137.349 Y101.014 E1.76528
G1 X137.519 Y101.367 E1.77831
G1 X137.78 Y101.953 E1.79964
G1 X138.006 Y102.502 E1.81939
G1 X138.128 Y102.812 E1.83047
G1 X138.276 Y103.205 E1.84444
G1 X138.487 Y103.818 E1.866
G1 X138.661 Y104.378 E1.8855
G1 X138.758 Y104.709 E1.89698
G1 X138.872 Y105.121 E1.91119
G1 X139.017 Y105.709 E1.93134
G1 X139.125 Y106.204 E1.94819
G1 X139.191 Y106.528 E1.95919
G1 X139.274 Y106.972 E1.97421
G1 X139.374 Y107.615 E1.99585
G1 X139.447 Y108.193 E2.01523
G1 X139.482 Y108.507 E2.02574
G1 X139.517 Y108.867 E2.03777
G1 X139.562 Y109.534 E2.06
G1 X139.586 Y110.198 E2.0821
G1 X139.593 Y110.538 E2.09341
G1 X139.595 Y110.925 E2.10629
G1 X139.58 Y111.558 E2.12734
G1 X139.563 Y111.882 E2.13814
G1 X139.526 Y112.376 E2.15461
G1 X139.465 Y113 E2.17547
G1 X139.334 Y113.926 E2.20657
G1 X139.227 Y114.506 E2.22619
G1 X139.154 Y114.868 E2.23847
G1 X139.066 Y115.269 E2.25212
G1 X138.832 Y116.157 E2.28267
G1 X138.727 Y116.497 E2.2945
G1 X138.577 Y116.947 E2.31028
G1 X138.369 Y117.53 E2.33087
G1 X138.01 Y118.415 E2.36263
G1 X137.868 Y118.725 E2.37397
G1 X137.664 Y119.146 E2.38953
G1 X137.375 Y119.712 E2.41067
G1 X136.914 Y120.526 E2.44178
G1 X136.643 Y120.961 E2.45883
G1 X136.471 Y121.23 E2.46945
G1 X136.216 Y121.614 E2.48478
G1 X135.848 Y122.134 E2.50597
G1 X135.652 Y122.395 E2.51683
G1 X135.339 Y122.793 E2.53367
G1 X134.951 Y123.263 E2.55394
G1 X134.545 Y123.727 E2.57444
G1 X134.043 Y124.27 E2.59904
G1 X133.773 Y124.552 E2.61203
G1 X133.508 Y124.819 E2.62454
G1 X133.075 Y125.233 E2.64446
G1 X132.63 Y125.635 E2.66441
G1 X132.37 Y125.862 E2.67589
G1 X132.061 Y126.124 E2.68936
G1 X131.571 Y126.516 E2.71023
G1 X131.164 Y126.823 E2.72719
G1 X130.928 Y126.996 E2.73692
G1 X130.778 Y127.103 E2.74305
G1 X130.442 Y127.334 E2.75661
G1 X129.589 Y127.896 E2.79059
G1 X129.277 Y128.094 E2.80288
G1 X128.968 Y128.283 E2.81492
G1 X128.713 Y128.434 E2.82478
G1 X128.527 Y128.541 E2.83192
G1 X128.238 Y128.702 E2.84292
G1 X127.124 Y129.299 E2.88496
G1 X126.804 Y129.463 E2.89692
G1 X125.987 Y129.867 E2.92723
G1 X125.715 Y129.997 E2.93726
G1 X124.769 Y130.433 E2.9719
G1 X124.573 Y130.521 E2.97905
G1 X123.726 Y130.89 E3.00978
G1 X122.709 Y131.318 E3.04648
G1 X121.852 Y131.664 E3.07722
G1 X121.41 Y131.839 E3.09303
G1 X120.366 Y132.244 E3.13027
G1 X119.362 Y132.622 E3.16595
G1 X118.057 Y133.101 E3.21219
G1 X116.866 Y133.528 E3.25427
G1 X116.183 Y133.769 E3.27836
G1 X114.401 Y134.382 E3.34104
G1 X113.418 Y134.713 E3.37554
G1 X112.771 Y134.919 E3.39812
G1 X111.866 Y135.165 E3.42932
G1 X110.944 Y135.333 E3.46049
G1 X110.192 Y135.411 E3.48563
G1 X106.897 Y135.639 E3.59549
G1 X105.833 Y135.732 E3.63101
G1 X104.651 Y135.826 E3.67045
G1 X103.707 Y135.89 E3.70192
G1 X103.503 Y135.902 E3.70871
G1 X102.587 Y135.947 E3.73922
G1 X102.315 Y135.957 E3.74827
G1 X101.413 Y135.979 E3.77828
G1 X101.07 Y135.982 E3.78969
G1 X99.753 Y135.973 E3.83349
G1 X99.388 Y135.964 E3.84564
G1 X98.714 Y135.937 E3.86807
G1 X98.227 Y135.907 E3.8843
G1 X97.636 Y135.857 E3.90403
G1 X97.313 Y135.825 E3.91482
G1 X96.666 Y135.751 E3.93648
G1 X96.324 Y135.706 E3.94795
G1 X95.907 Y135.645 E3.96197
G1 X95.484 Y135.575 E3.97623
G1 X95.103 Y135.504 E3.98912
G1 X94.708 Y135.423 E4.00253
G1 X94.276 Y135.326 E4.01726
G1 X93.6 Y135.151 E4.04048
G1 X92.755 Y134.904 E4.06977
G1 X92.398 Y134.793 E4.0822
G1 X92.131 Y134.705 E4.09155
G1 X91.575 Y134.505 E4.1112
G1 X91.411 Y134.441 E4.11706
G1 X90.917 Y134.235 E4.13486
G1 X90.622 Y134.103 E4.14561
G1 X90.319 Y133.961 E4.15674
G1 X90.158 Y133.883 E4.16269
G1 X89.694 Y133.645 E4.18003
G1 X89.402 Y133.486 E4.19109
G1 X88.902 Y133.197 E4.2103
G1 X88.71 Y133.079 E4.2178
G1 X88.406 Y132.884 E4.22981
G1 X88.235 Y132.771 E4.23663
G1 X87.842 Y132.5 E4.2525
G1 X87.682 Y132.384 E4.25908
G1 X87.137 Y131.962 E4.282
G1 X86.868 Y131.74 E4.2936
G1 X86.481 Y131.405 E4.31063
G1 X86.363 Y131.298 E4.31592
G1 X85.883 Y130.835 E4.33811
G1 X85.715 Y130.663 E4.3461
G1 X85.119 Y130.002 E4.37571
G1 X84.802 Y129.62 E4.39222
G1 X84.49 Y129.227 E4.40891
G1 X83.98 Y128.503 E4.43836
G1 X83.835 Y128.279 E4.44724
G1 X83.641 Y127.969 E4.4594
G1 X83.528 Y127.781 E4.46669
G1 X83.244 Y127.278 E4.48591
G1 X83.177 Y127.152 E4.49065
G1 X82.93 Y126.659 E4.50899
G1 X82.839 Y126.465 E4.51612
G1 X82.602 Y125.923 E4.53579
G1 X82.406 Y125.439 E4.55316
G1 X82.237 Y124.995 E4.56896
G1 X82.011 Y124.317 E4.59273
G1 X81.93 Y124.044 E4.60221
G1 X81.763 Y123.411 E4.62398
G1 X81.698 Y123.132 E4.63351
G1 X81.607 Y122.702 E4.64813
G1 X81.502 Y122.141 E4.66711
G1 X81.461 Y121.9 E4.67524
G1 X81.408 Y121.555 E4.68685
G1 X81.37 Y121.279 E4.69612
G1 X81.305 Y120.687 E4.71592
G1 X81.279 Y120.373 E4.7264
G1 X81.251 Y119.929 E4.7412
G1 X81.23 Y119.432 E4.75775
G1 X81.223 Y118.726 E4.78123
G1 X81.243 Y117.816 E4.8115
G1 X81.257 Y117.45 E4.82368
G1 X81.275 Y117.125 E4.83451
G1 X81.308 Y116.681 E4.84932
G1 X81.336 Y116.401 E4.85868
G1 X81.367 Y116.125 E4.86792
G1 X81.402 Y115.845 E4.8773
G1 X81.442 Y115.556 E4.887
G1 X81.497 Y115.202 E4.89892
G1 X81.661 Y114.247 E4.93115
G1 X81.727 Y113.893 E4.94313
G1 X81.778 Y113.645 E4.95155
G1 X81.848 Y113.331 E4.96225
G1 X81.978 Y112.781 E4.98104
G1 X82.056 Y112.469 E4.99174
G1 X82.202 Y111.923 E5.01054
G1 X82.29 Y111.614 E5.02122
G1 X82.38 Y111.313 E5.03167
G1 X82.455 Y111.073 E5.04004
G1 X82.688 Y110.354 E5.06517
G1 X82.827 Y109.949 E5.07942
G1 X82.911 Y109.718 E5.08759
G1 X83.222 Y108.895 E5.11685
G1 X83.408 Y108.434 E5.13339
G1 X83.826 Y107.463 E5.16855
G1 X84.033 Y107.011 E5.18508
G1 X84.407 Y106.24 E5.21359
G1 X84.658 Y105.753 E5.23181
G1 X85.431 Y104.343 E5.28529
G1 X85.631 Y103.995 E5.29864
G1 X85.878 Y103.581 E5.31467
G1 X86.176 Y103.109 E5.33324
G1 X87.05 Y101.8 E5.38559
G1 X87.264 Y101.491 E5.39809
G1 X87.598 Y101.026 E5.41713
G1 X87.892 Y100.635 E5.4334
G1 X88.516 Y99.843 E5.46694
G1 X88.82 Y99.474 E5.48284
G1 X89.476 Y98.712 E5.51628
G1 X89.799 Y98.353 E5.53235
G1 X90.414 Y97.699 E5.5622
G1 X90.681 Y97.424 E5.57495
G1 X90.865 Y97.242 E5.58356
G1 X91.453 Y96.674 E5.61075
G0 F6000 X91.73 Y96.962
G1 F1200 X92.074 Y96.641 E5.6264
G1 X92.283 Y96.454 E5.63573
G1 X92.844 Y95.963 E5.66053
G1 X93.039 Y95.796 E5.66906
G1 X93.201 Y95.661 E5.67608
G1 X93.43 Y95.476 E5.68587
G1 X94.079 Y94.965 E5.71334
G1 X94.294 Y94.8 E5.72236
G1 X94.653 Y94.535 E5.7372
G1 X95.298 Y94.077 E5.76351
G1 X95.672 Y93.821 E5.77858
G1 X95.9 Y93.672 E5.78764
G1 X96.668 Y93.182 E5.81794
G1 X97.092 Y92.925 E5.83443
G1 X97.883 Y92.471 E5.86477
G1 X98.212 Y92.288 E5.87729
G1 X98.497 Y92.137 E5.88802
G1 X99.36 Y91.696 E5.92025
G1 X99.741 Y91.511 E5.93434
G1 X100.222 Y91.289 E5.95196
G1 X100.458 Y91.183 E5.96056
G1 X100.953 Y90.969 E5.9785
G1 X101.194 Y90.869 E5.98718
G1 X102.032 Y90.531 E6.01723
G1 X102.47 Y90.365 E6.03281
G1 X103.391 Y90.04 E6.06529
G1 X103.834 Y89.895 E6.0808
G1 X104.689 Y89.635 E6.11052
G1 X105.202 Y89.492 E6.12823
G1 X106.43 Y89.185 E6.17033
G1 X106.847 Y89.09 E6.18456
G1 X107.994 Y88.852 E6.22352
G1 X108.344 Y88.786 E6.23537
G1 X108.952 Y88.681 E6.25589
G1 X109.358 Y88.619 E6.26955
G1 X110.042 Y88.528 E6.2925
G1 X110.295 Y88.497 E6.30098
G1 X110.755 Y88.447 E6.31637
G1 X111.026 Y88.421 E6.32542
G1 X111.92 Y88.347 E6.35526
G1 X112.398 Y88.318 E6.37119
G1 X113.388 Y88.281 E6.40414
G1 X113.839 Y88.274 E6.41914
G1 X114.803 Y88.279 E6.4512
G1 X115.284 Y88.293 E6.46721
G1 X116.43 Y88.352 E6.50537
G1 X116.824 Y88.383 E6.51852
G1 X117.625 Y88.461 E6.54529
G1 X117.929 Y88.495 E6.55546
G1 X118.398 Y88.557 E6.57119
G1 X119.18 Y88.673 E6.59749
G1 X119.439 Y88.714 E6.60621
G1 X119.629 Y88.747 E6.61262
G1 X119.894 Y88.797 E6.62159
G1 X120.564 Y88.931 E6.64432
G1 X120.827 Y88.987 E6.65326
G1 X121.242 Y89.081 E6.66741
G1 X121.566 Y89.16 E6.67851
G1 X122.02 Y89.278 E6.69411
G1 X122.308 Y89.357 E6.70404
G1 X122.849 Y89.514 E6.72278
G1 X123.109 Y89.593 E6.73182
G1 X123.373 Y89.677 E6.74103
G1 X123.726 Y89.796 E6.75342
G1 X124.574 Y90.099 E6.78337
G1 X124.915 Y90.227 E6.79549
G1 X125.316 Y90.392 E6.80991
G1 X126.173 Y90.764 E6.84098
G1 X126.481 Y90.903 E6.85222
G1 X126.773 Y91.041 E6.86296
G1 X127.042 Y91.173 E6.87293
G1 X127.306 Y91.307 E6.88278
G1 X127.718 Y91.528 E6.89833
G1 X128.331 Y91.874 E6.92174
G1 X128.727 Y92.109 E6.93705
G1 X129.003 Y92.281 E6.94787
G1 X129.309 Y92.478 E6.95997
G1 X129.821 Y92.822 E6.98049
G1 X130.249 Y93.126 E6.99795
G1 X130.588 Y93.379 E7.01202
G1 X130.861 Y93.59 E7.0235
G1 X131.218 Y93.875 E7.03869
G1 X131.697 Y94.281 E7.05957
G1 X132.148 Y94.687 E7.07976
G1 X132.375 Y94.897 E7.09004
G1 X132.661 Y95.17 E7.10319
G1 X133.1 Y95.614 E7.12396
G1 X133.587 Y96.137 E7.14773
G1 X133.849 Y96.43 E7.1608
G1 X133.919 Y96.511 E7.16436
G1 X134.25 Y96.913 E7.18168
G1 X134.827 Y97.651 E7.21284
G1 X135.055 Y97.955 E7.22548
G1 X135.174 Y98.119 E7.23222
G1 X135.533 Y98.645 E7.2534
G1 X135.913 Y99.241 E7.27691
G1 X136.086 Y99.522 E7.28788
G1 X136.265 Y99.823 E7.29953
G1 X136.558 Y100.35 E7.31959
G1 X136.842 Y100.896 E7.34006
G1 X136.988 Y101.188 E7.35091
G1 X137.158 Y101.541 E7.36395
G1 X137.41 Y102.105 E7.38449
G1 X137.636 Y102.654 E7.40424
G1 X137.754 Y102.953 E7.41493
G1 X137.902 Y103.346 E7.4289
G1 X138.105 Y103.937 E7.44968
G1 X138.279 Y104.497 E7.46918
G1 X138.372 Y104.815 E7.4802
G1 X138.486 Y105.227 E7.49442
G1 X138.626 Y105.794 E7.51385
G1 X138.734 Y106.289 E7.5307
G1 X138.798 Y106.601 E7.54129
G1 X138.881 Y107.045 E7.55632
G1 X138.977 Y107.665 E7.57718
G1 X139.05 Y108.243 E7.59656
G1 X139.084 Y108.545 E7.60667
G1 X139.119 Y108.905 E7.6187
G1 X139.162 Y109.548 E7.64013
G1 X139.186 Y110.212 E7.66223
G1 X139.193 Y110.54 E7.67314
G1 X139.195 Y110.927 E7.68601
G1 X139.18 Y111.537 E7.70631
G1 X139.163 Y111.861 E7.7171
G1 X139.128 Y112.337 E7.73297
G1 X139.067 Y112.961 E7.75383
G1 X138.941 Y113.853 E7.78379
G1 X138.834 Y114.433 E7.80341
G1 X138.764 Y114.782 E7.81525
G1 X138.676 Y115.183 E7.8289
G1 X138.45 Y116.039 E7.85835
G1 X138.345 Y116.379 E7.87018
G1 X138.201 Y116.813 E7.88539
G1 X137.993 Y117.396 E7.90598
G1 X137.646 Y118.248 E7.93658
G1 X137.504 Y118.558 E7.94792
G1 X137.308 Y118.964 E7.96291
G1 X137.019 Y119.53 E7.98405
G1 X136.575 Y120.315 E8.01405
G1 X136.304 Y120.75 E8.03109
G1 X136.137 Y121.009 E8.04134
G1 X135.882 Y121.393 E8.05667
G1 X135.528 Y121.894 E8.07708
G1 X135.332 Y122.155 E8.08793
G1 X135.03 Y122.538 E8.10416
G1 X134.642 Y123.008 E8.12443
G1 X134.251 Y123.456 E8.1442
G1 X133.749 Y123.999 E8.1688
G1 X133.489 Y124.27 E8.18129
G1 X133.224 Y124.537 E8.1938
G1 X132.807 Y124.936 E8.213
G1 X132.362 Y125.338 E8.23294
G1 X132.111 Y125.557 E8.24402
G1 X131.802 Y125.819 E8.2575
G1 X131.33 Y126.197 E8.27761
G1 X130.923 Y126.504 E8.29457
G1 X130.546 Y126.777 E8.31005
G1 X130.222 Y127 E8.32313
G1 X129.369 Y127.562 E8.3571
G1 X129.068 Y127.753 E8.36896
G1 X128.759 Y127.942 E8.38101
G1 X128.514 Y128.087 E8.39048
G1 X128.328 Y128.194 E8.39761
G1 X128.049 Y128.349 E8.40823
G1 X126.935 Y128.946 E8.45027
G1 X126.627 Y129.105 E8.4618
G1 X125.81 Y129.509 E8.49211
G1 X125.548 Y129.634 E8.50176
G1 X124.602 Y130.07 E8.53641
G1 X124.413 Y130.155 E8.5433
G1 X123.571 Y130.522 E8.57385
G1 X122.559 Y130.947 E8.61036
G1 X121.704 Y131.292 E8.64102
G1 X121.265 Y131.466 E8.65673
G1 X120.225 Y131.87 E8.69384
G1 X119.224 Y132.247 E8.72942
G1 X117.922 Y132.725 E8.77555
G1 X116.732 Y133.151 E8.81759
G1 X116.053 Y133.391 E8.84154
G1 X114.274 Y134.003 E8.90411
G1 X113.297 Y134.331 E8.93839
G1 X112.65 Y134.537 E8.96097
G1 X111.761 Y134.778 E8.99161
G1 X110.855 Y134.941 E9.02223
G1 X110.164 Y135.012 E9.04533
G1 X106.836 Y135.242 E9.15628
G1 X105.801 Y135.333 E9.19084
G1 X104.624 Y135.427 E9.23011
G1 X103.68 Y135.491 E9.26158
G1 X102.567 Y135.547 E9.29865
G1 X102.305 Y135.557 E9.30737
G1 X101.403 Y135.579 E9.33738
G1 X101.073 Y135.582 E9.34835
G1 X99.756 Y135.573 E9.39216
G1 X99.404 Y135.565 E9.40387
G1 X98.73 Y135.538 E9.4263
G1 X98.26 Y135.508 E9.44197
G1 X97.669 Y135.458 E9.4617
