;FLAVOR:Marlin
;TIME:18902
;Filament used: 17.2082m
;Layer height: 0.2
;MINX:40.66
;MINY:49.112
;MINZ:0.2
;MAXX:154.067
;MAXY:176.647
;MAXZ:80
;Generated with Cura_SteamEngine 4.13.1
M140 S60
M105
M190 S60
M104 S200
M105
M109 S200
M82 ;absolute extrusion mode
; Ender 3 Custom Start G-code
G92 E0 ; Reset Extruder
G28 ; Home all axes
G1 Z2.0 F3000 ; Move Z Axis up little to prevent scratching of Heat Bed
G1 X0.1 Y20 Z0.3 F5000.0 ; Move to start position
G1 X0.1 Y200.0 Z0.3 F1500.0 E15 ; Draw the first line
G1 X0.4 Y200.0 Z0.3 F5000.0 ; Move to side a little
G1 X0.4 Y20 Z0.3 F1500.0 E30 ; Draw the second line
G92 E0 ; Reset Extruder
G1 Z2.0 F3000 ; Move Z Axis up little to prevent scratching of Heat Bed
G1 X5 Y20 Z0.3 F5000.0 ; Move over to prevent blob squish
G92 E0
G92 E0
G1 F1500 E-6.5
;LAYER_COUNT:400
;LAYER:0
M107
G0 F6000 X46.808 Y102.97 Z0.2
;TYPE:SKIRT
G1 F1500 E0
G1 F1200 X137.138 Y50.818 E3.46917
G1 X137.687 Y50.511 E3.49009
G1 X138.525 Y50.089 E3.5213
G1 X139.395 Y49.739 E3.55249
G1 X140.292 Y49.465 E3.58368
G1 X141.209 Y49.268 E3.61488
G1 X142.139 Y49.15 E3.64606
G1 X143.076 Y49.112 E3.67725
G1 X144.013 Y49.154 E3.70844
G1 X144.943 Y49.275 E3.73963
G1 X145.859 Y49.475 E3.77082
G1 X146.755 Y49.753 E3.80202
G1 X147.624 Y50.105 E3.83321
G1 X148.46 Y50.531 E3.86441
G1 X149.257 Y51.026 E3.89562
G1 X150.008 Y51.587 E3.9268
G1 X150.709 Y52.211 E3.95801
G1 X151.354 Y52.891 E3.98918
G1 X151.939 Y53.624 E4.02038
G1 X152.459 Y54.405 E4.05158
G1 X152.911 Y55.226 E4.08275
G1 X153.292 Y56.084 E4.11398
G1 X153.598 Y56.97 E4.14515
G1 X153.827 Y57.88 E4.17637
G1 X153.978 Y58.805 E4.20754
G1 X154.055 Y59.943 E4.24547
G1 X154.067 Y60.827 E4.27488
G1 X154.066 Y165.085 E7.74251
G1 X154.056 Y165.803 E7.7664
G1 X154.003 Y166.74 E7.79761
G1 X153.87 Y167.668 E7.82879
G1 X153.659 Y168.582 E7.85999
G1 X153.371 Y169.474 E7.89117
G1 X153.008 Y170.339 E7.92237
G1 X152.572 Y171.17 E7.95358
G1 X152.067 Y171.96 E7.98477
G1 X151.497 Y172.705 E8.01597
G1 X150.865 Y173.398 E8.04716
G1 X150.177 Y174.035 E8.07835
G1 X149.437 Y174.611 E8.10954
G1 X148.65 Y175.122 E8.14075
G1 X147.823 Y175.564 E8.17193
G1 X146.961 Y175.934 E8.20313
G1 X146.071 Y176.229 E8.23432
G1 X145.159 Y176.447 E8.26551
G1 X144.232 Y176.587 E8.29669
G1 X143.296 Y176.647 E8.32788
G1 X142.358 Y176.628 E8.35909
G1 X141.426 Y176.528 E8.39026
G1 X140.505 Y176.35 E8.42146
G1 X139.603 Y176.094 E8.45265
G1 X138.726 Y175.761 E8.48385
G1 X137.699 Y175.257 E8.5219
G1 X136.933 Y174.828 E8.5511
G1 X46.595 Y122.67 E12.0206
G1 X46.025 Y122.33 E12.04267
G1 X45.241 Y121.816 E12.07385
G1 X44.503 Y121.236 E12.10507
G1 X43.818 Y120.596 E12.13625
G1 X43.189 Y119.9 E12.16745
G1 X42.622 Y119.153 E12.19865
G1 X42.121 Y118.361 E12.22982
G1 X41.689 Y117.528 E12.26103
G1 X41.329 Y116.662 E12.29222
G1 X41.045 Y115.768 E12.32342
G1 X40.838 Y114.853 E12.35462
G1 X40.709 Y113.924 E12.38582
G1 X40.66 Y112.988 E12.41699
G1 X40.692 Y112.05 E12.44821
G1 X40.802 Y111.119 E12.47939
G1 X40.992 Y110.201 E12.51057
G1 X41.259 Y109.302 E12.54176
G1 X41.602 Y108.429 E12.57295
G1 X42.018 Y107.588 E12.60416
G1 X42.504 Y106.786 E12.63535
G1 X43.057 Y106.028 E12.66656
G1 X43.672 Y105.32 E12.69775
G1 X44.345 Y104.667 E12.72894
G1 X45.072 Y104.074 E12.76014
G1 X46.02 Y103.439 E12.79809
G1 X46.808 Y102.97 E12.82859
G0 F6000 X47.008 Y103.316
G1 F1200 X137.333 Y51.167 E16.29757
G1 X137.882 Y50.86 E16.31849
G1 X138.705 Y50.446 E16.34913
G1 X139.56 Y50.105 E16.37975
G1 X140.441 Y49.84 E16.41034
G1 X141.343 Y49.651 E16.441
G1 X142.257 Y49.542 E16.47161
G1 X143.177 Y49.513 E16.50223
G1 X144.096 Y49.563 E16.53284
G1 X145.008 Y49.693 E16.56348
G1 X145.904 Y49.902 E16.59408
G1 X146.78 Y50.188 E16.62473
G1 X147.627 Y50.548 E16.65534
G1 X148.439 Y50.981 E16.68595
G1 X149.211 Y51.482 E16.71656
G1 X149.937 Y52.049 E16.74719
G1 X150.611 Y52.676 E16.77781
G1 X151.227 Y53.36 E16.80843
G1 X151.782 Y54.095 E16.83906
G1 X152.272 Y54.874 E16.86967
G1 X152.691 Y55.694 E16.9003
G1 X153.038 Y56.547 E16.93093
G1 X153.31 Y57.426 E16.96153
G1 X153.504 Y58.326 E16.99215
G1 X153.62 Y59.239 E17.02276
G1 X153.655 Y59.949 E17.0464
G1 X153.667 Y60.827 E17.07561
G1 X153.666 Y165.08 E20.54308
G1 X153.656 Y165.798 E20.56696
G1 X153.603 Y166.717 E20.59758
G1 X153.471 Y167.628 E20.62819
G1 X153.26 Y168.524 E20.65881
G1 X152.972 Y169.399 E20.68945
G1 X152.609 Y170.245 E20.72007
G1 X152.175 Y171.056 E20.75066
G1 X151.671 Y171.827 E20.7813
G1 X151.103 Y172.551 E20.8119
G1 X150.474 Y173.223 E20.84252
G1 X149.788 Y173.838 E20.87316
G1 X149.052 Y174.392 E20.9038
G1 X148.271 Y174.879 E20.93441
G1 X147.451 Y175.296 E20.96501
G1 X146.597 Y175.641 E20.99565
G1 X145.717 Y175.911 E21.02626
G1 X144.817 Y176.103 E21.05687
G1 X143.903 Y176.216 E21.0875
G1 X142.983 Y176.25 E21.11812
G1 X142.063 Y176.203 E21.14876
G1 X141.151 Y176.077 E21.17938
G1 X140.254 Y175.873 E21.20998
G1 X139.377 Y175.591 E21.24062
G1 X138.529 Y175.234 E21.27122
G1 X137.894 Y174.908 E21.29496
G1 X137.133 Y174.482 E21.32397
G1 X46.93 Y122.403 E24.78826
G1 X46.23 Y121.986 E24.81536
G1 X45.46 Y121.481 E24.84599
G1 X44.738 Y120.911 E24.87658
G1 X44.067 Y120.28 E24.90722
G1 X43.454 Y119.593 E24.93784
G1 X42.903 Y118.856 E24.96845
G1 X42.418 Y118.073 E24.99908
G1 X42.002 Y117.252 E25.0297
G1 X41.659 Y116.397 E25.06034
G1 X41.392 Y115.516 E25.09095
G1 X41.202 Y114.615 E25.12158
G1 X41.092 Y113.701 E25.1522
G1 X41.06 Y112.781 E25.18282
G1 X41.109 Y111.862 E25.21343
G1 X41.238 Y110.95 E25.24406
G1 X41.445 Y110.053 E25.27468
G1 X41.729 Y109.177 E25.30531
G1 X42.088 Y108.33 E25.33591
G1 X42.519 Y107.516 E25.36654
G1 X43.019 Y106.743 E25.39716
G1 X43.585 Y106.017 E25.42778
G1 X44.211 Y105.342 E25.4584
G1 X44.893 Y104.724 E25.48901
G1 X45.627 Y104.167 E25.51966
G1 X46.225 Y103.782 E25.54331
G1 X47.008 Y103.316 E25.57362
G0 F6000 X47.208 Y103.663
G1 F1200 X137.529 Y51.516 E29.04244
G1 X138.078 Y51.209 E29.06336
G1 X138.885 Y50.804 E29.09339
G1 X139.724 Y50.471 E29.12342
G1 X140.59 Y50.215 E29.15345
G1 X141.475 Y50.035 E29.18349
G1 X142.373 Y49.935 E29.21354
G1 X143.276 Y49.914 E29.24359
G1 X144.177 Y49.974 E29.27362
G1 X145.069 Y50.113 E29.30364
G1 X145.946 Y50.33 E29.33369
G1 X146.8 Y50.624 E29.36373
G1 X147.624 Y50.992 E29.39375
G1 X148.413 Y51.432 E29.4238
G1 X149.16 Y51.94 E29.45384
G1 X149.859 Y52.512 E29.48388
G1 X150.504 Y53.143 E29.51389
G1 X151.092 Y53.829 E29.54395
G1 X151.616 Y54.565 E29.574
G1 X152.073 Y55.344 E29.60403
G1 X152.459 Y56.16 E29.63406
G1 X152.772 Y57.007 E29.66409
G1 X153.009 Y57.879 E29.69415
G1 X153.167 Y58.768 E29.72418
G1 X153.255 Y59.955 E29.76377
G1 X153.267 Y60.827 E29.79277
G1 X153.266 Y165.074 E33.26004
G1 X153.256 Y165.792 E33.28392
G1 X153.203 Y166.694 E33.31398
G1 X153.071 Y167.587 E33.344
G1 X152.861 Y168.465 E33.37403
G1 X152.573 Y169.321 E33.40407
G1 X152.211 Y170.149 E33.43412
G1 X151.778 Y170.941 E33.46414
G1 X151.275 Y171.691 E33.49418
G1 X150.709 Y172.395 E33.52422
G1 X150.082 Y173.045 E33.55426
G1 X149.401 Y173.637 E33.58427
G1 X148.669 Y174.167 E33.61433
G1 X147.894 Y174.63 E33.64436
G1 X147.08 Y175.023 E33.67442
G1 X146.236 Y175.342 E33.70443
G1 X145.366 Y175.585 E33.73448
G1 X144.478 Y175.751 E33.76452
G1 X143.579 Y175.837 E33.79456
G1 X142.676 Y175.843 E33.82459
G1 X141.776 Y175.769 E33.85463
G1 X140.886 Y175.616 E33.88467
G1 X140.013 Y175.385 E33.9147
G1 X139.164 Y175.078 E33.94473
G1 X138.089 Y174.558 E33.98445
G1 X137.333 Y174.135 E34.01326
G1 X47.005 Y121.983 E37.48237
G1 X46.435 Y121.643 E37.50444
G1 X45.68 Y121.146 E37.53451
G1 X44.973 Y120.585 E37.56453
G1 X44.318 Y119.963 E37.59457
G1 X43.72 Y119.286 E37.62461
G1 X43.185 Y118.559 E37.65463
G1 X42.716 Y117.787 E37.68468
G1 X42.318 Y116.977 E37.7147
G1 X41.992 Y116.134 E37.74476
G1 X41.742 Y115.266 E37.7748
G1 X41.57 Y114.38 E37.80482
G1 X41.478 Y113.481 E37.83488
G1 X41.465 Y112.578 E37.86491
G1 X41.531 Y111.678 E37.89493
G1 X41.678 Y110.787 E37.92496
G1 X41.902 Y109.912 E37.955
G1 X42.203 Y109.06 E37.98506
G1 X42.579 Y108.239 E38.01509
G1 X43.025 Y107.454 E38.04512
G1 X43.539 Y106.711 E38.07517
G1 X44.117 Y106.017 E38.10521
G1 X44.754 Y105.377 E38.13524
G1 X45.445 Y104.795 E38.16529
G1 X46.43 Y104.126 E38.2049
G1 X47.208 Y103.663 E38.23501
G1 F1500 E31.73501
;MESH:Model2.stl
G0 F6000 X52.52 Y111.606
G0 X53.258 Y112.882
G0 X142.467 Y164.63
;TYPE:WALL-INNER
G1 F1500 E38.23501
G1 F1200 X52.838 Y112.882 E41.67726
G1 X142.467 Y61.134 E45.11952
G1 X142.467 Y164.63 E48.56181
G0 F6000 X142.867 Y165.322
;TYPE:WALL-OUTER
G1 F1200 X52.039 Y112.882 E52.05011
G1 X142.867 Y60.442 E55.53842
G1 X142.867 Y165.322 E59.02674
G0 F6000 X142.617 Y164.89
G0 X142.357 Y163.954
G0 X142.077 Y163.954
;TYPE:SKIN
G1 F1200 X53.619 Y112.882 E62.42402
G1 X142.077 Y61.81 E65.82131
G1 X142.077 Y163.954 E69.21863
G1 F1500 E62.71863
G0 F6000 X142.357 Y163.954
G0 X142.277 Y164.3
G0 X53.218 Y112.882
G0 X53.79 Y112.46
G1 F1500 E69.21863
G0 F6000 X54.009 Y112.84
G1 F1200 X54.2 Y113.031 E69.22762
G0 F6000 X54.368 Y112.634
G1 F1200 X55.538 Y113.804 E69.28265
G0 F6000 X55.317 Y114.185
G0 X56.655 Y114.958
G0 X56.876 Y114.576
G1 F1200 X54.727 Y112.427 E69.38373
G0 F6000 X55.085 Y112.219
G1 F1200 X58.215 Y115.349 E69.53096
G0 F6000 X57.993 Y115.731
G0 X59.332 Y116.503
G0 X59.553 Y116.122
G1 F1200 X55.444 Y112.012 E69.72426
G0 F6000 X55.802 Y111.805
G1 F1200 X60.892 Y116.895 E69.96368
G0 F6000 X60.671 Y117.276
G0 X62.01 Y118.049
G0 X62.231 Y117.668
G1 F1200 X56.161 Y111.598 E70.24919
G0 F6000 X56.52 Y111.391
G1 F1200 X63.569 Y118.441 E70.58078
G0 F6000 X63.348 Y118.822
G0 X64.686 Y119.595
G0 X64.908 Y119.213
G1 F1200 X56.878 Y111.184 E70.95846
G0 F6000 X57.237 Y110.977
G1 F1200 X66.246 Y119.986 E71.38222
G0 F6000 X66.025 Y120.368
G0 X67.364 Y121.141
G0 X67.585 Y120.759
G1 F1200 X57.595 Y110.77 E71.85209
G0 F6000 X57.954 Y110.563
G1 F1200 X68.923 Y121.531 E72.36802
G0 F6000 X68.701 Y121.913
G0 X70.04 Y122.686
G0 X70.261 Y122.304
G1 F1200 X58.313 Y110.356 E72.93001
G0 F6000 X58.672 Y110.149
G1 F1200 X71.6 Y123.077 E73.53811
G0 F6000 X71.379 Y123.459
G0 X72.717 Y124.231
G0 X72.938 Y123.85
G1 F1200 X59.03 Y109.942 E74.1923
G0 F6000 X59.389 Y109.735
G1 F1200 X74.277 Y124.623 E74.89258
G0 F6000 X74.056 Y125.004
G0 X75.394 Y125.777
G0 X75.615 Y125.396
G1 F1200 X59.747 Y109.528 E75.63896
G0 F6000 X60.106 Y109.32
G1 F1200 X76.954 Y126.169 E76.43147
G0 F6000 X76.733 Y126.55
G0 X78.071 Y127.322
G0 X78.292 Y126.941
G1 F1200 X60.465 Y109.114 E77.26999
G0 F6000 X60.823 Y108.907
G1 F1200 X79.631 Y127.714 E78.15464
G0 F6000 X79.41 Y128.095
G0 X80.747 Y128.868
G0 X80.969 Y128.486
G1 F1200 X61.182 Y108.699 E79.08536
G0 F6000 X61.54 Y108.492
G1 F1200 X82.307 Y129.259 E80.06218
G0 F6000 X82.086 Y129.64
G0 X83.425 Y130.413
G0 X83.646 Y130.032
G1 F1200 X61.899 Y108.285 E81.08509
G0 F6000 X62.257 Y108.078
G1 F1200 X84.985 Y130.805 E82.15412
G0 F6000 X84.764 Y131.187
G0 X86.102 Y131.959
G0 X86.323 Y131.578
G1 F1200 X62.617 Y107.871 E83.2692
G0 F6000 X62.975 Y107.664
G1 F1200 X87.662 Y132.351 E84.4304
G0 F6000 X87.441 Y132.732
G0 X88.779 Y133.505
G0 X89 Y133.124
G1 F1200 X63.334 Y107.457 E85.63768
G0 F6000 X63.692 Y107.25
G1 F1200 X90.339 Y133.897 E86.89107
G0 F6000 X90.118 Y134.278
G0 X91.456 Y135.05
G0 X91.677 Y134.669
G1 F1200 X64.051 Y107.043 E88.19051
G0 F6000 X64.41 Y106.836
G1 F1200 X93.015 Y135.442 E89.53603
G0 F6000 X92.794 Y135.823
G0 X94.132 Y136.596
G0 X94.354 Y136.214
G1 F1200 X64.768 Y106.629 E90.92764
G0 F6000 X65.127 Y106.422
G1 F1200 X95.692 Y136.987 E92.36532
G0 F6000 X95.471 Y137.368
G0 X96.81 Y138.141
G0 X97.031 Y137.76
G1 F1200 X65.485 Y106.215 E93.84912
G0 F6000 X65.844 Y106.008
G1 F1200 X98.369 Y138.533 E95.379
G0 F6000 X98.148 Y138.914
G0 X99.487 Y139.687
G0 X99.708 Y139.306
G1 F1200 X66.202 Y105.8 E96.95502
G0 F6000 X66.562 Y105.594
G1 F1200 X101.046 Y140.079 E98.57707
G0 F6000 X100.825 Y140.46
G0 X102.164 Y141.233
G0 X102.385 Y140.852
G1 F1200 X66.92 Y105.387 E100.24523
G0 F6000 X67.279 Y105.18
G1 F1200 X103.724 Y141.625 E101.95949
G0 F6000 X103.503 Y142.006
G0 X104.841 Y142.778
G0 X105.062 Y142.397
G1 F1200 X67.637 Y104.972 E103.71985
G0 F6000 X67.996 Y104.765
G1 F1200 X106.4 Y143.17 E105.52628
G0 F6000 X106.179 Y143.551
G0 X107.518 Y144.324
G0 X107.739 Y143.942
G1 F1200 X68.354 Y104.558 E107.3788
G0 F6000 X68.713 Y104.351
G1 F1200 X109.077 Y144.715 E109.2774
G0 F6000 X108.856 Y145.096
G0 X110.195 Y145.869
G0 X110.416 Y145.488
G1 F1200 X69.072 Y104.144 E111.2221
G0 F6000 X69.43 Y103.937
G1 F1200 X111.754 Y146.261 E113.21289
G0 F6000 X111.533 Y146.642
G0 X112.872 Y147.415
G0 X113.093 Y147.034
G1 F1200 X69.789 Y103.73 E115.24978
G0 F6000 X70.147 Y103.523
G1 F1200 X114.431 Y147.807 E117.33276
G0 F6000 X114.21 Y148.188
G0 X115.549 Y148.961
G0 X115.77 Y148.58
G1 F1200 X70.507 Y103.316 E119.46182
G0 F6000 X70.865 Y103.109
G1 F1200 X117.108 Y149.352 E121.63695
G0 F6000 X116.887 Y149.733
G0 X118.225 Y150.506
G0 X118.446 Y150.125
G1 F1200 X71.224 Y102.902 E123.85815
G0 F6000 X71.582 Y102.695
G1 F1200 X119.785 Y150.898 E126.12547
G0 F6000 X119.564 Y151.279
G0 X120.902 Y152.051
G0 X121.123 Y151.67
G1 F1200 X71.941 Y102.488 E128.43884
G0 F6000 X72.299 Y102.28
G1 F1200 X122.462 Y152.443 E130.79835
G0 F6000 X122.241 Y152.824
G0 X123.579 Y153.597
G0 X123.8 Y153.216
G1 F1200 X72.658 Y102.074 E133.20392
G0 F6000 X73.017 Y101.867
G1 F1200 X125.139 Y153.989 E135.65558
G0 F6000 X124.918 Y154.37
G0 X126.257 Y155.143
G0 X126.478 Y154.762
G1 F1200 X73.375 Y101.66 E138.15335
G0 F6000 X73.734 Y101.452
G1 F1200 X127.816 Y155.535 E140.69723
G0 F6000 X127.595 Y155.916
G0 X128.934 Y156.689
G0 X129.155 Y156.308
G1 F1200 X74.092 Y101.245 E143.28722
G0 F6000 X74.451 Y101.038
G1 F1200 X130.493 Y157.08 E145.92327
G0 F6000 X130.272 Y157.461
G0 X131.61 Y158.234
G0 X131.831 Y157.853
G1 F1200 X74.81 Y100.832 E148.60536
G0 F6000 X75.168 Y100.624
G1 F1200 X133.17 Y158.625 E151.33357
G0 F6000 X132.949 Y159.006
G0 X134.287 Y159.779
G0 X134.508 Y159.398
G1 F1200 X75.527 Y100.417 E154.10786
G0 F6000 X75.885 Y100.21
G1 F1200 X135.847 Y160.171 E156.92826
G0 F6000 X135.626 Y160.552
G0 X136.964 Y161.325
G0 X137.185 Y160.944
G1 F1200 X76.244 Y100.003 E159.79474
G0 F6000 X76.603 Y99.796
G1 F1200 X138.524 Y161.717 E162.70732
G0 F6000 X138.303 Y162.098
G0 X139.641 Y162.87
G0 X139.862 Y162.49
G1 F1200 X76.962 Y99.589 E165.66596
G0 F6000 X77.32 Y99.382
G1 F1200 X141.201 Y163.263 E168.67073
G0 F6000 X141.917 Y163.413
G1 F1200 X77.679 Y99.175 E171.69229
G0 F6000 X78.037 Y98.968
G1 F1200 X141.917 Y162.847 E174.69698
G0 F6000 X141.917 Y162.281
G1 F1200 X78.396 Y98.76 E177.68482
G0 F6000 X78.755 Y98.554
G1 F1200 X141.917 Y161.716 E180.65576
G0 F6000 X141.917 Y161.15
G1 F1200 X79.113 Y98.347 E183.60985
G0 F6000 X79.472 Y98.14
G1 F1200 X141.917 Y160.584 E186.54704
G0 F6000 X141.917 Y160.018
G1 F1200 X79.83 Y97.932 E189.4674
G0 F6000 X80.189 Y97.725
G1 F1200 X141.917 Y159.453 E192.3709
G0 F6000 X141.917 Y158.887
G1 F1200 X80.547 Y97.518 E195.25753
G0 F6000 X80.907 Y97.312
G1 F1200 X141.917 Y158.321 E198.12723
G0 F6000 X141.917 Y157.756
G1 F1200 X81.265 Y97.104 E200.98012
G0 F6000 X81.624 Y96.897
G1 F1200 X141.917 Y157.19 E203.81611
G0 F6000 X141.917 Y156.624
G1 F1200 X81.982 Y96.69 E206.63525
G0 F6000 X82.341 Y96.483
G1 F1200 X141.917 Y156.059 E209.43752
G0 F6000 X141.917 Y155.493
G1 F1200 X82.7 Y96.276 E212.22291
G0 F6000 X83.058 Y96.069
G1 F1200 X141.917 Y154.927 E214.99143
G0 F6000 X141.917 Y154.362
G1 F1200 X83.417 Y95.862 E217.74309
G0 F6000 X83.775 Y95.655
G1 F1200 X141.917 Y153.796 E220.47789
G0 F6000 X141.917 Y153.23
G1 F1200 X84.134 Y95.448 E223.1958
G0 F6000 X84.492 Y95.24
G1 F1200 X141.917 Y152.665 E225.8969
G0 F6000 X141.917 Y152.099
