;FLAVOR:Marlin
;TIME:14301
;Filament used: 13.3896m
;Layer height: 0.2
;MINX:62.09
;MINY:54.712
;MINZ:0.2
;MAXX:157.921
;MAXY:152.417
;MAXZ:80
;Generated with Cura_SteamEngine 4.13.1
M140 S60
M105
M190 S60
M104 S200
M105
M109 S200
M82 ;absolute extrusion mode
; Ender 3 Custom Start G-code
G92 E0 ; Reset Extruder
G28 ; Home all axes
G1 Z2.0 F3000 ; Move Z Axis up little to prevent scratching of Heat Bed
G1 X0.1 Y20 Z0.3 F5000.0 ; Move to start position
G1 X0.1 Y200.0 Z0.3 F1500.0 E15 ; Draw the first line
G1 X0.4 Y200.0 Z0.3 F5000.0 ; Move to side a little
G1 X0.4 Y20 Z0.3 F1500.0 E30 ; Draw the second line
G92 E0 ; Reset Extruder
G1 Z2.0 F3000 ; Move Z Axis up little to prevent scratching of Heat Bed
G1 X5 Y20 Z0.3 F5000.0 ; Move over to prevent blob squish
G92 E0
G92 E0
G1 F1500 E-6.5
;LAYER_COUNT:400
;LAYER:0
M107
G0 F6000 X79.423 Y65.968 Z0.2
;TYPE:SKIRT
G1 F1500 E0
G1 F1200 X80.069 Y65.288 E0.0312
G1 X80.771 Y64.666 E0.06239
G1 X81.523 Y64.106 E0.09358
G1 X82.32 Y63.612 E0.12476
G1 X83.157 Y63.188 E0.15597
G1 X84.026 Y62.836 E0.18715
G1 X84.838 Y62.582 E0.21545
G1 X84.997 Y62.539 E0.22093
G1 X85.332 Y62.455 E0.23242
G1 X85.788 Y62.347 E0.248
G1 X117.554 Y55.098 E1.33171
G1 X118.272 Y54.945 E1.35612
G1 X119.197 Y54.788 E1.38733
G1 X120.132 Y54.712 E1.41853
G1 X121.07 Y54.715 E1.44973
G1 X122.004 Y54.798 E1.48091
G1 X122.928 Y54.96 E1.51212
G1 X123.834 Y55.2 E1.54329
G1 X124.717 Y55.517 E1.57449
G1 X125.57 Y55.907 E1.60569
G1 X126.386 Y56.369 E1.63688
G1 X127.103 Y56.857 E1.66572
G1 X127.464 Y57.128 E1.68074
G1 X127.801 Y57.392 E1.69498
G1 X153.393 Y77.801 E2.78369
G1 X153.902 Y78.22 E2.80562
G1 X154.6 Y78.847 E2.83683
G1 X155.242 Y79.53 E2.86801
G1 X155.824 Y80.266 E2.89921
G1 X156.341 Y81.049 E2.93042
G1 X156.789 Y81.873 E2.96162
G1 X157.165 Y82.732 E2.9928
G1 X157.467 Y83.62 E3.024
G1 X157.692 Y84.53 E3.05518
G1 X157.839 Y85.456 E3.08636
G1 X157.904 Y86.32 E3.11518
G1 X157.911 Y86.516 E3.1217
G1 X157.917 Y86.796 E3.13102
G1 X157.921 Y87.2 E3.14446
G1 X157.92 Y119.867 E4.23097
G1 X157.91 Y120.568 E4.25428
G1 X157.857 Y121.504 E4.28546
G1 X157.724 Y122.433 E4.31668
G1 X157.512 Y123.346 E4.34785
G1 X157.224 Y124.239 E4.37906
G1 X156.86 Y125.103 E4.41024
G1 X156.424 Y125.934 E4.44146
G1 X155.919 Y126.724 E4.47264
G1 X155.349 Y127.468 E4.50381
G1 X154.717 Y128.161 E4.53501
G1 X154.065 Y128.767 E4.56462
G1 X153.905 Y128.904 E4.57162
G1 X153.679 Y129.092 E4.5814
G1 X153.387 Y129.328 E4.59389
G1 X127.867 Y149.679 E5.67953
G1 X127.3 Y150.118 E5.70338
G1 X126.535 Y150.66 E5.73456
G1 X125.726 Y151.135 E5.76577
G1 X124.88 Y151.539 E5.79695
G1 X124.002 Y151.87 E5.82816
G1 X123.1 Y152.124 E5.85932
G1 X122.179 Y152.301 E5.89052
G1 X121.246 Y152.399 E5.92172
G1 X120.308 Y152.417 E5.95292
G1 X119.372 Y152.355 E5.98412
G1 X118.561 Y152.236 E6.01138
G1 X118.383 Y152.203 E6.01741
G1 X118.047 Y152.135 E6.02881
G1 X117.592 Y152.035 E6.0443
G1 X85.786 Y144.777 E7.12937
G1 X85.103 Y144.61 E7.15275
G1 X84.203 Y144.349 E7.18392
G1 X83.327 Y144.012 E7.21514
G1 X82.484 Y143.601 E7.24633
G1 X81.679 Y143.12 E7.27752
G1 X80.918 Y142.573 E7.30869
G1 X80.206 Y141.962 E7.3399
G1 X79.548 Y141.293 E7.37111
G1 X78.95 Y140.571 E7.40229
G1 X78.416 Y139.8 E7.43348
G1 X78.134 Y139.328 E7.45177
G1 X78.059 Y139.195 E7.45685
G1 X77.778 Y138.662 E7.47689
G1 X77.534 Y138.167 E7.49525
G1 X63.405 Y108.823 E8.57847
G1 X63.111 Y108.189 E8.60172
G1 X62.753 Y107.322 E8.63292
G1 X62.47 Y106.427 E8.66414
G1 X62.264 Y105.512 E8.69533
G1 X62.138 Y104.583 E8.72651
G1 X62.09 Y103.647 E8.75768
G1 X62.123 Y102.709 E8.7889
G1 X62.235 Y101.778 E8.82009
G1 X62.427 Y100.86 E8.85128
G1 X62.696 Y99.961 E8.88249
G1 X63.03 Y99.111 E8.91287
G1 X63.203 Y98.728 E8.92685
G1 X63.419 Y98.268 E8.94375
G1 X77.488 Y69.053 E10.02225
G1 X77.862 Y68.301 E10.05018
G1 X78.315 Y67.479 E10.0814
G1 X78.837 Y66.7 E10.11259
G1 X79.423 Y65.968 E10.14377
G0 F6000 X79.757 Y66.193
G1 F1200 X80.396 Y65.529 E10.17442
G1 X81.089 Y64.923 E10.20504
G1 X81.832 Y64.38 E10.23565
G1 X82.62 Y63.903 E10.26629
G1 X83.446 Y63.497 E10.2969
G1 X84.304 Y63.163 E10.32752
G1 X84.943 Y62.969 E10.34973
G1 X85.102 Y62.926 E10.35521
G1 X85.424 Y62.844 E10.36626
G1 X85.877 Y62.737 E10.38175
G1 X117.638 Y55.489 E11.46528
G1 X118.356 Y55.336 E11.4897
G1 X119.264 Y55.183 E11.52032
G1 X120.181 Y55.11 E11.55092
G1 X121.102 Y55.117 E11.58155
G1 X122.019 Y55.203 E11.61218
G1 X122.924 Y55.369 E11.64279
G1 X123.812 Y55.613 E11.67342
G1 X124.675 Y55.932 E11.70402
G1 X125.508 Y56.326 E11.73467
G1 X126.303 Y56.79 E11.76528
G1 X126.866 Y57.179 E11.78804
G1 X127.218 Y57.443 E11.80268
G1 X127.552 Y57.704 E11.81678
G1 X153.011 Y78.006 E12.89982
G1 X153.648 Y78.529 E12.92723
G1 X154.333 Y79.145 E12.95787
G1 X154.961 Y79.817 E12.98846
G1 X155.529 Y80.542 E13.01909
G1 X156.032 Y81.313 E13.04971
G1 X156.466 Y82.125 E13.08034
G1 X156.829 Y82.971 E13.11096
G1 X157.116 Y83.846 E13.14158
G1 X157.326 Y84.742 E13.17219
G1 X157.458 Y85.653 E13.20281
G1 X157.504 Y86.335 E13.22554
G1 X157.511 Y86.531 E13.23207
G1 X157.517 Y86.8 E13.24102
G1 X157.521 Y87.2 E13.25432
G1 X157.52 Y119.861 E14.34063
G1 X157.51 Y120.562 E14.36395
G1 X157.457 Y121.481 E14.39456
G1 X157.324 Y122.392 E14.42519
G1 X157.113 Y123.288 E14.4558
G1 X156.825 Y124.163 E14.48644
G1 X156.462 Y125.009 E14.51706
G1 X156.027 Y125.82 E14.54767
G1 X155.523 Y126.591 E14.5783
G1 X154.954 Y127.315 E14.60893
G1 X154.325 Y127.987 E14.63955
G1 X153.805 Y128.463 E14.66299
G1 X153.645 Y128.6 E14.67
G1 X153.427 Y128.782 E14.67944
G1 X153.138 Y129.015 E14.69179
G1 X127.622 Y149.362 E15.77725
G1 X127.055 Y149.801 E15.8011
G1 X126.304 Y150.333 E15.83171
G1 X125.509 Y150.797 E15.86232
G1 X124.676 Y151.191 E15.89297
G1 X123.813 Y151.51 E15.92358
G1 X122.925 Y151.754 E15.9542
G1 X122.019 Y151.92 E15.98484
G1 X121.103 Y152.006 E16.01544
G1 X120.182 Y152.013 E16.04607
G1 X119.265 Y151.94 E16.07667
G1 X118.634 Y151.842 E16.09791
G1 X118.456 Y151.809 E16.10393
G1 X118.133 Y151.744 E16.11489
G1 X117.681 Y151.645 E16.13028
G1 X85.881 Y144.389 E17.21513
G1 X85.198 Y144.222 E17.23852
G1 X84.314 Y143.964 E17.26915
G1 X83.456 Y143.631 E17.29976
G1 X82.63 Y143.225 E17.33037
G1 X81.842 Y142.749 E17.36099
G1 X81.099 Y142.206 E17.3916
G1 X80.405 Y141.6 E17.42224
G1 X79.767 Y140.937 E17.45285
G1 X79.188 Y140.221 E17.48347
G1 X78.483 Y139.132 E17.52662
G1 X78.408 Y138.999 E17.5317
G1 X78.136 Y138.485 E17.55104
G1 X77.895 Y137.994 E17.56923
G1 X63.768 Y108.654 E18.65231
G1 X63.474 Y108.02 E18.67556
G1 X63.123 Y107.169 E18.70617
G1 X62.847 Y106.291 E18.73679
G1 X62.649 Y105.392 E18.7674
G1 X62.53 Y104.479 E18.79803
G1 X62.49 Y103.559 E18.82866
G1 X62.53 Y102.639 E18.85928
G1 X62.65 Y101.726 E18.88991
G1 X62.849 Y100.827 E18.92054
G1 X63.124 Y99.949 E18.95114
G1 X63.396 Y99.273 E18.97537
G1 X63.565 Y98.898 E18.98905
G1 X63.78 Y98.442 E19.00582
G1 X77.909 Y69.104 E20.08887
G1 X78.22 Y68.479 E20.11209
G1 X78.666 Y67.673 E20.14273
G1 X79.179 Y66.909 E20.17333
G1 X79.757 Y66.193 E20.20394
G0 F6000 X80.092 Y66.418
G1 F1200 X80.722 Y65.771 E20.23398
G1 X81.406 Y65.182 E20.264
G1 X82.14 Y64.656 E20.29403
G1 X82.918 Y64.197 E20.32408
G1 X83.733 Y63.808 E20.35411
G1 X84.579 Y63.493 E20.38414
G1 X85.047 Y63.355 E20.40037
G1 X85.206 Y63.312 E20.40585
G1 X85.516 Y63.233 E20.41649
G1 X85.966 Y63.127 E20.43186
G1 X117.721 Y55.88 E21.51519
G1 X118.439 Y55.727 E21.53961
G1 X119.33 Y55.578 E21.56966
G1 X120.23 Y55.508 E21.59968
G1 X121.133 Y55.519 E21.62972
G1 X122.032 Y55.609 E21.65977
G1 X122.919 Y55.778 E21.6898
G1 X123.788 Y56.025 E21.71985
G1 X124.631 Y56.348 E21.74987
G1 X125.443 Y56.745 E21.77994
G1 X126.216 Y57.211 E21.80996
G1 X126.628 Y57.5 E21.82669
G1 X126.766 Y57.602 E21.8324
G1 X126.972 Y57.759 E21.84102
G1 X127.302 Y58.017 E21.85495
G1 X152.885 Y78.419 E22.94329
G1 X153.394 Y78.838 E22.96522
G1 X154.065 Y79.442 E22.99524
G1 X154.68 Y80.104 E23.0253
G1 X155.234 Y80.817 E23.05533
G1 X155.723 Y81.576 E23.08536
G1 X156.143 Y82.375 E23.11538
G1 X156.49 Y83.209 E23.14543
G1 X156.763 Y84.07 E23.17547
G1 X156.958 Y84.952 E23.20551
G1 X157.074 Y85.847 E23.23553
G1 X157.105 Y86.349 E23.25226
G1 X157.112 Y86.545 E23.25878
G1 X157.12 Y87.095 E23.27707
G1 X157.121 Y119.71 E24.36185
G1 X157.11 Y120.556 E24.38999
G1 X157.057 Y121.458 E24.42005
G1 X156.925 Y122.351 E24.45007
G1 X156.714 Y123.23 E24.48014
G1 X156.426 Y124.086 E24.51018
G1 X156.064 Y124.913 E24.5402
G1 X155.63 Y125.705 E24.57024
G1 X155.127 Y126.455 E24.60027
G1 X154.56 Y127.158 E24.63031
G1 X153.934 Y127.808 E24.66033
G1 X153.545 Y128.159 E24.67776
G1 X153.385 Y128.296 E24.68476
G1 X153.175 Y128.471 E24.69385
G1 X152.889 Y128.703 E24.7061
G1 X127.493 Y148.956 E25.78649
G1 X126.81 Y149.485 E25.81522
G1 X126.073 Y150.006 E25.84524
G1 X125.292 Y150.459 E25.87527
G1 X124.473 Y150.842 E25.90534
G1 X123.625 Y151.151 E25.93536
G1 X122.752 Y151.383 E25.96541
G1 X121.862 Y151.537 E25.99545
G1 X120.962 Y151.612 E26.02548
G1 X120.059 Y151.607 E26.05552
G1 X119.16 Y151.523 E26.08555
G1 X118.707 Y151.449 E26.10082
G1 X118.529 Y151.416 E26.10684
G1 X118.218 Y151.353 E26.11739
G1 X117.77 Y151.255 E26.13264
G1 X85.976 Y144 E27.2173
G1 X85.293 Y143.833 E27.24068
G1 X84.426 Y143.58 E27.27072
G1 X83.585 Y143.251 E27.30076
G1 X82.777 Y142.849 E27.33078
G1 X82.007 Y142.377 E27.36082
G1 X81.281 Y141.839 E27.39087
G1 X80.607 Y141.239 E27.42088
G1 X79.987 Y140.582 E27.45093
G1 X79.429 Y139.872 E27.48096
G1 X78.831 Y138.935 E27.51793
G1 X78.756 Y138.802 E27.52301
G1 X78.495 Y138.307 E27.54162
G1 X78.255 Y137.82 E27.55968
G1 X64.131 Y108.486 E28.64254
G1 X63.837 Y107.852 E28.66578
G1 X63.493 Y107.017 E28.69582
G1 X63.225 Y106.154 E28.72588
G1 X63.034 Y105.272 E28.75589
G1 X62.923 Y104.375 E28.78595
G1 X62.89 Y103.473 E28.81597
G1 X62.938 Y102.571 E28.84602
G1 X63.066 Y101.677 E28.87605
G1 X63.271 Y100.798 E28.90607
G1 X63.554 Y99.94 E28.93612
G1 X63.762 Y99.435 E28.95429
G1 X63.927 Y99.068 E28.96767
G1 X64.14 Y98.615 E28.98432
G1 X78.267 Y69.282 E30.06719
G1 X78.578 Y68.657 E30.09041
G1 X79.016 Y67.867 E30.12045
G1 X79.522 Y67.119 E30.15049
G1 X80.092 Y66.418 E30.18054
G1 F1500 E23.68054
;MESH:Model1.stl
G0 F6000 X87.017 Y73.086
G0 X87.994 Y73.555
G0 X73.938 Y103.562
G0 X88.24 Y133.26
G0 X120.419 Y140.783
;TYPE:WALL-INNER
G1 F1500 E30.18054
G1 F1200 X88.119 Y133.412 E31.28246
G1 X73.745 Y103.562 E32.38439
G1 X88.119 Y73.712 E33.48632
G1 X120.419 Y66.341 E34.58824
G1 X146.321 Y86.997 E35.69014
G1 X146.321 Y120.127 E36.79205
G1 X120.419 Y140.783 E37.89395
G0 F6000 X120.518 Y141.216
;TYPE:WALL-OUTER
G1 F1200 X87.842 Y133.759 E39.0087
G1 X73.301 Y103.562 E40.12343
G1 X87.842 Y73.365 E41.23817
G1 X120.518 Y65.908 E42.35292
G1 X146.721 Y86.804 E43.46762
G1 X146.721 Y120.32 E44.58237
G1 X120.518 Y141.216 E45.69708
G0 F6000 X120.394 Y140.752
G0 X120.323 Y140.362
;TYPE:SKIN
G1 F1200 X88.388 Y133.074 E46.78655
G1 X74.177 Y103.562 E47.87599
G1 X88.388 Y74.05 E48.96544
G1 X120.323 Y66.762 E50.05491
G1 X145.931 Y87.185 E51.14434
G1 X145.931 Y119.939 E52.23374
G1 X120.323 Y140.362 E53.32316
G1 F1500 E46.82316
G0 F6000 X120.261 Y140.633
G0 X88.806 Y133.454
G1 F1500 E53.32316
G0 F6000 X88.904 Y133.027
G1 F1200 X88.205 Y132.329 E53.35602
G0 F6000 X87.811 Y132.518
G0 X87.285 Y131.427
G0 X87.68 Y131.238
G1 F1200 X89.637 Y133.194 E53.44805
G0 F6000 X90.37 Y133.362
G1 F1200 X87.155 Y130.147 E53.59927
G0 F6000 X86.76 Y130.336
G0 X86.235 Y129.245
G0 X86.63 Y129.056
G1 F1200 X91.102 Y133.529 E53.80964
G0 F6000 X91.836 Y133.696
G1 F1200 X86.105 Y127.965 E54.07921
G0 F6000 X85.709 Y128.154
G0 X85.184 Y127.063
G0 X85.579 Y126.874
G1 F1200 X92.568 Y133.863 E54.40795
G0 F6000 X93.302 Y134.031
G1 F1200 X85.054 Y125.783 E54.79591
G0 F6000 X84.659 Y125.972
G0 X84.133 Y124.881
G0 X84.528 Y124.692
G1 F1200 X94.034 Y134.198 E55.24305
G0 F6000 X94.767 Y134.365
G1 F1200 X84.003 Y123.601 E55.74935
G0 F6000 X83.608 Y123.79
G0 X83.083 Y122.7
G0 X83.478 Y122.511
G1 F1200 X95.5 Y134.532 E56.31481
G0 F6000 X96.233 Y134.7
G1 F1200 X82.953 Y121.42 E56.93946
G0 F6000 X82.558 Y121.609
G0 X82.032 Y120.518
G0 X82.428 Y120.329
G1 F1200 X96.966 Y134.867 E57.62328
G0 F6000 X97.699 Y135.034
G1 F1200 X81.902 Y119.238 E58.3663
G0 F6000 X81.507 Y119.427
G0 X80.981 Y118.336
G0 X81.377 Y118.146
G1 F1200 X98.432 Y135.201 E59.16851
G0 F6000 X99.165 Y135.369
G1 F1200 X80.852 Y117.055 E60.02992
G0 F6000 X80.456 Y117.245
G0 X79.931 Y116.155
G0 X80.327 Y115.965
G1 F1200 X99.897 Y135.536 E60.95046
G0 F6000 X100.631 Y135.703
G1 F1200 X79.801 Y114.874 E61.93022
G0 F6000 X79.405 Y115.063
G0 X78.88 Y113.973
G0 X79.276 Y113.783
G1 F1200 X101.363 Y135.87 E62.96912
G0 F6000 X102.097 Y136.038
G1 F1200 X78.751 Y112.692 E64.06725
G0 F6000 X78.355 Y112.882
G0 X77.829 Y111.79
G0 X78.225 Y111.601
G1 F1200 X102.829 Y136.205 E65.22454
G0 F6000 X103.562 Y136.372
G1 F1200 X77.7 Y110.51 E66.44101
G0 F6000 X77.304 Y110.7
G0 X76.779 Y109.609
G0 X77.175 Y109.419
G1 F1200 X104.295 Y136.539 E67.71665
G0 F6000 X105.028 Y136.707
G1 F1200 X76.65 Y108.328 E69.05149
G0 F6000 X76.254 Y108.518
G0 X75.728 Y107.427
G0 X76.124 Y107.237
G1 F1200 X105.761 Y136.873 E70.4455
G0 F6000 X106.494 Y137.041
G1 F1200 X75.599 Y106.146 E71.89871
G0 F6000 X75.203 Y106.336
G0 X74.677 Y105.245
G0 X75.074 Y105.055
G1 F1200 X107.227 Y137.208 E73.41109
G0 F6000 X107.96 Y137.375
G1 F1200 X74.548 Y103.964 E74.98266
G0 F6000 X74.47 Y103.32
G1 F1200 X108.692 Y137.542 E76.59236
G0 F6000 X109.426 Y137.71
G1 F1200 X74.654 Y102.938 E78.22793
G0 F6000 X74.838 Y102.556
G1 F1200 X110.158 Y137.877 E79.88929
G0 F6000 X110.892 Y138.044
G1 F1200 X75.021 Y102.174 E81.57653
G0 F6000 X75.205 Y101.792
G1 F1200 X111.624 Y138.211 E83.28957
G0 F6000 X112.357 Y138.379
G1 F1200 X75.389 Y101.411 E85.02843
G0 F6000 X75.573 Y101.029
G1 F1200 X113.09 Y138.546 E86.79312
G0 F6000 X113.823 Y138.713
G1 F1200 X75.757 Y100.647 E88.58362
G0 F6000 X75.941 Y100.265
G1 F1200 X114.556 Y138.88 E90.39996
G0 F6000 X115.289 Y139.048
G1 F1200 X76.124 Y99.883 E92.24216
G0 F6000 X76.308 Y99.501
G1 F1200 X116.022 Y139.215 E94.11018
G0 F6000 X116.755 Y139.382
G1 F1200 X76.492 Y99.12 E96.00401
G0 F6000 X76.676 Y98.738
G1 F1200 X117.487 Y139.549 E97.92363
G0 F6000 X118.221 Y139.717
G1 F1200 X76.86 Y98.356 E99.86913
G0 F6000 X77.044 Y97.974
G1 F1200 X118.953 Y139.884 E101.84042
G0 F6000 X119.687 Y140.051
G1 F1200 X77.228 Y97.592 E103.83756
G0 F6000 X77.411 Y97.21
G1 F1200 X120.342 Y140.141 E105.8569
G0 F6000 X120.657 Y139.89
G1 F1200 X77.595 Y96.829 E107.88238
G0 F6000 X77.779 Y96.447
G1 F1200 X120.971 Y139.639 E109.914
G0 F6000 X121.286 Y139.388
G1 F1200 X77.963 Y96.065 E111.95179
G0 F6000 X78.147 Y95.683
G1 F1200 X121.601 Y139.137 E113.99573
G0 F6000 X121.915 Y138.886
G1 F1200 X78.331 Y95.301 E116.04581
G0 F6000 X78.515 Y94.919
G1 F1200 X122.23 Y138.635 E118.10205
G0 F6000 X122.545 Y138.384
G1 F1200 X78.698 Y94.538 E120.16446
G0 F6000 X78.882 Y94.156
G1 F1200 X122.859 Y138.133 E122.233
G0 F6000 X123.174 Y137.882
G1 F1200 X79.066 Y93.774 E124.30771
G0 F6000 X79.25 Y93.392
G1 F1200 X123.489 Y137.631 E126.38857
G0 F6000 X123.803 Y137.38
G1 F1200 X79.434 Y93.01 E128.47558
G0 F6000 X79.618 Y92.628
G1 F1200 X124.118 Y137.129 E130.56875
G0 F6000 X124.433 Y136.878
G1 F1200 X79.801 Y92.247 E132.66807
G0 F6000 X79.985 Y91.865
G1 F1200 X124.747 Y136.627 E134.77354
G0 F6000 X125.063 Y136.376
G1 F1200 X80.169 Y91.483 E136.88519
G0 F6000 X80.353 Y91.101
G1 F1200 X125.377 Y136.125 E139.00298
G0 F6000 X125.692 Y135.874
G1 F1200 X80.537 Y90.719 E141.12694
G0 F6000 X80.721 Y90.337
G1 F1200 X126.007 Y135.623 E143.25705
G0 F6000 X126.321 Y135.372
G1 F1200 X80.905 Y89.956 E145.39328
G0 F6000 X81.088 Y89.574
