;FLAVOR:Marlin
;TIME:23687
;Filament used: 24.0411m
;Layer height: 0.2
;MINX:54.541
;MINY:49.927
;MINZ:0.2
;MAXX:175.654
;MAXY:171.04
;MAXZ:80
;Generated with Cura_SteamEngine 4.13.1
M140 S60
M105
M190 S60
M104 S200
M105
M109 S200
M82 ;absolute extrusion mode
; Ender 3 Custom Start G-code
G92 E0 ; Reset Extruder
G28 ; Home all axes
G1 Z2.0 F3000 ; Move Z Axis up little to prevent scratching of Heat Bed
G1 X0.1 Y20 Z0.3 F5000.0 ; Move to start position
G1 X0.1 Y200.0 Z0.3 F1500.0 E15 ; Draw the first line
G1 X0.4 Y200.0 Z0.3 F5000.0 ; Move to side a little
G1 X0.4 Y20 Z0.3 F1500.0 E30 ; Draw the second line
G92 E0 ; Reset Extruder
G1 Z2.0 F3000 ; Move Z Axis up little to prevent scratching of Heat Bed
G1 X5 Y20 Z0.3 F5000.0 ; Move over to prevent blob squish
G92 E0
G92 E0
G1 F1500 E-6.5
;LAYER_COUNT:400
;LAYER:0
M107
G0 F6000 X67.765 Y73.019 Z0.2
;TYPE:SKIRT
G1 F1500 E0
G1 F1200 X77.809 Y62.977 E0.47239
G1 X78.288 Y62.511 E0.49462
G1 X78.987 Y61.886 E0.52581
G1 X79.737 Y61.323 E0.557
G1 X80.814 Y60.672 E0.59885
G1 X81.671 Y60.22 E0.63108
G1 X94.277 Y53.798 E1.10163
G1 X94.917 Y53.483 E1.12535
G1 X95.776 Y53.105 E1.15657
G1 X96.663 Y52.801 E1.18775
G1 X97.881 Y52.516 E1.22936
G1 X98.832 Y52.351 E1.26146
G1 X112.814 Y50.138 E1.73229
G1 X113.51 Y50.037 E1.75569
G1 X114.443 Y49.942 E1.78688
G1 X115.381 Y49.927 E1.81808
G1 X116.646 Y50.034 E1.8603
G1 X117.61 Y50.173 E1.8927
G1 X131.591 Y52.389 E2.36351
G1 X132.262 Y52.504 E2.38616
G1 X133.179 Y52.702 E2.41736
G1 X134.076 Y52.977 E2.44856
G1 X135.256 Y53.474 E2.49115
G1 X136.097 Y53.889 E2.52234
G1 X148.714 Y60.318 E2.99332
G1 X149.356 Y60.657 E3.01747
G1 X150.166 Y61.13 E3.04867
G1 X150.933 Y61.67 E3.07987
G1 X151.873 Y62.483 E3.1212
G1 X152.602 Y63.191 E3.155
G1 X162.549 Y73.139 E3.6229
G1 X163.062 Y73.665 E3.64734
G1 X163.687 Y74.363 E3.6785
G1 X164.251 Y75.113 E3.70971
G1 X164.904 Y76.19 E3.75161
G1 X165.371 Y77.073 E3.78483
G1 X171.785 Y89.665 E4.25484
G1 X172.102 Y90.31 E4.27875
G1 X172.48 Y91.169 E4.30996
G1 X172.782 Y92.056 E4.34113
G1 X173.065 Y93.264 E4.38239
G1 X173.229 Y94.207 E4.41423
G1 X175.445 Y108.211 E4.8858
G1 X175.545 Y108.902 E4.90902
G1 X175.639 Y109.835 E4.94021
G1 X175.654 Y110.772 E4.97138
G1 X175.548 Y112.031 E5.0134
G1 X175.412 Y112.976 E5.04515
G1 X173.216 Y126.84 E5.51202
G1 X173.073 Y127.667 E5.53994
G1 X172.874 Y128.584 E5.57114
G1 X172.597 Y129.48 E5.60234
G1 X172.115 Y130.623 E5.6436
G1 X171.668 Y131.534 E5.67735
G1 X165.265 Y144.099 E6.14639
G1 X164.924 Y144.745 E6.17069
G1 X164.451 Y145.555 E6.20189
G1 X163.911 Y146.322 E6.23309
G1 X163.093 Y147.267 E6.27466
G1 X162.431 Y147.948 E6.30625
G1 X152.386 Y157.991 E6.77868
G1 X151.907 Y158.457 E6.80091
G1 X151.208 Y159.082 E6.8321
G1 X150.458 Y159.645 E6.86329
G1 X149.381 Y160.296 E6.90515
G1 X148.524 Y160.748 E6.93737
G1 X135.929 Y167.165 E7.40752
G1 X135.277 Y167.486 E7.43169
G1 X134.418 Y167.864 E7.46291
G1 X133.531 Y168.167 E7.49408
G1 X132.299 Y168.455 E7.53616
G1 X131.39 Y168.612 E7.56684
G1 X117.506 Y170.811 E8.03438
G1 X116.677 Y170.931 E8.06224
G1 X115.744 Y171.025 E8.09343
G1 X114.806 Y171.04 E8.12463
G1 X113.545 Y170.933 E8.16673
G1 X112.598 Y170.796 E8.19855
G1 X98.753 Y168.604 E8.66477
G1 X97.914 Y168.459 E8.69309
G1 X96.998 Y168.26 E8.72427
G1 X96.101 Y167.983 E8.75549
G1 X94.953 Y167.499 E8.79693
G1 X94.059 Y167.06 E8.83006
G1 X81.482 Y160.651 E9.29955
G1 X80.836 Y160.31 E9.32385
G1 X80.026 Y159.837 E9.35505
G1 X79.259 Y159.297 E9.38624
G1 X78.312 Y158.478 E9.42789
G1 X77.625 Y157.81 E9.45976
G1 X67.73 Y147.914 E9.92521
G1 X67.117 Y147.283 E9.95447
G1 X66.493 Y146.583 E9.98566
G1 X65.931 Y145.832 E10.01686
G1 X65.291 Y144.775 E10.05796
G1 X64.832 Y143.906 E10.09064
G1 X58.411 Y131.302 E10.56112
G1 X58.093 Y130.655 E10.5851
G1 X57.716 Y129.797 E10.61627
G1 X57.413 Y128.909 E10.64747
G1 X57.128 Y127.689 E10.68914
G1 X56.966 Y126.754 E10.72071
G1 X54.771 Y112.899 E11.18727
G1 X54.65 Y112.066 E11.21527
G1 X54.556 Y111.133 E11.24646
G1 X54.541 Y110.196 E11.27763
G1 X54.648 Y108.932 E11.31982
G1 X54.788 Y107.963 E11.35238
G1 X56.978 Y94.139 E11.8179
G1 X57.125 Y93.291 E11.84653
G1 X57.325 Y92.374 E11.87775
G1 X57.602 Y91.478 E11.90894
G1 X58.075 Y90.355 E11.94947
G1 X58.496 Y89.495 E11.98131
G1 X64.931 Y76.868 E12.45268
G1 X65.272 Y76.222 E12.47698
G1 X65.745 Y75.412 E12.50818
G1 X66.285 Y74.645 E12.53937
G1 X67.103 Y73.7 E12.58095
G1 X67.765 Y73.019 E12.61253
G0 F6000 X67.933 Y73.418
G1 F1200 X78.087 Y63.263 E13.09017
G1 X78.566 Y62.797 E13.1124
G1 X79.254 Y62.185 E13.14302
G1 X79.991 Y61.634 E13.17363
G1 X81.001 Y61.025 E13.21286
G1 X81.853 Y60.576 E13.24489
G1 X94.323 Y54.222 E13.71038
G1 X95.094 Y53.842 E13.73897
G1 X95.937 Y53.471 E13.7696
G1 X96.809 Y53.175 E13.80023
G1 X97.95 Y52.91 E13.83919
G1 X98.895 Y52.746 E13.87109
G1 X112.736 Y50.554 E14.33718
G1 X113.568 Y50.433 E14.36515
G1 X114.484 Y50.34 E14.39577
G1 X115.404 Y50.328 E14.42637
G1 X116.589 Y50.43 E14.46593
G1 X117.547 Y50.568 E14.49812
G1 X131.524 Y52.783 E14.9688
G1 X132.195 Y52.898 E14.99144
G1 X133.094 Y53.093 E15.02204
G1 X133.974 Y53.365 E15.05267
G1 X135.079 Y53.833 E15.09259
G1 X135.916 Y54.245 E15.12362
G1 X148.39 Y60.6 E15.58924
G1 X149.17 Y61.011 E15.61857
G1 X149.964 Y61.475 E15.64915
G1 X150.716 Y62.007 E15.67979
G1 X151.595 Y62.77 E15.71851
G1 X152.199 Y63.355 E15.74647
G1 X162.263 Y73.418 E16.21983
G1 X162.776 Y73.944 E16.24427
G1 X163.389 Y74.63 E16.27486
G1 X163.941 Y75.367 E16.30549
G1 X164.551 Y76.378 E16.34476
G1 X165.015 Y77.255 E16.37776
G1 X171.358 Y89.705 E16.8425
G1 X171.743 Y90.487 E16.87149
G1 X172.113 Y91.33 E16.90211
G1 X172.408 Y92.202 E16.93273
G1 X172.671 Y93.333 E16.97135
G1 X172.834 Y94.27 E17.00298
G1 X175.049 Y108.268 E17.47435
G1 X175.149 Y108.959 E17.49757
G1 X175.241 Y109.875 E17.52819
G1 X175.253 Y110.795 E17.55879
G1 X175.152 Y111.974 E17.59815
G1 X175.041 Y112.752 E17.62429
G1 X172.795 Y126.93 E18.10173
G1 X172.679 Y127.599 E18.12431
G1 X172.483 Y128.498 E18.15492
G1 X172.209 Y129.377 E18.18554
G1 X171.756 Y130.447 E18.22418
G1 X171.312 Y131.352 E18.25771
G1 X164.982 Y143.776 E18.72148
G1 X164.57 Y144.558 E18.75088
G1 X164.105 Y145.353 E18.78151
G1 X163.573 Y146.104 E18.81212
G1 X162.806 Y146.989 E18.85107
G1 X162.263 Y147.549 E18.87702
G1 X152.108 Y157.705 E19.3547
G1 X151.629 Y158.171 E19.37693
G1 X150.941 Y158.783 E19.40755
G1 X150.204 Y159.334 E19.43816
G1 X149.194 Y159.943 E19.47739
G1 X148.342 Y160.392 E19.50942
G1 X135.752 Y166.806 E19.97937
G1 X135.1 Y167.127 E20.00354
G1 X134.257 Y167.497 E20.03416
G1 X133.385 Y167.793 E20.06479
G1 X132.231 Y168.061 E20.1042
G1 X131.482 Y168.191 E20.12948
G1 X117.299 Y170.437 E20.60709
G1 X116.62 Y170.535 E20.6299
G1 X115.704 Y170.627 E20.66052
G1 X114.784 Y170.639 E20.69113
G1 X113.601 Y170.537 E20.73062
G1 X112.66 Y170.401 E20.76224
G1 X98.815 Y168.209 E21.22846
G1 X97.982 Y168.065 E21.25658
G1 X97.083 Y167.869 E21.28718
G1 X96.204 Y167.595 E21.31781
G1 X95.129 Y167.14 E21.35663
G1 X94.241 Y166.704 E21.38954
G1 X81.805 Y160.368 E21.85375
G1 X81.023 Y159.956 E21.88315
G1 X80.228 Y159.491 E21.91378
G1 X79.477 Y158.959 E21.94439
G1 X78.591 Y158.191 E21.98339
G1 X77.908 Y157.527 E22.01507
G1 X67.904 Y147.52 E22.4857
G1 X67.404 Y147.005 E22.50957
G1 X66.792 Y146.317 E22.5402
G1 X66.242 Y145.579 E22.57081
G1 X65.644 Y144.587 E22.60934
G1 X65.188 Y143.724 E22.6418
G1 X58.77 Y131.126 E23.11205
G1 X58.452 Y130.479 E23.13603
G1 X58.082 Y129.636 E23.16665
G1 X57.787 Y128.764 E23.19727
G1 X57.522 Y127.62 E23.23633
G1 X57.362 Y126.692 E23.26765
G1 X55.145 Y112.694 E23.73903
G1 X55.046 Y112.009 E23.76205
G1 X54.954 Y111.093 E23.79267
G1 X54.942 Y110.173 E23.82327
G1 X55.044 Y108.988 E23.86283
G1 X55.16 Y108.179 E23.89001
G1 X57.4 Y94.043 E24.36604
G1 X57.519 Y93.359 E24.38913
G1 X57.716 Y92.46 E24.41974
G1 X57.99 Y91.581 E24.45037
G1 X58.434 Y90.53 E24.48831
G1 X58.769 Y89.843 E24.51374
G1 X65.214 Y77.191 E24.986
G1 X65.626 Y76.409 E25.01539
G1 X66.091 Y75.614 E25.04603
G1 X66.623 Y74.863 E25.07664
G1 X67.39 Y73.978 E25.11559
G1 X67.933 Y73.418 E25.14153
G0 F6000 X68.22 Y73.697
G1 F1200 X78.366 Y63.55 E25.61879
G1 X78.845 Y63.084 E25.64102
G1 X79.52 Y62.484 E25.67106
G1 X80.245 Y61.945 E25.70111
G1 X81.188 Y61.379 E25.73769
G1 X82.034 Y60.933 E25.76949
G1 X94.631 Y54.515 E26.23972
G1 X95.271 Y54.2 E26.26344
G1 X96.098 Y53.838 E26.29347
G1 X96.954 Y53.55 E26.32351
G1 X98.019 Y53.304 E26.35986
G1 X98.797 Y53.168 E26.38613
G1 X112.929 Y50.93 E26.86202
G1 X113.625 Y50.829 E26.88541
G1 X114.524 Y50.739 E26.91546
G1 X115.427 Y50.729 E26.9455
G1 X116.532 Y50.826 E26.98239
G1 X117.484 Y50.963 E27.01438
G1 X131.456 Y53.178 E27.48489
G1 X132.127 Y53.293 E27.50754
G1 X133.01 Y53.484 E27.53759
G1 X133.872 Y53.754 E27.56763
G1 X134.903 Y54.192 E27.60489
G1 X135.734 Y54.601 E27.63569
G1 X148.341 Y61.025 E28.1063
G1 X148.983 Y61.364 E28.13045
G1 X149.762 Y61.821 E28.16049
G1 X150.498 Y62.345 E28.19054
G1 X151.316 Y63.057 E28.22661
G1 X151.92 Y63.642 E28.25457
G1 X161.976 Y73.697 E28.72755
G1 X162.489 Y74.223 E28.75199
G1 X163.09 Y74.897 E28.78203
G1 X163.63 Y75.621 E28.81207
G1 X164.198 Y76.565 E28.84871
G1 X164.581 Y77.287 E28.87589
G1 X171.067 Y90.018 E29.35111
G1 X171.384 Y90.663 E29.37502
G1 X171.746 Y91.49 E29.40504
G1 X172.034 Y92.346 E29.43508
G1 X172.277 Y93.402 E29.47112
G1 X172.439 Y94.332 E29.50252
G1 X174.653 Y108.325 E29.97372
G1 X174.753 Y109.016 E29.99694
G1 X174.842 Y109.915 E30.02699
G1 X174.852 Y110.818 E30.05702
G1 X174.756 Y111.918 E30.09375
G1 X174.645 Y112.696 E30.11989
G1 X172.401 Y126.862 E30.59693
G1 X172.285 Y127.531 E30.61951
G1 X172.092 Y128.413 E30.64954
G1 X171.821 Y129.274 E30.67956
G1 X171.397 Y130.271 E30.7156
G1 X170.955 Y131.171 E30.74894
G1 X164.557 Y143.726 E31.21762
G1 X164.216 Y144.372 E31.24192
G1 X163.76 Y145.151 E31.27194
G1 X163.236 Y145.887 E31.30199
G1 X162.519 Y146.71 E31.33829
G1 X161.976 Y147.27 E31.36424
G1 X151.829 Y157.418 E31.84154
G1 X151.35 Y157.884 E31.86377
G1 X150.675 Y158.484 E31.89381
G1 X149.95 Y159.023 E31.92386
G1 X149.007 Y159.589 E31.96044
G1 X148.161 Y160.035 E31.99224
G1 X135.575 Y166.447 E32.46205
G1 X134.923 Y166.768 E32.48622
G1 X134.096 Y167.131 E32.51626
G1 X133.24 Y167.419 E32.5463
G1 X132.162 Y167.667 E32.58309
G1 X131.265 Y167.821 E32.61336
G1 X117.242 Y170.041 E33.08558
G1 X116.563 Y170.139 E33.10839
G1 X115.664 Y170.229 E33.13845
G1 X114.761 Y170.238 E33.16848
G1 X113.658 Y170.141 E33.20531
G1 X112.723 Y170.006 E33.23673
G1 X98.878 Y167.814 E33.70295
G1 X98.051 Y167.671 E33.73087
G1 X97.168 Y167.478 E33.76093
G1 X96.307 Y167.207 E33.79095
G1 X95.305 Y166.781 E33.82716
G1 X94.566 Y166.419 E33.85453
G1 X81.855 Y159.943 E34.32901
G1 X81.209 Y159.602 E34.35331
G1 X80.43 Y159.146 E34.38333
G1 X79.694 Y158.622 E34.41338
G1 X78.869 Y157.903 E34.44978
G1 X78.191 Y157.244 E34.48122
G1 X68.191 Y147.241 E34.95166
G1 X67.691 Y146.726 E34.97554
G1 X67.091 Y146.051 E35.00557
G1 X66.553 Y145.325 E35.03563
G1 X65.998 Y144.4 E35.07151
G1 X65.545 Y143.543 E35.10375
G1 X59.129 Y130.949 E35.57385
G1 X58.811 Y130.302 E35.59783
G1 X58.449 Y129.475 E35.62786
G1 X58.161 Y128.619 E35.65789
G1 X57.916 Y127.552 E35.69431
G1 X57.757 Y126.629 E35.72546
G1 X55.541 Y112.637 E36.19663
G1 X55.442 Y111.952 E36.21965
G1 X55.352 Y111.053 E36.2497
G1 X55.343 Y110.15 E36.27974
G1 X55.44 Y109.045 E36.31663
G1 X55.556 Y108.236 E36.34382
G1 X57.794 Y94.112 E36.81944
G1 X57.913 Y93.428 E36.84253
G1 X58.107 Y92.546 E36.87257
G1 X58.378 Y91.684 E36.90263
G1 X58.794 Y90.705 E36.938
G1 X59.129 Y90.018 E36.96343
G1 X65.571 Y77.372 E37.43546
G1 X65.98 Y76.595 E37.46467
G1 X66.436 Y75.816 E37.49469
G1 X66.96 Y75.08 E37.52474
G1 X67.677 Y74.257 E37.56104
G1 X68.22 Y73.697 E37.58699
G1 F1500 E31.08699
;MESH:Model3.stl
G0 F6000 X74.573 Y80.827
G0 X75.339 Y81.593
G0 X68.695 Y95.405
G0 X66.306 Y110.484
G0 X68.695 Y125.562
G0 X75.625 Y139.163
G0 X86.418 Y149.957
G0 X100.019 Y156.887
G0 X115.098 Y159.447
;TYPE:WALL-INNER
G1 F1500 E37.58699
G1 F1200 X99.965 Y157.051 E38.09658
G1 X86.317 Y150.097 E38.60605
G1 X75.485 Y139.264 E39.11557
G1 X68.531 Y125.616 E39.62504
G1 X66.134 Y110.484 E40.1346
G1 X68.531 Y95.351 E40.6442
G1 X75.485 Y81.703 E41.15367
G1 X86.317 Y70.871 E41.66317
G1 X99.965 Y63.917 E42.17263
G1 X115.098 Y61.52 E42.68223
G1 X130.23 Y63.917 E43.1918
G1 X143.878 Y70.871 E43.70126
G1 X154.711 Y81.703 E44.21079
G1 X161.665 Y95.351 E44.72025
G1 X164.061 Y110.484 E45.22985
G1 X161.665 Y125.616 E45.73941
G1 X154.711 Y139.264 E46.24887
G1 X143.878 Y150.097 E46.75842
G1 X130.23 Y157.051 E47.26789
G1 X115.098 Y159.447 E47.77745
G0 F6000 X115.098 Y159.852
;TYPE:WALL-OUTER
G1 F1200 X99.84 Y157.436 E48.29125
G1 X86.078 Y150.424 E48.80497
G1 X75.158 Y139.503 E49.31864
G1 X68.146 Y125.741 E49.83235
G1 X65.729 Y110.484 E50.34613
G1 X68.146 Y95.226 E50.85994
G1 X75.158 Y81.464 E51.37366
G1 X86.078 Y70.544 E51.8873
G1 X99.84 Y63.532 E52.40102
G1 X115.098 Y61.115 E52.91483
G1 X130.355 Y63.532 E53.42861
G1 X144.117 Y70.544 E53.94233
G1 X155.038 Y81.464 E54.45599
G1 X162.05 Y95.226 E54.96971
G1 X164.466 Y110.484 E55.48351
G1 X162.05 Y125.741 E55.99729
G1 X155.038 Y139.503 E56.511
G1 X144.117 Y150.424 E57.02469
G1 X130.355 Y157.436 E57.53841
G1 X115.098 Y159.852 E58.05218
G0 F6000 X115.098 Y159.412
G0 X115.098 Y159.051
;TYPE:SKIN
G1 F1200 X100.083 Y156.674 E58.5578
G1 X86.548 Y149.778 E59.06304
G1 X75.804 Y139.033 E59.56843
G1 X68.908 Y125.498 E60.07367
G1 X66.53 Y110.484 E60.57926
G1 X68.908 Y95.469 E61.08489
G1 X75.804 Y81.934 E61.59012
G1 X86.548 Y71.19 E62.09549
G1 X100.083 Y64.294 E62.60073
G1 X115.098 Y61.916 E63.10635
G1 X130.112 Y64.294 E63.61194
G1 X143.647 Y71.19 E64.11718
G1 X154.392 Y81.934 E64.62257
G1 X161.288 Y95.469 E65.12781
G1 X163.665 Y110.484 E65.63343
G1 X161.288 Y125.498 E66.13901
G1 X154.392 Y139.033 E66.64425
G1 X143.647 Y149.778 E67.14966
G1 X130.112 Y156.674 E67.6549
G1 X115.098 Y159.051 E68.16049
G1 F1500 E61.66049
G0 F6000 X115.054 Y159.328
G0 X100.019 Y156.887
G0 X86.418 Y149.957
G0 X75.625 Y139.163
G0 X75.321 Y138.701
G1 F1500 E68.16049
G0 F6000 X75.712 Y138.503
G1 F1200 X87.076 Y149.867 E68.69502
G0 F6000 X86.876 Y150.258
G0 X88.029 Y150.846
G0 X88.229 Y150.455
G1 F1200 X75.125 Y137.35 E69.31141
G0 F6000 X74.734 Y137.548
G0 X74.146 Y136.395
G0 X74.537 Y136.197
G1 F1200 X89.383 Y151.042 E70.0097
G0 F6000 X89.183 Y151.434
G0 X90.337 Y152.022
G0 X90.537 Y151.631
G1 F1200 X73.949 Y135.043 E70.78995
G0 F6000 X73.558 Y135.241
G0 X72.971 Y134.088
G0 X73.362 Y133.89
G1 F1200 X91.69 Y152.218 E71.65204
G0 F6000 X91.49 Y152.609
G0 X92.643 Y153.197
G0 X92.843 Y152.806
G1 F1200 X72.774 Y132.737 E72.59603
G0 F6000 X72.383 Y132.935
G0 X71.796 Y131.782
G0 X72.187 Y131.584
G1 F1200 X93.997 Y153.394 E73.6219
G0 F6000 X93.797 Y153.785
G0 X94.95 Y154.372
G0 X95.15 Y153.981
G1 F1200 X71.599 Y130.43 E74.72967
G0 F6000 X71.208 Y130.628
G0 X70.621 Y129.475
G0 X71.011 Y129.277
G1 F1200 X96.303 Y154.569 E75.91933
G0 F6000 X96.104 Y154.96
G0 X97.256 Y155.547
G0 X97.456 Y155.156
G1 F1200 X70.424 Y128.124 E77.19083
G0 F6000 X70.033 Y128.322
G0 X69.445 Y127.168
G0 X69.836 Y126.97
G1 F1200 X98.61 Y155.744 E78.54427
G0 F6000 X98.41 Y156.135
G0 X99.564 Y156.723
G0 X99.764 Y156.332
G1 F1200 X69.249 Y125.817 E79.9796
G0 F6000 X68.988 Y124.991
G1 F1200 X100.588 Y156.591 E81.46597
G0 F6000 X101.26 Y156.697
G1 F1200 X68.882 Y124.319 E82.98893
G0 F6000 X68.776 Y123.647
G1 F1200 X101.932 Y156.804 E84.54851
G0 F6000 X102.604 Y156.91
G1 F1200 X68.669 Y122.975 E86.14471
G0 F6000 X68.563 Y122.304
G1 F1200 X103.277 Y157.017 E87.77753
G0 F6000 X103.948 Y157.123
G1 F1200 X68.457 Y121.631 E89.44694
