;FLAVOR:Marlin
;TIME:11440
;Filament used: 5.71582m
;Layer height: 0.2
;MINX:54
;MINY:54
;MINZ:0.2
;MAXX:166
;MAXY:166
;MAXZ:4.4
;Generated with Cura_SteamEngine 4.13.1
M140 S60
M105
M190 S60
M104 S200
M105
M109 S200
M82 ;absolute extrusion mode
; Ender 3 Custom Start G-code
G92 E0 ; Reset Extruder
G28 ; Home all axes
G1 Z2.0 F3000 ; Move Z Axis up little to prevent scratching of Heat Bed
G1 X0.1 Y20 Z0.3 F5000.0 ; Move to start position
G1 X0.1 Y200.0 Z0.3 F1500.0 E15 ; Draw the first line
G1 X0.4 Y200.0 Z0.3 F5000.0 ; Move to side a little
G1 X0.4 Y20 Z0.3 F1500.0 E30 ; Draw the second line
G92 E0 ; Reset Extruder
G1 Z2.0 F3000 ; Move Z Axis up little to prevent scratching of Heat Bed
G1 X5 Y20 Z0.3 F5000.0 ; Move over to prevent blob squish
G92 E0
G92 E0
G1 F1500 E-6.5
;LAYER_COUNT:22
;LAYER:0
M107
G0 F6000 X57.919 Y57.98 Z0.2
;TYPE:SKIRT
G1 F1500 E0
G1 F1200 X58.731 Y57.179 E0.03794
G1 X59.426 Y56.549 E0.06914
G1 X60.172 Y55.981 E0.10032
G1 X60.964 Y55.479 E0.13151
G1 X61.796 Y55.046 E0.1627
G1 X62.662 Y54.685 E0.19391
G1 X63.555 Y54.399 E0.2251
G1 X64.47 Y54.191 E0.25631
G1 X65.399 Y54.061 E0.28751
G1 X66.119 Y54.015 E0.3115
G1 X66.445 Y54.005 E0.32235
G1 X66.782 Y54 E0.33356
G1 X152.841 Y54 E3.19589
G1 X153.7 Y54.011 E3.22447
G1 X154.637 Y54.064 E3.25568
G1 X155.565 Y54.197 E3.28686
G1 X156.479 Y54.409 E3.31807
G1 X157.371 Y54.697 E3.34925
G1 X158.236 Y55.061 E3.38046
G1 X159.066 Y55.497 E3.41164
G1 X159.857 Y56.002 E3.44286
G1 X160.601 Y56.572 E3.47403
G1 X161.251 Y57.161 E3.5032
G1 X161.983 Y57.882 E3.53738
G1 X162.823 Y58.734 E3.57717
G1 X163.453 Y59.43 E3.60839
G1 X164.02 Y60.176 E3.63956
G1 X164.523 Y60.968 E3.67077
G1 X164.956 Y61.8 E3.70196
G1 X165.316 Y62.666 E3.73315
G1 X165.601 Y63.559 E3.76433
G1 X165.81 Y64.474 E3.79555
G1 X165.939 Y65.402 E3.82671
G1 X165.985 Y66.119 E3.85061
G1 X165.995 Y66.444 E3.86142
G1 X166 Y66.782 E3.87267
G1 X165.999 Y152.974 E6.73942
G1 X165.989 Y153.696 E6.76344
G1 X165.936 Y154.633 E6.79465
G1 X165.803 Y155.561 E6.82583
G1 X165.592 Y156.475 E6.85703
G1 X165.304 Y157.367 E6.88821
G1 X164.941 Y158.232 E6.91941
G1 X164.505 Y159.063 E6.95062
G1 X164.001 Y159.853 E6.98179
G1 X163.431 Y160.598 E7.01299
G1 X162.833 Y161.257 E7.04259
G1 X162.127 Y161.973 E7.07603
G1 X161.276 Y162.814 E7.11582
G1 X160.581 Y163.444 E7.14702
G1 X159.836 Y164.013 E7.1782
G1 X159.044 Y164.516 E7.20941
G1 X158.213 Y164.95 E7.24059
G1 X157.347 Y165.312 E7.27181
G1 X156.454 Y165.598 E7.303
G1 X155.54 Y165.807 E7.33418
G1 X154.611 Y165.938 E7.36539
G1 X153.881 Y165.985 E7.38972
G1 X153.555 Y165.995 E7.40056
G1 X153.218 Y166 E7.41177
G1 X67.002 Y165.999 E10.27933
G1 X66.3 Y165.989 E10.30268
G1 X65.364 Y165.936 E10.33386
G1 X64.436 Y165.803 E10.36504
G1 X63.522 Y165.591 E10.39625
G1 X62.629 Y165.303 E10.42746
G1 X61.765 Y164.939 E10.45864
G1 X60.934 Y164.503 E10.48985
G1 X60.144 Y163.998 E10.52104
G1 X59.114 Y163.18 E10.56478
G1 X58.709 Y162.8 E10.58326
G1 X57.995 Y162.096 E10.61661
G1 X57.18 Y161.27 E10.6552
G1 X56.55 Y160.575 E10.6864
G1 X55.982 Y159.829 E10.71759
G1 X55.48 Y159.037 E10.74877
G1 X55.046 Y158.205 E10.77998
G1 X54.685 Y157.339 E10.81119
G1 X54.4 Y156.446 E10.84237
G1 X54.191 Y155.532 E10.87355
G1 X54.061 Y154.603 E10.90475
G1 X54.015 Y153.881 E10.92881
G1 X54.005 Y153.555 E10.93966
G1 X54 Y153.218 E10.95087
G1 X54.001 Y67.003 E13.81839
G1 X54.011 Y66.3 E13.84178
G1 X54.064 Y65.363 E13.87299
G1 X54.197 Y64.435 E13.90417
G1 X54.409 Y63.521 E13.93538
G1 X54.697 Y62.629 E13.96656
G1 X55.061 Y61.764 E13.99777
G1 X55.497 Y60.934 E14.02895
G1 X56.002 Y60.143 E14.06017
G1 X56.572 Y59.399 E14.09134
G1 X57.165 Y58.745 E14.1207
G1 X57.919 Y57.98 E14.15643
G0 F6000 X58.084 Y58.38
G1 F1200 X59.012 Y57.464 E14.1998
G1 X59.695 Y56.846 E14.23043
G1 X60.429 Y56.29 E14.26106
G1 X61.208 Y55.8 E14.29167
G1 X62.027 Y55.38 E14.32228
G1 X62.879 Y55.032 E14.35289
G1 X63.759 Y54.759 E14.38354
G1 X64.658 Y54.564 E14.41413
G1 X65.572 Y54.447 E14.44478
G1 X66.131 Y54.415 E14.4634
G1 X66.457 Y54.405 E14.47425
G1 X66.782 Y54.4 E14.48506
G1 X152.841 Y54.4 E17.3474
G1 X153.695 Y54.411 E17.3758
G1 X154.614 Y54.464 E17.40642
G1 X155.525 Y54.597 E17.43704
G1 X156.421 Y54.808 E17.46766
G1 X157.295 Y55.096 E17.49826
G1 X158.142 Y55.459 E17.52891
G1 X158.953 Y55.894 E17.55952
G1 X159.724 Y56.398 E17.59016
G1 X160.448 Y56.966 E17.62077
G1 X160.97 Y57.446 E17.64435
G1 X161.698 Y58.163 E17.67834
G1 X162.538 Y59.015 E17.71813
G1 X163.156 Y59.698 E17.74877
G1 X163.711 Y60.432 E17.77937
G1 X164.201 Y61.212 E17.81001
G1 X164.622 Y62.031 E17.84064
G1 X164.969 Y62.883 E17.87124
G1 X165.242 Y63.763 E17.90188
G1 X165.437 Y64.662 E17.93248
G1 X165.553 Y65.576 E17.96312
G1 X165.585 Y66.131 E17.98161
G1 X165.595 Y66.456 E17.99243
G1 X165.6 Y66.782 E18.00327
G1 X165.599 Y152.969 E20.86986
G1 X165.589 Y153.691 E20.89388
G1 X165.536 Y154.61 E20.92449
G1 X165.404 Y155.521 E20.95511
G1 X165.193 Y156.417 E20.98573
G1 X164.905 Y157.292 E21.01637
G1 X164.543 Y158.138 E21.04697
G1 X164.108 Y158.95 E21.07761
G1 X163.605 Y159.72 E21.1082
G1 X163.036 Y160.445 E21.13885
G1 X162.548 Y160.977 E21.16286
G1 X161.953 Y161.582 E21.19109
G1 X160.995 Y162.529 E21.23589
G1 X160.313 Y163.148 E21.26652
G1 X159.579 Y163.704 E21.29715
G1 X158.8 Y164.195 E21.32778
G1 X157.982 Y164.616 E21.35838
G1 X157.13 Y164.965 E21.389
G1 X156.251 Y165.239 E21.41962
G1 X155.351 Y165.435 E21.45026
G1 X154.438 Y165.552 E21.48087
G1 X153.869 Y165.585 E21.49983
G1 X153.543 Y165.595 E21.51068
G1 X153.218 Y165.6 E21.52149
G1 X67.008 Y165.599 E24.38884
G1 X66.306 Y165.589 E24.4122
G1 X65.387 Y165.536 E24.44281
G1 X64.476 Y165.403 E24.47343
G1 X63.58 Y165.192 E24.50405
G1 X62.705 Y164.904 E24.53469
G1 X61.859 Y164.541 E24.56531
G1 X61.048 Y164.106 E24.59592
G1 X60.277 Y163.602 E24.62655
G1 X59.381 Y162.882 E24.66478
G1 X58.989 Y162.515 E24.68264
G1 X58.28 Y161.815 E24.71578
G1 X57.465 Y160.989 E24.75438
G1 X56.847 Y160.306 E24.78501
G1 X56.291 Y159.572 E24.81564
G1 X55.801 Y158.793 E24.84625
G1 X55.38 Y157.974 E24.87688
G1 X55.032 Y157.122 E24.90749
G1 X54.759 Y156.242 E24.93813
G1 X54.564 Y155.343 E24.96873
G1 X54.447 Y154.43 E24.99934
G1 X54.415 Y153.869 E25.01803
G1 X54.405 Y153.543 E25.02888
G1 X54.4 Y153.218 E25.03969
G1 X54.401 Y67.008 E27.90705
G1 X54.411 Y66.305 E27.93043
G1 X54.464 Y65.386 E27.96105
G1 X54.597 Y64.475 E27.99167
G1 X54.808 Y63.579 E28.02228
G1 X55.096 Y62.705 E28.05289
G1 X55.459 Y61.858 E28.08354
G1 X55.894 Y61.047 E28.11415
G1 X56.398 Y60.276 E28.14479
G1 X56.966 Y59.552 E28.17539
G1 X57.45 Y59.025 E28.19919
G1 X58.084 Y58.38 E28.22927
G0 F6000 X58.481 Y58.549
G1 F1200 X59.293 Y57.748 E28.26721
G1 X59.963 Y57.143 E28.29723
G1 X60.685 Y56.6 E28.32728
G1 X61.451 Y56.122 E28.35731
G1 X62.257 Y55.714 E28.38736
G1 X63.095 Y55.379 E28.41738
G1 X63.96 Y55.12 E28.44741
G1 X64.845 Y54.938 E28.47746
G1 X66.143 Y54.815 E28.52082
G1 X66.469 Y54.805 E28.53167
G1 X66.782 Y54.8 E28.54208
G1 X152.841 Y54.8 E31.40442
G1 X153.689 Y54.811 E31.43262
G1 X154.591 Y54.864 E31.46268
G1 X155.484 Y54.996 E31.4927
G1 X156.362 Y55.207 E31.52273
G1 X157.218 Y55.495 E31.55277
G1 X158.045 Y55.857 E31.5828
G1 X158.837 Y56.291 E31.61284
G1 X159.588 Y56.793 E31.64288
G1 X160.291 Y57.36 E31.67292
G1 X160.69 Y57.732 E31.69107
G1 X161.413 Y58.444 E31.72482
G1 X162.253 Y59.296 E31.76461
G1 X162.858 Y59.966 E31.79463
G1 X163.402 Y60.688 E31.8247
G1 X163.879 Y61.454 E31.85472
G1 X164.287 Y62.26 E31.88476
G1 X164.621 Y63.099 E31.9148
G1 X164.881 Y63.964 E31.94484
G1 X165.062 Y64.849 E31.97488
G1 X165.185 Y66.143 E32.01812
G1 X165.195 Y66.468 E32.02893
G1 X165.2 Y66.782 E32.03938
G1 X165.199 Y152.963 E34.90577
G1 X165.189 Y153.685 E34.92978
G1 X165.137 Y154.587 E34.95983
G1 X165.005 Y155.48 E34.98986
G1 X164.794 Y156.358 E35.01989
G1 X164.507 Y157.215 E35.04995
G1 X164.145 Y158.042 E35.07998
G1 X163.711 Y158.834 E35.11001
G1 X163.209 Y159.585 E35.14006
G1 X162.642 Y160.288 E35.1701
G1 X162.262 Y160.696 E35.18864
G1 X161.565 Y161.404 E35.22169
G1 X160.714 Y162.245 E35.26148
G1 X160.044 Y162.851 E35.29153
G1 X159.323 Y163.395 E35.32157
G1 X158.557 Y163.873 E35.3516
G1 X157.752 Y164.282 E35.38163
G1 X156.913 Y164.617 E35.41168
G1 X156.048 Y164.878 E35.44173
G1 X155.164 Y165.061 E35.47176
G1 X153.857 Y165.185 E35.51542
G1 X153.531 Y165.195 E35.52627
G1 X153.218 Y165.2 E35.53668
G1 X67.014 Y165.199 E38.40384
G1 X66.312 Y165.189 E38.42719
G1 X65.41 Y165.136 E38.45724
G1 X64.517 Y165.004 E38.48727
G1 X63.639 Y164.793 E38.5173
G1 X62.783 Y164.505 E38.54734
G1 X61.955 Y164.143 E38.5774
G1 X61.163 Y163.709 E38.60743
G1 X60.413 Y163.206 E38.63747
G1 X59.648 Y162.585 E38.67024
G1 X59.27 Y162.231 E38.68747
G1 X58.564 Y161.534 E38.72046
G1 X57.749 Y160.708 E38.75906
G1 X57.144 Y160.038 E38.78908
G1 X56.601 Y159.316 E38.81913
G1 X56.123 Y158.55 E38.84916
G1 X55.715 Y157.744 E38.87921
G1 X55.38 Y156.906 E38.90922
G1 X55.12 Y156.041 E38.93927
G1 X54.938 Y155.156 E38.96932
G1 X54.815 Y153.857 E39.01271
G1 X54.805 Y153.531 E39.02356
G1 X54.8 Y153.218 E39.03397
G1 X54.801 Y67.014 E41.90113
G1 X54.811 Y66.311 E41.92452
G1 X54.864 Y65.409 E41.95457
G1 X54.996 Y64.516 E41.98459
G1 X55.207 Y63.638 E42.01463
G1 X55.495 Y62.782 E42.04466
G1 X55.857 Y61.955 E42.07469
G1 X56.291 Y61.163 E42.10473
G1 X56.793 Y60.412 E42.13477
G1 X57.36 Y59.709 E42.16481
G1 X57.736 Y59.306 E42.18314
G1 X58.481 Y58.549 E42.21847
G1 F1500 E35.71847
;MESH:SA3Design.stl
G0 F6000 X87.585 Y68.514
G0 X93.379 Y68.556
G0 X93.445 Y70.521
G0 X97.52 Y71.917
G0 X97.575 Y71.501
G0 X98.305 Y72.185
G0 X107.163 Y75.218
G0 X107.908 Y75.918
G0 X107.961 Y75.492
G0 X115.708 Y78.145
G0 X112.977 Y80.968
G0 X124.516 Y92.507
G0 X133.034 Y84.078
G0 X137.335 Y85.55
G0 X139.032 Y83.945
G0 X142.457 Y87.304
G0 X151.439 Y90.381
G0 X150.424 Y91.396
G0 X151.956 Y92.687
;TYPE:WALL-INNER
G1 F1500 E42.21847
G1 F1200 X152.697 Y92.381 E42.24513
G1 X152.697 Y81.819 E42.59643
G1 X142.135 Y81.819 E42.94772
G1 X141.829 Y82.56 E42.97439
G1 X151.956 Y92.687 E43.45073
G0 F6000 X152.05 Y92.215
;TYPE:WALL-OUTER
G1 F1200 X152.297 Y92.113 E43.45962
G1 X152.297 Y82.219 E43.78869
G1 X142.403 Y82.219 E44.11777
G1 X142.301 Y82.466 E44.12666
G1 X152.05 Y92.215 E44.58522
G1 F1500 E38.08522
G0 F6000 X151.838 Y92.426
G0 X152.53 Y92.269
G0 X152.525 Y81.991
G0 X151.956 Y81.629
G0 X151.444 Y83.072
G0 X151.432 Y75.825
G0 X152.867 Y75.825
G0 X152.53 Y77.753
G0 X151.956 Y78.171
;TYPE:WALL-INNER
G1 F1500 E44.58522
G1 F1200 X152.697 Y77.865 E44.61188
G1 X152.697 Y69.554 E44.88831
G1 X151.956 Y69.248 E44.91497
G1 X147.494 Y73.71 E45.12485
G1 X151.956 Y78.171 E45.33471
G0 F6000 X152.05 Y77.699
;TYPE:WALL-OUTER
G1 F1200 X152.297 Y77.597 E45.3436
G1 X152.297 Y69.822 E45.60219
G1 X152.05 Y69.72 E45.61108
G1 X148.06 Y73.71 E45.79876
G1 X152.05 Y77.699 E45.98641
G1 F1500 E39.48641
G0 F6000 X151.837 Y77.91
G0 X147.359 Y73.576
G0 X146.424 Y72.641
G0 X146.29 Y72.506
;TYPE:WALL-INNER
G1 F1500 E45.98641
G1 F1200 X150.752 Y68.044 E46.19629
G1 X150.446 Y67.303 E46.22296
G1 X142.135 Y67.303 E46.49938
G1 X141.829 Y68.044 E46.52605
G1 X146.29 Y72.506 E46.7359
G0 F6000 X146.29 Y71.94
;TYPE:WALL-OUTER
G1 F1200 X150.28 Y67.95 E46.92358
G1 X150.178 Y67.703 E46.93247
G1 X142.403 Y67.703 E47.19106
G1 X142.301 Y67.95 E47.19995
G1 X146.29 Y71.94 E47.38761
G1 F1500 E40.88761
G0 F6000 X146.078 Y72.15
G0 X146.29 Y72.783
G0 X146.29 Y74.637
G0 X142.026 Y79.415
G0 X142.135 Y80.116
;TYPE:WALL-INNER
G1 F1500 E47.38761
G1 F1200 X150.446 Y80.116 E47.66403
G1 X150.752 Y79.375 E47.6907
G1 X146.29 Y74.914 E47.90055
G1 X141.829 Y79.375 E48.11038
G1 X142.135 Y80.116 E48.13705
G0 F6000 X142.403 Y79.716
;TYPE:WALL-OUTER
G1 F1200 X150.178 Y79.716 E48.39565
G1 X150.28 Y79.469 E48.40453
G1 X146.29 Y75.48 E48.59219
G1 X142.301 Y79.469 E48.77982
G1 X142.403 Y79.716 E48.78871
G1 F1500 E42.28871
G0 F6000 X142.403 Y80.016
G0 X141.694 Y79.241
G0 X140.759 Y78.306
G0 X140.625 Y78.171
;TYPE:WALL-INNER
G1 F1500 E48.78871
G1 F1200 X145.086 Y73.71 E48.99854
G1 X140.625 Y69.248 E49.20839
G1 X139.884 Y69.554 E49.23506
G1 X139.884 Y77.865 E49.51148
G1 X140.625 Y78.171 E49.53815
G0 F6000 X140.531 Y77.699
;TYPE:WALL-OUTER
G1 F1200 X144.52 Y73.71 E49.72578
G1 X140.531 Y69.72 E49.91343
G1 X140.284 Y69.822 E49.92232
G1 X140.284 Y77.597 E50.18092
G1 X140.531 Y77.699 E50.1898
G1 F1500 E43.6898
G0 F6000 X140.742 Y77.911
G0 X139.69 Y77.994
G0 X138.375 Y77.994
G0 X137.44 Y78.171
;TYPE:WALL-INNER
G1 F1500 E50.1898
G1 F1200 X138.181 Y77.865 E50.21647
G1 X138.181 Y67.303 E50.56776
G1 X127.619 Y67.303 E50.91906
G1 X127.313 Y68.044 E50.94572
G1 X137.44 Y78.171 E51.42206
G0 F6000 X137.534 Y77.699
;TYPE:WALL-OUTER
G1 F1200 X137.781 Y77.597 E51.43095
G1 X137.781 Y67.703 E51.76003
G1 X127.887 Y67.703 E52.0891
G1 X127.785 Y67.95 E52.09799
G1 X137.534 Y77.699 E52.55655
G1 F1500 E46.05655
G0 F6000 X137.322 Y77.91
G0 X137.394 Y78.4
G0 X136.186 Y79.609
G0 X136.471 Y79.843
G0 X137.585 Y80.968
G0 X124.516 Y94.28
;TYPE:WALL-INNER
G1 F1500 E52.55655
G1 F1200 X137.828 Y80.968 E53.18271
G1 X124.516 Y67.656 E53.80887
G1 X111.204 Y80.968 E54.43502
G1 X124.516 Y94.28 E55.06118
G0 F6000 X124.516 Y93.714
;TYPE:WALL-OUTER
G1 F1200 X137.262 Y80.968 E55.66071
G1 X124.516 Y68.222 E56.26024
G1 X111.77 Y80.968 E56.85978
G1 X124.516 Y93.714 E57.45931
G1 F1500 E50.95931
G0 F6000 X124.304 Y93.925
G0 X121.522 Y91.527
G0 X122.537 Y90.512
G0 X114.439 Y88.314
G0 X112.092 Y86.017
G0 X112.037 Y87.662
G0 X107.961 Y86.556
G0 X107.908 Y90.434
G0 X102.499 Y85.074
G0 X91.477 Y82.083
G0 X92.507 Y80.968
G0 X80.968 Y69.429
G0 X73.186 Y77.12
G0 X68.568 Y75.868
G0 X67.133 Y75.868
G0 X67.47 Y77.753
G0 X68.044 Y78.171
;TYPE:WALL-INNER
G1 F1500 E57.45931
G1 F1200 X78.171 Y68.044 E57.93565
G1 X77.865 Y67.303 E57.96232
G1 X67.303 Y67.303 E58.31361
G1 X67.303 Y77.865 E58.6649
G1 X68.044 Y78.171 E58.69157
G0 F6000 X67.95 Y77.699
;TYPE:WALL-OUTER
G1 F1200 X77.699 Y67.95 E59.15013
G1 X77.597 Y67.703 E59.15902
G1 X67.703 Y67.703 E59.48809
G1 X67.703 Y77.597 E59.81717
G1 X67.95 Y77.699 E59.82606
G1 F1500 E53.32606
G0 F6000 X68.161 Y77.911
G0 X70.836 Y75.62
G0 X69.821 Y74.605
G0 X75.411 Y74.903
G0 X80.968 Y69.429
G0 X87.149 Y75.531
G0 X93.374 Y75.865
G0 X92.359 Y76.88
G0 X93.891 Y78.171
;TYPE:WALL-INNER
G1 F1500 E59.82606
G1 F1200 X94.632 Y77.865 E59.85272
G1 X94.632 Y67.303 E60.20402
G1 X84.07 Y67.303 E60.55531
G1 X83.764 Y68.044 E60.58197
G1 X93.891 Y78.171 E61.05832
G0 F6000 X93.985 Y77.699
;TYPE:WALL-OUTER
G1 F1200 X94.232 Y77.597 E61.06721
G1 X94.232 Y67.703 E61.39628
G1 X84.338 Y67.703 E61.72536
G1 X84.236 Y67.95 E61.73425
G1 X93.985 Y77.699 E62.19281
G1 F1500 E55.69281
G0 F6000 X93.773 Y77.91
G0 X94.826 Y77.994
G0 X96.141 Y77.994
G0 X97.076 Y78.171
;TYPE:WALL-INNER
G1 F1500 E62.19281
G1 F1200 X101.538 Y73.71 E62.40266
G1 X97.076 Y69.248 E62.61254
G1 X96.335 Y69.554 E62.63921
G1 X96.335 Y77.865 E62.91563
G1 X97.076 Y78.171 E62.9423
G0 F6000 X96.982 Y77.699
;TYPE:WALL-OUTER
G1 F1200 X100.972 Y73.71 E63.12995
G1 X96.982 Y69.72 E63.31763
G1 X96.735 Y69.822 E63.32652
G1 X96.735 Y77.597 E63.58511
G1 X96.982 Y77.699 E63.594
G1 F1500 E57.094
G0 F6000 X97.193 Y77.912
G0 X101.672 Y73.575
G0 X102.607 Y72.64
G0 X102.742 Y72.506
;TYPE:WALL-INNER
G1 F1500 E63.594
G1 F1200 X107.203 Y68.044 E63.80386
G1 X106.897 Y67.303 E63.83052
G1 X98.586 Y67.303 E64.10695
G1 X98.28 Y68.044 E64.13361
G1 X102.742 Y72.506 E64.34349
G0 F6000 X102.742 Y71.94
;TYPE:WALL-OUTER
G1 F1200 X106.731 Y67.95 E64.53114
G1 X106.629 Y67.703 E64.54003
G1 X98.854 Y67.703 E64.79863
G1 X98.752 Y67.95 E64.80752
G1 X102.742 Y71.94 E64.9952
G1 F1500 E58.4952
G0 F6000 X102.53 Y72.151
